mbdulkadiroglu/VisualAffordanceDataset/synchronized_frames_2.csv
RealSense_frame,Vicon_frame,Vicon_timestamp,RightHand1:Wrist1_X,RightHand1:Wrist1_Y,RightHand1:Wrist1_Z,RightHand1:Wrist2_X,RightHand1:Wrist2_Y,RightHand1:Wrist2_Z,RightHand1:Wrist3_X,RightHand1:Wrist3_Y,RightHand1:Wrist3_Z,RightHand1:Thumb1_X,RightHand1:Thumb1_Y,RightHand1:Thumb1_Z,RightHand1:Thumb2_X,RightHand1:Thumb2_Y,RightHand1:Thumb2_Z,RightHand1:Thumb3_X,RightHand1:Thumb3_Y,RightHand1:Thumb3_Z,RightHand1:IndexFinger1_X,RightHand1:IndexFinger1_Y,RightHand1:IndexFinger1_Z,RightHand1:IndexFinger2_X,RightHand1:IndexFinger2_Y,RightHand1:IndexFinger2_Z,RightHand1:IndexFinger3_X,RightHand1:IndexFinger3_Y,RightHand1:IndexFinger3_Z,Realsense:Camera1_X,Realsense:Camera1_Y,Realsense:Camera1_Z,Realsense:Camera2_X,Realsense:Camera2_Y,Realsense:Camera2_Z,Realsense:Camera3_X,Realsense:Camera3_Y,Realsense:Camera3_Z,LeftHand1:IndexFinger1_X,LeftHand1:IndexFinger1_Y,LeftHand1:IndexFinger1_Z,LeftHand1:IndexFinger2_X,LeftHand1:IndexFinger2_Y,LeftHand1:IndexFinger2_Z,LeftHand1:IndexFinger3_X,LeftHand1:IndexFinger3_Y,LeftHand1:IndexFinger3_Z,LeftHand1:Thumb1_X,LeftHand1:Thumb1_Y,LeftHand1:Thumb1_Z,LeftHand1:Thumb2_X,LeftHand1:Thumb2_Y,LeftHand1:Thumb2_Z,LeftHand1:Thumb3_X,LeftHand1:Thumb3_Y,LeftHand1:Thumb3_Z,LeftHand1:Wrist1_X,LeftHand1:Wrist1_Y,LeftHand1:Wrist1_Z,LeftHand1:Wrist2_X,LeftHand1:Wrist2_Y,LeftHand1:Wrist2_Z,LeftHand1:Wrist3_X,LeftHand1:Wrist3_Y,LeftHand1:Wrist3_Z,LeftHand1:Wrist4_X,LeftHand1:Wrist4_Y,LeftHand1:Wrist4_Z,CerealBox:Corner1_X,CerealBox:Corner1_Y,CerealBox:Corner1_Z,CerealBox:Corner2_X,CerealBox:Corner2_Y,CerealBox:Corner2_Z,CerealBox:Corner3_X,CerealBox:Corner3_Y,CerealBox:Corner3_Z,CerealBox:Corner4_X,CerealBox:Corner4_Y,CerealBox:Corner4_Z,CerealBox:Corner5_X,CerealBox:Corner5_Y,CerealBox:Corner5_Z,CerealBox:Corner6_X,CerealBox:Corner6_Y,CerealBox:Corner6_Z,CerealBox:Corner7_X,CerealBox:Corner7_Y,CerealBox:Corner7_Z,CerealBox:Corner8_X,CerealBox:Corner8_Y,CerealBox:Corner8_Z
00131_color_1715712646.818708.png,2479,1715712646.813879,643.664856,1338.594238,860.525391,654.58252,1389.430298,886.337952,681.795532,1343.803223,897.907898,685.460205,1300.087402,853.346436,675.908875,1275.337158,826.259033,653.911621,1256.783691,805.080261,611.435486,1288.954468,819.152771,595.92926,1277.975464,796.712708,585.609314,1265.887329,770.669434,295.506989,956.343628,1496.416626,242.232666,948.512268,1512.220947,191.279419,963.035645,1491.769531,133.660767,276.753632,762.889709,163.64743,275.993073,756.378052,185.983444,275.929901,751.648682,60.979122,237.322388,760.215027,87.682938,221.791199,754.043762,117.154579,209.240952,748.521729,90.942192,291.623352,775.806885,78.829041,323.565857,765.99646,46.38298,301.749756,776.621277,-17.925123,285.18866,790.327454,372.334534,-318.558868,1005.46875,364.436462,-407.915009,1002.996094,539.840637,-430.683838,1003.407227,546.835388,-344.895142,1004.475708,376.335602,-317.518982,737.114563,364.045288,-404.620361,737.326416,541.082703,-425.154327,739.032593,553.389221,-336.840179,739.925354
00132_color_1715712646.853189.png,2483,1715712646.853879,648.640625,1315.04126,863.264526,662.577026,1364.982788,889.170105,687.172791,1317.628296,900.276123,687.277466,1273.676758,855.968994,675.854492,1249.465088,828.985718,652.740967,1232.520508,807.805176,612.627563,1267.841431,822.395081,596.002502,1258.065063,800.243469,585.113953,1246.498413,773.783752,295.496002,956.316162,1496.398682,242.230087,948.509949,1512.221191,191.274979,963.039795,1491.767578,133.603745,276.747955,762.889099,163.585876,275.962616,756.371582,185.922684,275.923523,751.627625,60.9492,237.317856,760.183228,87.666077,221.786224,754.024597,117.123146,209.255707,748.502197,90.90033,291.606232,775.775696,78.677841,323.601746,766.108215,46.344162,301.733826,776.608154,-17.966309,285.201813,790.298096,372.325897,-318.501495,1005.534912,364.422424,-407.144867,1002.440186,539.828308,-430.720245,1003.410217,546.822571,-344.929718,1004.474182,376.326324,-317.523376,737.118347,364.045258,-404.617279,737.313721,541.083618,-425.181946,739.040588,553.389221,-336.830017,739.930115
00133_color_1715712646.891762.png,2487,1715712646.893879,651.871338,1288.630493,866.994385,668.330872,1338.312988,892.109985,690.239624,1290.282715,904.441833,687.945862,1245.634888,861.382019,676.121155,1221.221558,834.163452,651.935547,1204.81897,813.529541,613.602356,1242.561279,826.995178,596.726135,1233.166504,804.815125,585.033508,1221.829468,778.867615,295.505402,956.326233,1496.405396,242.238632,948.502563,1512.219849,191.28447,963.036316,1491.759155,133.713058,276.7547,762.898254,163.703079,275.972351,756.34314,186.038986,275.908478,751.593445,61.025253,237.431,760.24054,87.716888,221.850098,754.050598,117.171089,209.290024,748.509888,91.082321,291.674683,775.765808,78.727524,323.476196,765.872009,46.461468,301.856445,776.609497,-17.877913,285.470551,790.322693,372.343201,-318.538422,1005.490417,364.439972,-407.108063,1002.413757,539.84021,-430.693512,1003.398926,546.842224,-344.924988,1004.465454,376.341736,-317.507629,737.11322,364.044403,-404.621124,737.338074,541.067017,-425.110352,739.009277,553.397339,-336.821655,739.91864
00134_color_1715712646.925919.png,2490,1715712646.9238791,653.621399,1268.103516,871.348083,670.7677,1318.315186,895.898132,692.378052,1270.254395,908.837952,689.471497,1224.946899,866.244812,677.6026,1200.045288,839.402954,653.091125,1183.636597,819.373657,615.099976,1221.820068,831.917542,598.200378,1212.08606,809.967896,585.842224,1200.553955,784.56366,295.5065,956.345947,1496.40979,242.235107,948.510376,1512.218994,191.273209,963.046875,1491.765381,133.850418,276.728271,762.858582,163.855698,275.950684,756.321838,186.167084,275.860931,751.58313,61.101112,237.530762,760.287781,87.762665,221.881683,754.091248,117.201424,209.29892,748.510254,91.189522,291.705994,775.760315,78.998192,323.569214,765.773193,46.609623,301.983582,776.636902,-17.755207,285.793335,790.396301,372.33548,-318.535034,1005.455994,364.42865,-407.087524,1002.416016,539.824219,-430.659332,1003.410095,546.841248,-344.908661,1004.460205,376.33667,-317.506104,737.110107,364.037781,-404.612335,737.343567,541.037476,-425.052917,739.018127,553.405518,-336.808289,739.92572
00135_color_1715712646.960098.png,2494,1715712646.963879,655.934204,1243.035278,881.454407,673.816895,1293.896729,904.200928,695.497498,1246.114624,917.994202,692.190308,1199.461426,876.276855,678.480774,1174.469116,851.588684,654.23407,1157.091309,831.745911,616.529053,1195.385376,844.363831,599.260925,1185.067627,822.963928,586.559509,1172.667847,798.169067,295.507996,956.338257,1496.399902,242.23703,948.517517,1512.230591,191.272888,963.057007,1491.766724,133.857407,276.56955,762.76886,163.844788,275.791656,756.2547,186.180969,275.730438,751.551697,61.036846,237.331421,760.217468,87.671555,221.647278,753.952881,117.153008,209.114365,748.352844,91.307869,291.445831,775.690247,79.083809,323.311951,765.827942,46.677773,301.808594,776.795166,-17.785645,285.807922,790.499268,372.335815,-318.529602,1005.457642,364.433258,-407.028839,1002.373474,539.840088,-430.660461,1003.413208,546.853882,-344.896606,1004.449219,376.343536,-317.499634,737.105286,364.049133,-404.621765,737.321045,541.034363,-425.049042,739.011292,553.410278,-336.818726,739.920959
00136_color_1715712646.994198.png,2497,1715712646.993879,657.796997,1227.047241,891.037537,677.220459,1278.028809,912.083008,697.842224,1230.098999,926.916016,692.73291,1182.521484,886.859558,678.60376,1156.721069,862.477661,652.737793,1139.973389,844.52124,616.731384,1179.34021,855.85022,598.748901,1168.774414,835.115967,585.776794,1155.914307,810.590027,295.506409,956.375427,1496.42627,242.143051,948.668152,1512.341309,191.276169,963.044739,1491.761841,133.871384,276.623291,762.767334,163.874283,275.844727,756.270691,186.198059,275.755249,751.552856,61.045689,237.481628,760.270813,87.678391,221.78244,754.011414,117.126259,209.191162,748.408997,91.310989,291.565613,775.695984,79.110016,323.438599,765.782715,46.701374,301.980408,776.781921,-17.80978,286.204376,790.511475,372.310333,-318.563202,1005.442383,364.398315,-407.035797,1002.401123,539.817627,-430.656494,1003.434448,546.819397,-344.904846,1004.466797,376.331146,-317.50531,737.103699,364.032318,-404.602448,737.331726,541.055725,-425.112854,739.031372,553.395813,-336.804504,739.940125
00137_color_1715712647.029934.png,2501,1715712647.033879,661.491943,1209.337402,903.174622,684.000244,1259.820068,922.27002,701.501343,1211.416504,939.367737,693.112122,1162.43457,901.386841,677.393433,1136.757446,878.180054,650.819458,1120.590332,860.440369,617.283691,1162.973511,870.036072,598.880066,1152.626465,849.506348,585.001831,1139.684448,825.547729,295.644257,957.463562,1496.985474,242.165298,948.605896,1512.337524,191.265396,963.057678,1491.779541,134.033768,276.66217,762.772461,164.031403,275.884186,756.270996,186.349487,275.755951,751.552307,61.15049,237.577469,760.287415,87.76693,221.888245,754.042419,117.202156,209.258652,748.436096,91.42923,291.661682,775.670959,79.225357,323.506531,765.664124,46.783566,302.065399,776.74292,-17.703007,286.249817,790.475281,372.348236,-318.575531,1005.463867,364.481598,-407.07019,1002.399109,539.869629,-430.71402,1003.410706,546.867859,-344.925079,1004.456421,376.344299,-317.516937,737.098999,364.054993,-404.601074,737.344543,541.057434,-425.086731,739.009155,553.417175,-336.804077,739.917053
00138_color_1715712647.064577.png,2504,1715712647.063879,665.601196,1198.164795,911.059448,690.505798,1247.887207,928.914062,705.54895,1199.293945,947.592957,694.86615,1149.682495,911.028137,678.366333,1123.965332,888.268799,650.303467,1108.885864,871.417297,619.202637,1153.108521,879.128418,600.712585,1143.072632,858.521912,586.237305,1130.259033,834.804626,295.650665,957.564148,1497.033813,242.151749,948.623596,1512.366577,191.268967,963.048157,1491.756714,134.053986,276.58728,762.761841,164.051239,275.847656,756.268005,186.371078,275.742218,751.545593,61.166939,237.422256,760.158813,87.802422,221.723419,753.920654,117.28669,209.162552,748.34845,91.455345,291.516388,775.684326,79.301704,323.394135,765.779053,46.773125,301.829163,776.765015,-17.653551,285.771973,790.44812,372.297241,-318.684601,1005.323059,364.44989,-406.9328,1002.305359,539.826782,-430.664368,1003.423584,546.835327,-344.900482,1004.466675,376.34967,-317.481476,737.114014,364.048889,-404.618835,737.335083,541.064087,-425.103912,739.035522,553.400513,-336.819183,739.934326
00139_color_1715712647.098376.png,2507,1715712647.093879,670.920532,1188.228394,917.464844,697.803345,1237.301758,934.029236,711.305603,1188.523926,953.678894,698.33313,1138.68042,918.670288,680.598755,1113.061523,896.559021,652.863647,1098.456543,879.434387,622.843201,1144.388672,886.244507,603.784668,1134.670166,865.968384,589.151489,1121.769531,842.422302,295.674805,957.686829,1497.095825,242.152191,948.636902,1512.383789,191.271286,963.054565,1491.770386,134.023956,276.591187,762.757935,164.05188,275.866638,756.270203,186.365189,275.774902,751.565002,61.177956,237.329376,760.083374,87.821304,221.670105,753.861328,117.340401,209.140533,748.341797,91.433495,291.475098,775.675964,79.284637,323.343201,765.779846,46.706123,301.665436,776.743713,-17.661835,285.399597,790.410828,372.344238,-318.535614,1005.453003,364.466003,-406.915619,1002.301941,539.86261,-430.664154,1003.428955,546.853577,-344.899231,1004.465088,376.341888,-317.519714,737.103455,364.040619,-404.615723,737.346619,541.064331,-425.084137,739.022949,553.400391,-336.806152,739.929077
00140_color_1715712647.134634.png,2511,1715712647.133879,679.877686,1176.29126,922.333191,708.008789,1225.092407,938.379761,720.272095,1176.411499,958.751709,706.247559,1125.953247,924.305542,687.056213,1100.673828,903.316406,658.9021,1086.51709,886.384216,630.592224,1133.322266,891.784973,611.160889,1123.919067,871.95636,596.364624,1110.924805,848.300903,295.691345,957.835144,1497.165527,242.14061,948.640686,1512.391357,191.275253,963.050842,1491.764526,134.079422,276.637939,762.772766,164.097092,275.918823,756.272705,186.409729,275.79657,751.541931,61.291409,237.22197,759.966003,87.968285,221.603928,753.826172,117.537201,209.178604,748.336243,91.44677,291.411896,775.662842,79.179367,323.104248,765.607971,46.683102,301.446045,776.682556,-17.651678,284.786499,790.211975,372.306183,-318.674683,1005.300659,364.42511,-407.041046,1002.378357,539.826721,-430.646759,1003.425598,546.83728,-344.886841,1004.477173,376.329865,-317.527649,737.102417,364.041321,-404.602844,737.326355,541.054688,-425.101868,739.032471,553.403625,-336.806885,739.941406
00141_color_1715712647.170807.png,2515,1715712647.1738791,690.404114,1166.674438,923.559937,719.63324,1215.089111,939.476196,731.167603,1166.14917,960.080811,715.430237,1115.961304,925.983643,697.213318,1090.11438,904.610596,668.945068,1076.350952,887.665039,640.526733,1124.387817,893.1922,621.10083,1115.080078,873.103699,605.212952,1102.672729,850.330688,295.706512,957.875854,1497.181641,242.137314,948.634155,1512.396606,191.2798,963.051086,1491.766846,134.112549,276.674438,762.793213,164.125702,275.983521,756.299072,186.433197,275.837524,751.541077,61.421497,237.014542,759.810974,88.150909,221.568649,753.813049,117.767761,209.211533,748.333557,91.402115,291.386078,775.66748,79.028984,323.009033,765.794678,46.680557,301.104095,776.42749,-17.632513,283.946198,789.887634,372.328461,-318.551971,1005.485168,364.466431,-407.007629,1002.351379,539.842224,-430.667572,1003.417603,546.847534,-344.923737,1004.462585,376.336334,-317.518921,737.109375,364.031647,-404.608185,737.339172,541.051208,-425.111755,739.014709,553.383972,-336.830658,739.919189
00142_color_1715712647.207823.png,2518,1715712647.203879,699.443848,1161.071655,922.757385,730.075012,1208.878662,938.558533,740.25592,1159.784668,959.329712,724.102661,1109.298096,925.120728,704.69519,1084.431396,903.80072,676.156433,1071.219849,886.828491,648.708008,1119.887085,892.338867,629.001221,1110.94873,872.21167,613.15564,1098.814697,849.213928,295.709778,957.884277,1497.176514,242.144577,948.640808,1512.383911,191.270966,963.061646,1491.768555,134.178802,276.644348,762.789856,164.198776,275.994293,756.283386,186.488159,275.860168,751.507324,61.496128,236.758163,759.66864,88.366882,221.294464,753.665955,118.126732,209.339203,748.542358,91.405907,291.212585,775.69812,79.117851,322.814514,765.619995,46.74255,300.907104,776.542908,-17.529181,283.212708,789.756653,372.307251,-318.553955,1005.451172,364.399048,-407.063477,1002.381897,539.796387,-430.663177,1003.426331,546.818054,-344.89679,1004.475952,376.332367,-317.524872,737.100159,364.027466,-404.608917,737.317932,541.054382,-425.096436,739.020508,553.385132,-336.805969,739.952148
00143_color_1715712647.242897.png,2522,1715712647.243879,712.977783,1155.816528,919.934631,744.766541,1202.466064,936.301636,753.841248,1152.785156,956.360413,735.504578,1103.133545,921.955444,715.13147,1079.197754,900.547363,686.130676,1066.9823,883.436951,660.281189,1116.856689,889.604126,640.06012,1108.921387,869.543396,624.145996,1097.348511,846.190369,295.702911,957.879639,1497.172852,242.139618,948.643494,1512.393677,191.274078,963.056519,1491.772827,134.210983,276.691437,762.929749,164.316299,276.089355,756.332886,186.598618,276.052155,751.487732,61.616589,236.538406,759.436829,88.535263,221.121277,753.500427,118.385155,208.893829,748.105042,91.471169,291.045563,775.582275,79.041412,322.661224,765.81958,46.717937,300.415131,776.186157,-17.393248,282.539215,789.653198,372.323273,-318.504242,1005.495789,364.463257,-407.035126,1002.381592,540.351807,-431.746063,1003.612854,546.847473,-344.910675,1004.448303,376.341339,-317.518585,737.10553,364.023834,-404.621429,737.346497,541.042786,-425.091125,739.026306,553.39032,-336.831909,739.929443
00144_color_1715712647.277209.png,2525,1715712647.273879,723.990723,1153.174072,916.902039,758.389709,1198.197144,933.345703,765.432922,1148.033325,952.774902,744.958008,1099.674805,918.157471,723.780273,1076.596802,896.40387,694.302673,1065.695679,879.316711,670.133606,1116.383789,886.210693,649.648071,1109.527832,866.072937,632.977539,1098.849609,842.818054,295.708344,957.881958,1497.178711,242.147217,948.639709,1512.385498,191.251724,963.074341,1491.777954,134.273209,276.724945,762.92688,164.442719,276.176117,756.364197,186.701324,276.095428,751.496887,61.712814,236.480789,759.407288,88.639671,221.107254,753.478821,118.43499,209.108902,748.209229,91.561172,291.097046,775.576233,79.160233,323.015076,766.399963,46.762062,300.328003,776.115784,-17.310497,282.287537,789.581055,372.30835,-318.531189,1005.438782,364.44278,-406.936096,1002.319458,539.810791,-430.62619,1003.438477,546.81842,-344.897736,1004.458801,376.334259,-317.51123,737.092102,364.038269,-404.615265,737.343079,541.028992,-425.078339,739.04303,553.3927,-336.815369,739.936096
00145_color_1715712647.310954.png,2529,1715712647.313879,741.194031,1150.667969,911.911377,777.966248,1193.309082,929.513,781.672729,1142.414429,948.064941,758.753906,1095.997925,912.195801,736.186035,1074.775269,889.773438,706.116028,1066.258667,872.481445,684.970581,1118.14856,880.504578,664.156006,1112.978394,860.227966,646.939941,1103.873779,836.695984,295.704803,957.874817,1497.172363,242.140671,948.639221,1512.392822,191.251099,963.067383,1491.784912,134.51474,276.854797,762.922791,164.704407,276.326263,756.395325,186.913651,276.138214,751.475403,61.917248,236.655792,759.486389,88.843094,221.241364,753.537781,118.614517,209.213699,748.248535,91.784325,291.670349,776.000427,79.209259,322.556091,765.466003,46.910873,300.506592,776.000671,-17.138773,282.363129,789.45343,372.35022,-318.518524,1005.454407,364.473755,-406.900665,1002.301208,539.851746,-430.63208,1003.43573,546.865479,-344.898743,1004.460449,376.33725,-317.518585,737.101379,364.041351,-404.610443,737.347473,541.044678,-425.09552,739.024048,553.341187,-336.84259,739.934692
00146_color_1715712647.345066.png,2532,1715712647.343879,755.369812,1149.286133,908.661438,794.307861,1189.420898,926.990967,795.255432,1138.085205,944.461121,769.792786,1093.799438,907.784912,746.224792,1074.407959,884.931335,715.574524,1067.995239,867.560059,697.51825,1120.734375,876.436218,676.282349,1117.247681,856.158813,658.702759,1109.651855,832.35321,295.708038,957.887024,1497.188354,242.141983,948.639648,1512.388184,191.266571,963.056213,1491.767578,134.743469,276.9198,762.85968,164.942017,276.301727,756.346252,187.125153,276.137238,751.462158,62.093525,236.676117,759.468018,88.992226,221.270325,753.532837,118.770988,209.217743,748.235596,91.953178,291.922028,776.18396,79.408478,323.042328,765.87207,47.068748,300.570526,775.95636,-16.969093,282.364838,789.388977,372.730927,-318.105255,1005.497681,364.893036,-407.019012,1002.810242,540.854248,-431.318665,1003.617737,547.508667,-344.200165,1004.366394,376.346375,-317.481934,737.156616,364.06665,-404.665405,737.604736,541.087097,-425.076965,738.990051,553.365356,-336.840729,739.738892
00147_color_1715712647.379907.png,2536,1715712647.383879,775.539001,1146.918823,905.258057,817.258362,1183.431641,924.53717,814.113342,1131.720337,940.613708,785.813904,1090.130371,902.600647,760.537354,1073.738037,879.450378,729.011963,1070.801636,861.731201,715.51062,1124.063843,872.580933,694.009277,1122.814575,852.27832,675.740845,1117.47998,828.404602,295.692444,957.865723,1497.170166,242.13945,948.646057,1512.391357,191.283997,963.049255,1491.759399,135.031006,276.966217,762.838745,165.221451,276.33139,756.284302,187.439056,276.144867,751.471497,62.309216,236.74913,759.472229,89.192078,221.341171,753.597778,118.97744,209.202835,748.239441,92.277588,291.274384,775.125671,79.849617,322.84375,765.461365,47.300411,300.81778,775.948425,-16.802217,282.620361,789.353882,373.429047,-316.459625,1005.244751,365.145477,-403.788818,1002.370605,540.687805,-428.046143,1003.426697,547.954285,-342.374237,1004.099243,376.379608,-317.407288,736.980835,364.102753,-404.563385,737.962891,541.081421,-424.9758,739.223328,553.459473,-336.818695,739.390625
00148_color_1715712647.413613.png,2539,1715712647.413879,791.069763,1144.222778,903.773132,833.98938,1178.396851,923.760376,828.992249,1125.670532,938.934082,798.131531,1087.341187,899.90387,772.130676,1072.51416,876.270935,740.125671,1071.757324,858.603455,729.904175,1125.197876,870.668823,708.155396,1125.757812,850.641602,689.645508,1121.924072,826.533142,295.708282,957.889893,1497.178223,242.147995,948.631165,1512.380371,191.27446,963.054199,1491.745361,135.239014,277.013702,762.756226,165.431381,276.335449,756.235474,187.704132,276.168243,751.452332,62.523724,236.848129,759.50708,89.397148,221.43309,753.620239,119.133461,209.271927,748.298279,92.498192,291.425049,775.038269,80.09407,323.018707,765.33136,47.51413,301.155518,775.919983,-16.628544,283.025604,789.301636,373.445679,-314.97464,1005.180481,365.359924,-402.62146,1002.582336,540.844849,-426.872711,1003.672974,547.863403,-341.35202,1003.891968,376.370117,-317.344482,736.854736,364.108307,-404.511627,738.171143,541.071533,-424.882935,739.452393,553.471191,-336.768372,739.230896
00149_color_1715712647.446979.png,2542,1715712647.4438791,806.417053,1140.760254,903.381836,851.313232,1172.144287,924.08197,843.657654,1119.636108,938.004089,811.098511,1083.603882,898.022522,784.470154,1070.587524,874.214111,752.56311,1071.780884,856.466187,744.676147,1125.277222,869.836182,723.030334,1127.212036,849.986755,704.388916,1124.811646,825.699036,295.698578,957.879761,1497.162231,242.138123,948.653625,1512.38855,191.276886,963.050293,1491.761597,135.482544,276.951721,762.674377,165.642731,276.276154,756.192383,187.983734,276.144409,751.446228,62.736004,236.85289,759.48468,89.594513,221.407349,753.588379,119.338249,209.216629,748.281677,92.732933,291.42453,774.966797,80.315094,322.988281,765.275757,47.741604,301.130493,775.837219,-16.420565,283.179718,789.264038,373.80835,-317.132843,1005.280762,365.682404,-404.346039,1002.351074,541.800171,-429.842865,1003.602051,548.392639,-342.836243,1004.010803,376.49054,-317.540985,737.149841,364.307892,-404.70874,737.98407,541.31311,-424.911591,738.998901,553.562866,-336.776093,739.294678
00150_color_1715712647.480270.png,2546,1715712647.483879,827.274414,1135.438354,906.224609,874.117004,1163.423828,927.739624,863.837219,1110.912354,939.820618,829.633545,1078.121948,898.594727,802.242126,1067.28418,874.211304,770.283875,1070.631958,856.878174,765.08197,1123.953369,872.454773,743.305115,1127.651367,852.803528,724.221252,1127.045288,828.85498,295.694977,957.892883,1497.170898,242.131073,948.647095,1512.387085,191.27417,963.057861,1491.752686,135.724258,276.930481,762.647217,165.846832,276.202393,756.108032,188.235153,276.08252,751.420471,62.937603,236.834991,759.500854,89.771149,221.360718,753.575195,119.535736,209.177231,748.286804,92.870018,292.02887,775.619812,80.44091,323.202545,765.476257,47.960941,301.054993,775.764648,-16.205841,283.36673,789.229309,372.700928,-319.676239,1005.652893,364.846558,-407.340881,1001.812439,540.436646,-432.07843,1003.398926,547.266052,-345.948761,1004.530334,376.684692,-317.603027,737.347961,364.435638,-404.759674,737.216248,541.441956,-425.028046,738.730469,553.722839,-336.947052,740.030884
00151_color_1715712647.513879.png,2549,1715712647.513879,843.941711,1130.421997,910.971313,892.306335,1155.628662,932.419495,879.129456,1103.857178,943.734375,843.640198,1073.658081,901.876709,815.736816,1064.573608,877.331482,784.272949,1069.383423,860.305176,780.881042,1122.587402,877.438599,759.299805,1127.592896,857.848145,739.807861,1128.48584,834.257874,295.693085,957.88446,1497.17395,242.138885,948.647583,1512.394287,191.261749,963.067749,1491.768921,135.805771,276.878876,762.620544,165.927048,276.137817,756.088745,188.324249,276.038147,751.415466,62.970207,236.80603,759.490234,89.80056,221.299545,753.556641,119.571205,209.138657,748.273071,92.97242,291.880219,775.447998,80.537895,323.167633,765.456482,48.044899,301.023895,775.74823,-16.134243,283.448975,789.246704,371.575775,-320.382507,1005.692261,363.59201,-407.898987,1001.235962,539.865601,-433.647125,1003.713135,546.412842,-346.423615,1005.130981,376.621826,-317.649048,737.258972,364.369904,-404.798248,736.785339,541.376709,-425.064453,739.023865,553.650269,-336.993683,740.608337
00152_color_1715712647.547065.png,2552,1715712647.543879,859.653564,1125.456055,917.545349,909.584229,1147.565674,939.323547,893.273865,1096.666748,950.064575,856.267151,1068.979004,907.706238,828.056641,1061.770386,882.791992,797.074707,1068.209473,865.524719,796.374573,1121.552002,883.842285,775.100525,1128.067749,864.401489,754.88916,1130.738647,841.30835,295.691803,957.880066,1497.182617,242.136246,948.642822,1512.401123,191.258789,963.056702,1491.771362,135.808502,276.892914,762.624939,165.91655,276.168121,756.124207,188.326614,276.067169,751.446289,62.970123,236.813339,759.513123,89.792099,221.370621,753.577087,119.561714,209.143539,748.312195,92.949013,291.848358,775.355408,80.527725,323.196198,765.461304,48.048923,301.081573,775.751221,-16.163956,283.568115,789.237305,370.035797,-320.43219,1005.415649,362.463959,-408.264923,1001.204468,537.913696,-432.389069,1003.972168,544.938721,-346.206238,1005.467407,376.013794,-317.785645,737.057129,363.868408,-404.950134,736.65033,540.87738,-425.025024,739.471802,553.11969,-336.865479,741.00647
00153_color_1715712647.580223.png,2556,1715712647.583879,879.663513,1117.225952,926.717468,931.034119,1135.641724,948.705566,910.509094,1086.145874,959.154724,870.826111,1061.738159,916.952942,841.823364,1056.87207,892.343323,811.513184,1065.833496,875.298462,815.468994,1119.228149,893.177551,794.714905,1127.614136,873.920471,774.814453,1131.864502,850.791443,295.693146,957.868713,1497.17981,242.1353,948.641785,1512.394287,191.26474,963.06134,1491.77771,135.782562,276.913696,762.637573,165.883453,276.216492,756.14563,188.287384,276.075684,751.470642,62.949978,236.804947,759.499939,89.783821,221.36293,753.589417,119.542282,209.156326,748.321045,92.872734,291.803131,775.263428,80.499008,323.196838,765.45105,47.992378,301.074982,775.735229,-16.19894,283.485474,789.226562,367.041229,-319.372009,1005.189392,359.887512,-407.41745,1001.504211,535.317627,-430.332611,1003.724548,542.004517,-344.242981,1005.022522,372.282166,-317.922241,736.868774,360.391846,-404.982208,736.945312,537.362,-423.497009,739.080811,549.308838,-336.106934,740.491882
00154_color_1715712647.613601.png,2559,1715712647.613879,892.070923,1110.238892,932.893982,944.58905,1126.444214,954.360168,922.413452,1077.862671,965.167786,880.556519,1055.307373,923.605957,851.213806,1051.465576,899.452515,821.207031,1061.616821,882.595764,827.776062,1115.03418,899.85968,807.333984,1124.305664,880.683472,787.494385,1129.331787,857.72522,295.69928,957.869568,1497.170654,242.153458,948.638123,1512.38501,191.272903,963.054321,1491.765625,135.760086,276.969238,762.664856,165.860016,276.241791,756.165466,188.287933,276.120728,751.481812,62.954746,236.813248,759.510559,89.802391,221.368469,753.587463,119.544388,209.169327,748.3302,92.834511,291.78653,775.217163,80.478683,323.213257,765.467773,47.952938,301.069641,775.736267,-16.211866,283.388306,789.225403,363.595398,-318.819763,1005.097839,356.537506,-406.249786,1001.322388,532.036499,-429.227905,1003.891113,538.308167,-343.415863,1004.846069,367.877106,-315.952148,737.761536,357.033264,-404.745087,737.030945,534.005371,-422.917877,739.226257,545.65802,-335.323639,740.362793
00155_color_1715712647.647270.png,2562,1715712647.643879,903.016479,1102.597534,938.623535,956.270447,1117.783569,959.608704,933.305176,1069.674194,970.875793,890.256226,1047.879395,929.448792,860.494019,1044.639771,905.819946,830.690369,1054.978027,888.927734,838.48175,1108.537964,906.268433,817.990234,1118.131836,887.332886,797.852966,1123.670898,864.688965,295.708557,957.899231,1497.177612,242.145126,948.641846,1512.386353,191.284882,963.055115,1491.764771,135.735229,276.989044,762.703552,165.838028,276.274567,756.188354,188.264709,276.137726,751.522827,62.937962,236.793457,759.516235,89.790886,221.358032,753.596313,119.547112,209.198196,748.348083,92.7621,291.717834,775.128601,80.461311,323.170746,765.475403,47.889484,301.021545,775.764771,-16.247093,283.156769,789.278015,359.634644,-317.957397,1004.962463,352.243805,-405.382996,1001.27887,528.34613,-429.77951,1004.128479,534.244751,-342.811981,1004.864563,363.156128,-314.019379,738.248108,353.154602,-403.88501,736.935059,529.617249,-421.089142,738.705078,541.738403,-334.839752,740.367432
00156_color_1715712647.681208.png,2566,1715712647.6838791,916.936646,1092.596191,946.219482,971.020935,1107.314087,966.137207,947.941162,1059.32959,977.678406,903.929749,1037.922974,937.002502,873.23822,1035.297852,914.616211,842.929749,1045.967651,898.743286,851.968323,1098.720337,915.426514,830.74469,1108.638306,896.862915,810.169495,1114.008179,874.518982,295.701965,957.864807,1497.163818,242.151001,948.636047,1512.390015,191.277618,963.055664,1491.771606,135.723724,276.985718,762.746704,165.825546,276.269897,756.202393,188.385468,276.225281,751.464355,62.953747,236.778931,759.511414,89.803398,221.362534,753.603455,119.584526,209.207214,748.355164,92.720612,291.60437,775.072998,80.426521,323.613342,766.101746,47.842892,300.990875,775.814819,-16.221563,282.948212,789.345398,352.751923,-316.990723,1004.090576,345.182922,-403.106232,1001.385925,521.297119,-428.150391,1003.831177,527.666443,-341.238373,1004.847412,356.270294,-312.433105,738.037537,345.978973,-402.330963,736.913452,522.615356,-421.366882,739.303894,534.965515,-333.930817,740.184082
00157_color_1715712647.714506.png,2569,1715712647.713879,927.877502,1085.782837,951.903931,982.157898,1100.196167,971.109314,958.995117,1052.13562,982.513184,914.363892,1031.251709,942.445862,883.588806,1028.661377,919.889404,852.757874,1039.779785,905.059448,862.187927,1092.232178,921.870972,841.095825,1101.945435,903.578125,819.925049,1107.638428,881.254883,295.699127,957.857971,1497.169312,242.147507,948.632751,1512.386108,191.290756,963.050964,1491.760498,135.675034,276.97937,762.778198,165.780075,276.310669,756.251831,188.268204,276.082367,751.377014,62.934109,236.760544,759.519897,89.798119,221.348755,753.591797,119.565903,209.214935,748.36731,92.767929,291.233856,774.720276,80.310028,323.044525,765.544312,47.790657,301.006439,775.876465,-16.273386,282.89267,789.45166,346.722137,-314.876312,1004.289612,338.947388,-401.173035,1001.36731,515.069275,-426.767548,1003.955627,521.292542,-339.783905,1004.733459,350.889526,-311.986816,737.658752,339.570862,-400.618774,737.003662,516.007935,-418.734131,738.78772,528.117493,-332.386658,740.276794
00158_color_1715712647.748980.png,2573,1715712647.753879,942.557312,1078.238525,958.657349,997.395386,1091.532349,977.569641,973.347717,1043.883789,988.868408,927.761475,1024.131348,949.103149,896.816467,1022.218811,926.868164,866.154846,1033.996704,912.43512,876.801147,1085.908203,928.948914,855.920654,1095.98645,910.737427,834.717041,1101.977051,888.347229,295.704559,957.881348,1497.184814,242.145157,948.644409,1512.392212,191.281174,963.059753,1491.757568,135.631226,277.012543,762.837158,165.734207,276.33725,756.280273,188.156204,275.979218,751.337097,62.892185,236.757614,759.52594,89.77948,221.393158,753.620239,119.533829,209.259979,748.43158,92.711273,291.271942,774.772034,80.171974,322.934296,765.344238,47.742985,301.047852,775.902283,-16.557396,283.408569,789.708984,336.183502,-311.811768,1004.369507,328.874908,-398.891357,1001.250488,504.33963,-423.223114,1003.598083,511.487732,-337.419769,1004.701843,340.514557,-308.675598,737.842773,329.647888,-398.088318,736.832947,506.353851,-417.7836,739.229187,518.615784,-329.925323,740.181274
00159_color_1715712647.782318.png,2576,1715712647.783879,953.499939,1073.901001,963.081238,1008.691284,1085.87207,982.051819,983.537231,1038.757324,993.239868,937.11084,1020.563232,953.680786,906.628174,1018.804199,930.970703,876.125854,1031.479248,916.927124,887.900696,1083.041748,933.255798,867.272034,1093.584106,914.793396,846.363037,1100.013794,892.316101,295.703827,957.874207,1497.177246,242.147171,948.651367,1512.393677,191.276764,963.048889,1491.762085,135.621796,277.001434,762.842957,165.83078,276.202026,756.092041,188.182404,275.923157,751.271057,62.914192,236.763214,759.533081,89.786964,221.375076,753.600708,119.529037,209.383499,748.588623,92.715889,291.265747,774.770264,80.147171,322.926514,765.355408,47.758057,301.233551,776.128296,-16.329824,283.115997,789.686035,327.999512,-310.818359,1003.507385,320.539795,-397.132568,1001.231079,496.462006,-422.384399,1003.657227,502.929749,-336.051361,1004.621033,332.079926,-306.588501,737.77948,321.182404,-396.128601,736.831116,497.60318,-414.52243,738.532104,510.026398,-328.415558,740.247009
00160_color_1715712647.816170.png,2579,1715712647.813879,963.904053,1070.434326,966.739014,1019.396057,1081.036377,985.817566,993.151428,1034.501953,996.835205,946.295776,1017.478577,957.383667,915.593384,1016.700623,934.630554,885.545227,1030.074951,920.329895,898.594727,1081.262085,936.663513,878.392212,1092.316528,918.215881,858.316895,1099.052856,895.745544,295.699097,957.865967,1497.164185,242.145615,948.636108,1512.383667,191.290833,963.038452,1491.742432,135.62468,276.987213,762.827026,165.765457,276.14621,756.077271,188.175049,275.907501,751.282104,62.903709,236.75325,759.533813,89.731804,221.748093,754.025635,119.48877,209.265549,748.413269,92.713577,291.266632,774.783325,80.178154,323.244934,765.648254,47.767956,301.291931,776.195496,-16.320339,283.014618,789.548889,318.656311,-306.658875,1005.130981,311.534332,-395.224487,1001.17157,487.497162,-420.576385,1003.739502,494.123383,-333.236633,1004.651062,323.129486,-304.76474,737.822937,312.28125,-394.334137,736.602173,488.694244,-412.882751,738.57251,501.358032,-326.411987,740.001343
00161_color_1715712647.850034.png,2583,1715712647.853879,976.688171,1066.976929,970.123047,1032.341064,1075.816895,989.387817,1004.784363,1029.925049,999.97937,957.642761,1014.545349,960.130432,926.923462,1015.004883,937.55835,897.300903,1029.199341,923.064148,911.811646,1079.884033,939.941772,891.891846,1091.716797,921.552917,872.196594,1099.121216,899.075745,295.696655,957.856995,1497.162476,242.141434,948.637207,1512.391235,191.278549,963.05304,1491.759155,135.549194,277.027496,762.87793,165.715302,276.118652,756.088684,188.083099,275.920898,751.292419,62.737949,237.329895,760.111755,89.680222,221.484467,753.668335,119.442368,209.308899,748.441467,92.599533,291.373993,774.763062,80.091232,323.102356,765.453613,47.669914,301.274597,776.10022,-16.356199,283.124481,789.568054,305.304993,-304.66037,1004.583496,298.309967,-392.823212,1001.123657,473.985107,-414.524597,1002.238892,480.640869,-330.154053,1004.503235,309.79129,-302.456207,737.513489,299.065277,-392.057587,736.624634,475.55838,-409.692841,738.463867,487.856567,-323.237946,739.915894
00162_color_1715712647.883593.png,2586,1715712647.883879,985.331726,1064.965088,971.373535,1041.030273,1072.661011,991.009399,1012.579895,1027.253052,1001.10437,965.454285,1012.97583,960.936035,934.474976,1014.316772,938.554382,905.515808,1028.977051,923.579834,920.832764,1079.308228,941.149048,901.209961,1091.531372,922.667053,881.855713,1099.352051,899.966797,295.69455,957.865479,1497.175049,242.142227,948.642761,1512.38501,191.285583,963.05072,1491.755249,135.526337,276.843933,762.678467,165.673508,276.113861,756.077148,188.034943,275.931824,751.298157,62.77824,236.872391,759.653992,89.712242,221.634537,753.742371,119.393036,209.332916,748.440796,92.562767,291.218933,774.676636,80.026955,323.093018,765.486511,47.637703,301.267975,776.135986,-16.385958,283.095276,789.622437,294.360748,-302.03891,1005.283325,287.849792,-391.067169,1000.973083,462.954132,-414.775452,1003.962646,469.974854,-327.948425,1004.532471,299.233521,-300.831055,737.421631,288.700531,-390.201752,736.490662,465.160461,-407.630646,738.577148,477.305145,-321.040955,739.797791
00163_color_1715712647.917038.png,2589,1715712647.913879,993.117676,1063.536133,971.793335,1048.898438,1069.988281,991.880371,1019.529236,1025.076904,1001.511108,972.384216,1011.906372,960.922974,941.984741,1013.759827,937.673401,912.862671,1029.388184,923.463745,929.070984,1079.212158,941.181885,909.860779,1091.930786,922.649048,890.87561,1100.28186,900.014771,295.697052,957.871521,1497.18042,242.143494,948.639404,1512.388672,191.276184,963.057617,1491.762207,135.49472,276.852173,762.664429,165.639679,276.095703,756.07605,187.985504,275.937805,751.31311,62.749466,236.833542,759.665222,89.606781,221.481354,753.693115,119.367752,209.344513,748.451782,92.568604,291.554138,775.076904,80.170601,323.379486,765.806152,47.620739,301.255066,776.119507,-16.380884,283.108093,789.674377,282.895142,-300.699066,1005.057434,276.229248,-389.644958,1000.702515,451.947083,-412.245026,1003.362305,458.263763,-326.01947,1004.592041,287.401489,-298.806702,737.41095,277.300476,-388.426178,736.31665,454.023193,-405.177521,738.316101,465.81897,-318.596191,740.017151
00164_color_1715712647.950631.png,2593,1715712647.953879,1002.350952,1062.204834,971.596741,1058.19165,1066.785767,992.254395,1027.326294,1022.768982,1001.303223,980.104065,1011.381165,960.305542,950.062073,1014.282349,936.725586,921.554871,1030.863892,922.216919,939.127869,1080.151611,940.553162,920.47052,1093.55542,921.860229,902.188354,1102.480591,899.161682,295.690186,957.860168,1497.174683,242.14151,948.63739,1512.392578,191.265533,963.056702,1491.765015,135.340225,276.881256,762.610352,165.543152,276.075928,756.068298,187.849365,275.915649,751.318726,62.670036,236.803589,759.670532,89.517082,221.495483,753.688171,119.327232,209.355698,748.422302,92.486626,291.520203,775.050476,80.115753,323.138123,765.504639,47.579056,301.291077,776.204468,-16.27389,283.09967,789.822693,267.978607,-298.225372,1004.11377,260.767944,-386.017242,1000.692383,436.29657,-409.914703,1003.14856,442.758026,-323.915771,1004.326111,272.678864,-295.852295,737.325684,261.840973,-385.443726,736.166626,438.182709,-403.191071,738.264954,450.661041,-316.867218,739.691467
00165_color_1715712647.984211.png,2596,1715712647.983879,1008.265259,1061.497803,971.072937,1064.026855,1064.531982,992.080933,1032.100586,1021.198059,1000.817871,984.792542,1011.200317,959.430481,955.012634,1014.925598,935.731018,926.865173,1032.223145,920.859375,945.712463,1080.995483,939.48822,927.583984,1094.925903,920.818848,909.570618,1104.411499,897.910034,295.694885,957.852112,1497.173584,242.139847,948.632996,1512.388062,191.278732,963.052673,1491.772461,135.275803,276.81723,762.586914,165.467087,276.081268,756.095032,187.90126,275.845215,751.296448,62.581165,236.76825,759.63385,89.473564,221.440598,753.691833,119.277534,209.344162,748.395142,92.420563,291.32724,774.841736,80.054123,323.186401,765.625366,47.502731,301.251221,776.21637,-16.443905,283.104889,789.841614,255.900299,-296.394287,1003.688232,248.720306,-384.184082,1000.507019,424.315552,-408.032501,1003.121948,431.268188,-322.059021,1004.146912,260.979065,-294.204163,736.974365,249.874268,-383.552856,736.011414,426.382965,-401.839569,738.239014,438.965668,-315.096039,739.638733
00166_color_1715712648.018410.png,2599,1715712648.013879,1013.155823,1060.589111,970.197998,1068.819458,1062.367554,991.709167,1035.833008,1019.720703,1000.040649,988.643066,1010.915527,958.350647,959.060913,1015.509338,934.47998,931.488159,1033.381226,919.576599,951.296509,1081.656372,938.209656,933.585693,1096.047729,919.388916,916.175049,1105.979492,896.465149,295.699066,957.866028,1497.179077,242.136597,948.637329,1512.396973,191.302704,963.037292,1491.746582,135.167236,276.80011,762.549316,165.194611,276.299957,756.236328,187.709763,275.900452,751.367615,62.48225,236.800964,759.661255,89.383286,221.512512,753.689575,119.299332,209.364288,748.24823,92.336617,291.525879,775.064575,79.921776,323.087494,765.533447,47.441448,301.31308,776.23407,-16.506702,283.221405,789.891602,243.576111,-294.887024,1003.640503,236.359818,-382.829895,1000.393005,412.144958,-406.441254,1003.145203,418.413239,-319.963409,1004.309326,248.751495,-293.035156,736.556702,237.747162,-381.984436,735.856445,414.227051,-399.562012,738.183411,426.689056,-312.958374,739.546692
00167_color_1715712648.053376.png,2603,1715712648.053879,1017.955688,1059.057739,968.670837,1073.374512,1059.440186,990.76001,1039.251465,1017.628418,998.754333,992.39563,1009.884827,956.401062,963.247192,1015.04718,932.241943,936.229675,1033.786499,917.306458,956.899231,1081.535767,935.99054,939.836243,1096.278931,916.986267,922.770508,1106.619873,893.792969,295.694855,957.867432,1497.175293,242.141495,948.638123,1512.394409,191.266022,963.07428,1491.77771,135.052261,276.846619,762.534546,165.31488,276.193634,756.251587,187.593857,275.87326,751.364441,62.381451,236.793396,759.650635,89.409851,221.529556,753.581299,119.141716,209.310425,748.191895,92.240906,291.501526,775.013306,79.824486,323.093964,765.516907,47.377087,301.122559,775.940857,-16.547241,283.324249,789.974792,227.546295,-292.419891,1003.312439,220.628891,-379.999969,999.940552,395.964111,-404.649414,1003.141907,402.693726,-318.326447,1004.184387,234.073547,-291.410492,735.885315,222.100677,-379.104523,735.450684,398.553436,-397.415405,738.062439,411.282532,-310.908691,739.528809
00168_color_1715712648.087993.png,2606,1715712648.083879,1019.904236,1057.498901,967.055359,1075.237183,1057.248413,989.727295,1040.694092,1015.716919,997.302979,994.021118,1008.575684,954.588806,965.238159,1014.06897,929.960754,938.478943,1033.11438,915.005798,959.480103,1080.556396,933.810364,942.669434,1095.547241,914.557678,926.019104,1105.977539,891.154968,295.697388,957.87207,1497.182373,242.144119,948.638489,1512.39563,191.261978,963.063416,1491.774414,135.054886,276.851196,762.541138,165.230972,276.176758,756.249146,187.503235,275.841766,751.344971,62.322273,236.760773,759.622742,89.261826,221.366714,753.545654,119.104057,209.281097,748.13031,92.190025,291.449432,774.9776,79.757736,322.998169,765.491455,47.314293,301.075714,775.953918,-16.565296,283.327667,790.035828,215.416458,-291.244385,1002.967712,208.567017,-378.611023,999.693237,384.205048,-402.959808,1003.187866,390.779785,-315.982513,1004.162659,220.953751,-288.101074,736.482727,210.260391,-377.746216,735.403748,386.765869,-395.57901,737.94989,399.136017,-308.746063,739.439392
00169_color_1715712648.122767.png,2610,1715712648.123879,1020.345825,1054.812134,964.291992,1075.420288,1054.106934,987.697571,1040.479492,1012.823914,994.756714,994.245117,1006.183411,951.60675,965.792236,1011.875244,926.644775,939.541565,1031.089966,911.329346,960.502258,1078.419434,930.324158,944.11792,1093.424683,910.900574,927.807007,1103.96814,887.25061,295.695465,957.871887,1497.179077,242.13681,948.643188,1512.39209,191.265854,963.063538,1491.765503,134.906448,276.815552,762.527283,165.079071,276.118408,756.260864,187.337418,275.82959,751.36615,62.195229,236.658508,759.467346,89.13192,221.313614,753.522827,119.001953,209.250748,748.059998,92.087349,291.433624,774.924744,79.593086,323.154877,765.727478,47.241009,301.040802,775.922302,-16.652739,283.390839,790.123596,200.547974,-289.327332,1002.555359,193.889664,-376.785095,999.689941,369.545807,-399.51474,1002.779236,375.531219,-313.382202,1003.960022,206.99852,-288.004395,735.525391,195.67395,-376.13974,735.194824,372.328796,-392.792389,737.810547,384.211853,-306.40863,739.316589
00170_color_1715712648.157057.png,2613,1715712648.153879,1018.974915,1052.541504,961.885986,1073.886963,1051.580933,985.707458,1038.587402,1010.547607,992.563721,992.925354,1003.871216,948.842957,964.673096,1009.743835,923.728577,938.547729,1028.965576,908.295654,959.37085,1076.174805,927.259705,943.260803,1091.162842,907.64032,927.14502,1101.769165,883.881531,295.693604,957.868958,1497.174683,242.137329,948.64801,1512.393921,191.283615,963.048157,1491.760254,134.813446,276.813751,762.539612,164.995468,276.119781,756.282104,187.260818,275.812714,751.359619,62.131756,236.643234,759.438354,89.087204,221.328308,753.50946,118.813896,209.252396,748.049255,92.014893,291.421265,774.928711,79.527527,323.161285,765.758118,47.197285,301.026825,775.903381,-16.678638,283.422241,790.144226,189.240952,-286.592529,1003.746643,183.094711,-375.545715,999.326904,358.655121,-398.015533,1002.566833,364.794434,-311.829285,1003.849609,196.273544,-286.32486,735.317322,185.142136,-374.552277,734.912964,361.655548,-390.886475,737.680237,373.475922,-304.411316,739.329041
00171_color_1715712648.190641.png,2617,1715712648.1938791,1014.746887,1049.137329,958.153137,1069.603638,1047.966553,982.434204,1034.348389,1007.057556,989.027649,988.707703,1000.496033,945.067383,960.699646,1006.21106,919.633423,934.598389,1025.596191,903.980225,955.591797,1072.78479,923.000671,939.625977,1087.783447,903.127869,923.026917,1098.43396,878.781189,295.68689,957.868958,1497.180542,242.140305,948.63855,1512.388916,191.26033,963.061035,1491.777954,134.733276,276.800323,762.558533,164.899536,276.139435,756.31012,187.196457,275.820221,751.366028,62.085331,236.628983,759.403198,89.040916,221.326111,753.475769,119.015266,209.343887,748.07196,91.935722,291.428619,774.951172,79.458122,323.166626,765.759583,47.137589,301.013611,775.856262,-16.715212,283.42157,790.164917,175.370193,-286.092041,1002.39801,169.385696,-373.682068,999.246155,345.132202,-395.665955,1002.736206,350.939026,-309.111847,1003.656006,182.261307,-284.747375,735.152771,171.460144,-373.085388,734.797119,348.211792,-388.762207,737.723694,359.592712,-302.0271,739.054016
00172_color_1715712648.224452.png,2620,1715712648.223879,1010.003418,1046.280273,955.319458,1064.830933,1045.025513,979.754517,1029.362427,1004.134033,986.333496,983.819397,997.678467,942.327515,955.899719,1003.481873,916.861633,930.048889,1022.801636,901.02771,951.013306,1070.047974,919.952209,935.122131,1085.006226,900.054321,919.035339,1095.555054,875.843628,295.695435,957.868164,1497.167236,242.140854,948.631409,1512.387329,191.280197,963.046875,1491.743896,134.734467,276.837708,762.553467,164.874832,276.150513,756.298523,187.19574,275.828369,751.363525,62.079422,236.627396,759.362366,89.111389,221.432678,753.537659,119.010109,209.349838,748.072266,91.897034,291.440247,774.99176,79.182602,322.923981,765.557617,47.13488,301.013336,775.826477,-16.660177,283.556122,790.325562,164.712814,-284.468689,1002.553223,158.735947,-372.611023,998.928894,334.626312,-394.481812,1002.701172,340.291199,-308.01593,1003.544922,171.934769,-283.42157,734.807861,161.267624,-371.592773,734.543274,337.930939,-387.110809,737.414185,349.245605,-300.279755,739.159912
00173_color_1715712648.258549.png,2623,1715712648.253879,1004.024292,1043.120117,952.848572,1058.861084,1041.84668,977.16394,1023.547302,1000.86676,983.70752,977.794922,994.474304,939.867126,949.817383,1000.412476,914.565857,923.895325,1019.697083,898.654114,944.95697,1066.799194,917.472412,929.064331,1081.822632,897.600891,912.95752,1092.258911,873.386597,295.68988,957.884216,1497.166016,242.145981,948.64447,1512.392212,191.278992,963.044312,1491.758545,134.635681,276.805206,762.575745,164.817612,276.088165,756.260864,187.12204,275.822083,751.365906,62.020863,236.61908,759.35437,89.032036,221.45015,753.561584,118.969765,209.365631,748.073181,91.897797,291.44696,774.956177,79.362907,323.174713,765.747498,47.077709,300.987762,775.817749,-16.778042,283.205444,790.062866,154.743393,-282.552063,1002.822754,148.760406,-371.068329,998.866028,324.616302,-393.261871,1002.510925,330.15155,-306.766571,1003.634705,161.70134,-281.206329,735.09021,151.343033,-370.245056,734.404724,328.058594,-386.011658,737.43219,339.664154,-299.269135,738.905823
00174_color_1715712648.293113.png,2627,1715712648.293879,994.5271,1038.346924,950.557739,1049.456299,1037.249023,974.641663,1014.134155,996.348938,981.459351,968.405151,989.730347,937.643921,940.223389,995.682251,912.520996,914.368103,1014.829407,896.612122,935.309509,1061.957397,915.539368,919.302185,1076.918945,895.705444,903.239502,1087.358643,871.62793,295.681915,957.896667,1497.177002,242.130798,948.65509,1512.393921,191.271622,963.066284,1491.765137,134.564713,276.810669,762.581238,164.599304,276.408203,756.440979,187.063965,275.817566,751.371582,62.070824,236.670425,759.412476,89.016937,221.426193,753.533081,118.949966,209.377655,748.066895,91.842873,291.435913,774.962524,79.305489,323.154388,765.765869,47.018379,300.946472,775.80426,-16.780382,283.225525,790.190125,142.07016,-280.962891,1002.669922,136.110291,-369.649841,998.386475,311.718903,-392.187134,1002.518677,317.641357,-305.371338,1003.610474,149.820953,-280.128967,734.585449,138.78537,-368.251556,733.987305,315.546997,-384.182434,737.201599,327.104279,-297.599396,739.078369
00175_color_1715712648.332138.png,2631,1715712648.333879,983.868774,1033.427856,950.096558,1038.924438,1032.185181,973.647583,1003.508789,991.404907,980.745056,957.487732,984.850342,937.380127,929.212402,990.707458,912.213501,903.153381,1010.097168,896.687134,924.370667,1057.150757,915.488098,908.329163,1072.105591,895.706116,892.115356,1082.568726,871.794128,295.686523,957.894104,1497.176392,242.12944,948.652771,1512.391113,191.271393,963.062195,1491.755981,134.382324,276.770294,762.536072,164.630768,275.970093,756.14563,186.916672,275.836792,751.35968,61.951183,236.645477,759.398254,88.911369,221.417877,753.493103,118.885765,209.381104,747.997192,91.680946,291.352356,774.949036,79.157776,323.097809,765.789734,46.795654,300.953278,775.912537,-16.869904,283.187927,790.216675,130.837982,-280.556763,1001.504272,124.614426,-368.010223,998.316406,300.47934,-390.156525,1002.231506,306.040009,-303.902466,1003.387329,138.391571,-278.835327,734.338623,127.506927,-367.011383,733.811646,304.201019,-383.033264,737.219543,315.762085,-296.191986,738.780884
00176_color_1715712648.367797.png,2634,1715712648.363879,974.987244,1029.468018,950.539551,1030.147705,1028.289185,973.519958,994.73645,987.494141,980.91925,948.309814,980.977356,938.07135,919.774841,986.913635,913.249939,893.716309,1006.353149,897.807495,915.215759,1053.406738,916.556396,898.985718,1068.403076,896.980347,882.641846,1078.905396,873.352356,295.681091,957.863159,1497.176392,242.134216,948.637451,1512.39624,191.283661,963.035217,1491.760986,134.29454,276.813904,762.562012,164.564056,275.969055,756.144226,186.846329,275.829376,751.371277,61.884266,236.685074,759.414734,88.867836,221.421555,753.493469,118.827576,209.434952,748.005249,91.615028,291.376221,774.955078,79.09169,323.096405,765.780579,46.970131,301.028473,775.901306,-16.940245,283.250214,790.18811,122.889328,-279.000427,1001.6875,117.225121,-365.759918,997.67749,292.675446,-389.420746,1002.136475,298.077637,-302.649475,1003.427856,130.826996,-277.691681,734.187561,119.942131,-365.840179,733.636047,296.680206,-381.69397,737.233337,308.227753,-294.867401,738.769592
00177_color_1715712648.401762.png,2638,1715712648.403879,961.888916,1024.073364,951.55957,1017.3302,1023.250916,973.533875,982.164612,982.340759,981.460205,935.143677,975.532043,939.389648,906.2547,981.374817,915.123657,879.878235,1000.752197,899.97522,901.495056,1047.9198,918.808655,884.819092,1063.057129,899.656189,868.084839,1073.650391,876.38385,295.684753,957.872681,1497.183594,242.131744,948.639282,1512.394897,191.259155,963.061096,1491.769897,134.1828,276.830811,762.588928,164.453293,275.892029,756.102966,186.752731,275.810242,751.36615,61.808308,236.72197,759.414856,88.392464,222.251343,753.918945,118.735733,209.4888,747.993774,91.525963,291.400177,774.960754,79.009521,323.142303,765.785706,46.914181,301.09613,775.891907,-17.050694,283.430542,790.165466,113.386734,-278.284821,1001.595398,107.779877,-366.441406,997.905823,283.765167,-387.335571,1002.028809,288.720886,-300.927887,1003.256226,120.953629,-276.111572,734.371216,111.007118,-365.108124,733.482056,287.833771,-379.580872,737.02832,298.808716,-292.782898,738.764038
00178_color_1715712648.435737.png,2641,1715712648.4338791,951.325806,1020.213135,952.267639,1006.944153,1019.984863,973.558838,972.281006,978.699707,981.899536,924.933228,971.459717,940.336426,895.612793,977.192871,916.515015,868.858887,996.082764,901.609192,890.390564,1043.615601,920.407959,873.214966,1058.709839,901.713806,856.181519,1069.114136,878.639954,295.686493,957.871765,1497.175659,242.137787,948.638794,1512.395386,191.299881,963.03186,1491.746826,134.113892,276.842133,762.625244,164.372543,275.852539,756.0849,186.67543,275.802612,751.364563,61.749542,236.772446,759.441406,88.752342,221.450195,753.407471,118.697746,209.509552,747.984619,91.455734,291.422638,775.000854,78.952026,323.160126,765.809998,46.865471,301.139893,775.905823,-17.11194,283.502441,790.144836,107.450455,-279.544037,1000.289185,102.388847,-364.633942,997.258728,278.073792,-386.190613,1001.972412,282.943298,-299.699463,1003.201843,115.344635,-276.262421,733.880066,105.316628,-364.733765,733.31189,282.281586,-378.454803,736.937195,292.788361,-291.798462,738.698425
00179_color_1715712648.470381.png,2645,1715712648.473879,936.791382,1015.700806,953.105896,992.648865,1016.518494,973.671082,958.825623,974.657288,982.402344,911.262878,966.435059,941.338379,881.536682,971.562805,917.815247,854.127747,990.244934,903.551514,874.994873,1037.949585,922.103699,857.329834,1052.777466,903.682068,839.57074,1063.008667,880.985352,295.67923,957.853394,1497.164185,242.135574,948.644348,1512.39856,191.277527,963.055847,1491.758911,134.075012,276.756531,762.63562,164.285721,275.813599,756.05835,186.601562,275.768555,751.357483,61.65694,236.804718,759.459961,88.682922,221.436829,753.409363,118.630508,209.519714,747.969971,91.394371,291.404358,774.990845,78.891884,323.142303,765.807678,46.830425,301.149017,775.881348,-17.190115,283.572876,790.154907,101.338768,-277.557983,1000.968811,96.290054,-365.290466,997.699524,272.223938,-385.325867,1001.904602,276.998596,-298.513977,1003.174194,109.38636,-275.607941,733.77533,99.550903,-363.96167,733.168091,276.458954,-377.794769,736.894226,286.911377,-290.799561,738.591187
00180_color_1715712648.505487.png,2648,1715712648.503879,926.031494,1012.939819,953.888184,981.991577,1014.537598,974.023254,948.819946,972.25061,982.865173,901.060669,963.442017,942.194641,871.048462,968.248718,918.928406,843.332214,986.440796,904.776306,863.620789,1034.414429,923.571289,845.678772,1048.997681,905.295837,827.446838,1059.119873,882.825256,295.684143,957.859436,1497.167847,242.13797,948.637268,1512.387817,191.271393,963.051025,1491.75293,134.012619,277.071014,762.989197,164.285858,275.841095,756.069214,186.602707,275.790039,751.369263,61.666306,236.814209,759.457703,88.684555,221.45401,753.403625,118.626053,209.522736,747.957764,91.388428,291.4104,774.976379,78.889519,323.164734,765.798523,46.832256,301.175873,775.887207,-17.178329,283.610443,790.166138,97.785332,-277.236328,1001.00885,92.94046,-365.218353,997.708618,269.061707,-384.705292,1001.80957,273.642151,-298.133881,1003.187988,106.122536,-275.168549,733.81311,96.33654,-363.741791,733.106812,273.307404,-377.225891,736.91687,283.629272,-290.268402,738.661133
00181_color_1715712648.540204.png,2652,1715712648.543879,912.112061,1010.468384,955.500977,968.323059,1012.561462,974.932556,935.562317,970.023254,984.177124,887.433655,960.757874,944.043579,857.177917,965.440063,921.217773,829.232971,983.395996,907.426636,849.249084,1031.441284,926.009949,830.84613,1046.023193,908.05127,812.266296,1055.935791,885.748718,295.687988,957.871643,1497.179688,242.133743,948.643311,1512.398804,191.271591,963.047119,1491.762573,134.038422,277.091888,762.990784,164.319885,275.848145,756.057312,186.617538,275.793823,751.348755,61.572941,237.065735,759.563904,88.69738,221.447906,753.40625,118.632591,209.543869,747.974854,91.402046,291.422455,774.984436,78.905434,323.184326,765.80072,46.835491,301.18808,775.889404,-17.164515,283.603668,790.151672,94.889786,-277.328003,1000.942688,90.430412,-363.652008,996.967285,266.286865,-384.589569,1001.842529,270.437378,-297.908905,1003.304382,102.385506,-273.797913,734.34436,93.612556,-363.562347,733.014099,270.719543,-376.576416,736.778381,280.726593,-289.726593,738.786255
00182_color_1715712648.574642.png,2655,1715712648.573879,902.258545,1009.41095,957.029907,958.583313,1011.545654,975.880066,925.743774,969.103149,985.455078,877.415833,959.73999,945.776001,846.720703,964.434326,923.451233,818.868652,982.280151,909.715942,839.074829,1030.474609,928.151855,820.538757,1044.992188,910.370056,801.836243,1054.980469,888.326172,295.690491,957.875366,1497.176025,242.135483,948.647217,1512.396484,191.272171,963.054016,1491.755615,134.083237,276.817291,762.71106,164.325638,275.859161,756.077942,186.629852,275.797302,751.351685,61.759209,236.759186,759.283264,88.717201,221.431213,753.398499,118.655563,209.51622,747.941956,91.384842,291.468262,775.020752,78.915199,323.155548,765.806396,46.845509,301.160828,775.890991,-17.138161,283.5242,790.170593,93.829689,-277.180756,1000.998352,89.430916,-363.751129,996.967041,265.282806,-384.684967,1001.82782,269.692444,-297.874573,1003.118896,102.127617,-274.627319,733.894958,92.602364,-363.675659,733.114563,269.604889,-376.688263,736.872559,279.682007,-289.771027,738.643555
00183_color_1715712648.611928.png,2659,1715712648.613879,889.639709,1008.531433,958.494019,946.046143,1010.859741,976.639587,913.397156,968.331543,986.801392,864.580811,958.837341,947.792847,833.550781,963.62677,926.05481,805.543274,981.484009,912.490784,826.153809,1029.56543,930.326538,807.362671,1044.063965,912.749939,788.399536,1054.001221,890.906738,295.687866,957.884094,1497.178223,242.135254,948.656189,1512.402222,191.262558,963.066345,1491.762695,134.065369,277.080475,762.989197,164.350494,275.862488,756.08075,186.642517,275.794586,751.342896,61.768955,236.792892,759.286255,88.726685,221.467377,753.429688,118.673485,209.538101,747.950562,91.350067,291.606842,775.065796,78.924606,323.178345,765.790649,46.853497,301.178497,775.875061,-17.133492,283.555725,790.154785,93.893181,-276.677612,1001.24646,89.16732,-364.974915,997.574951,265.358307,-384.476044,1001.673706,269.809418,-297.792938,1002.939941,101.967728,-274.989441,733.679565,92.450836,-363.590881,733.167969,269.40155,-376.776581,736.780762,279.541321,-289.898529,738.418274
00184_color_1715712648.646132.png,2662,1715712648.643879,880.464539,1008.091675,958.921204,936.935486,1010.84198,976.686157,904.703979,968.066467,987.134399,855.659607,958.224426,948.56958,824.441528,962.70459,926.982117,796.264771,980.324341,913.528198,816.6604,1028.658936,931.238525,797.652405,1042.904053,913.704895,778.504761,1052.776855,892.034241,295.686951,957.874268,1497.176758,242.131256,948.644043,1512.39502,191.262024,963.063782,1491.767822,134.123367,276.842224,762.711914,164.353226,275.875824,756.099426,186.660126,275.816986,751.362671,61.785023,236.767319,759.300171,88.749313,221.464157,753.425598,118.672585,209.555954,747.972168,91.337013,291.366943,775.09668,78.84623,322.997803,765.653625,46.868938,301.17746,775.888245,-17.122715,283.544769,790.153564,94.381126,-276.275299,1001.291748,89.997231,-363.195587,997.303528,265.796844,-384.162872,1001.560181,269.997131,-297.490051,1002.800476,102.064156,-275.036407,733.635864,92.42865,-363.631683,733.309387,269.449768,-376.75827,736.665833,279.262085,-289.952515,738.314453
00185_color_1715712648.679991.png,2666,1715712648.6838791,868.767456,1007.598022,958.713684,925.251404,1011.374695,976.12738,893.904358,968.073303,986.677368,844.907776,957.248047,948.37207,813.49707,961.120422,926.990295,784.887207,978.311157,913.736267,804.459167,1026.891846,931.271118,785.032104,1040.90564,913.918274,765.575378,1050.343628,892.291016,295.684906,957.866699,1497.177368,242.137543,948.644531,1512.389282,191.264893,963.063293,1491.766602,134.126373,276.854614,762.733276,164.367386,275.879578,756.096375,186.677292,275.819611,751.356262,61.794647,236.801331,759.30072,88.760605,221.471054,753.424927,118.692284,209.543808,747.963562,91.344643,291.397644,775.111267,78.807129,323.122131,765.700623,46.863346,301.20166,775.889526,-17.117245,283.575104,790.150818,94.888985,-273.884308,1002.093689,90.567322,-363.47644,998.131836,266.650055,-383.074585,1001.529907,271.184784,-296.317627,1002.268555,102.108772,-274.959595,733.619873,92.432983,-363.53418,733.64386,269.500183,-376.718994,736.53064,279.629395,-289.883362,737.683105
00186_color_1715712648.714697.png,2669,1715712648.713879,860.713745,1007.476685,958.108093,917.24353,1012.042786,975.437805,886.487427,968.325195,986.075073,837.562134,956.811646,947.874878,805.957214,960.239929,926.660706,777.231689,976.927124,913.368652,796.030273,1025.814941,930.812866,776.61554,1039.334473,913.412415,756.685242,1048.628296,891.954041,295.691132,957.868408,1497.17395,242.138641,948.639404,1512.396362,191.273849,963.058594,1491.768311,134.148483,276.850647,762.729065,164.391296,275.891113,756.135681,186.703598,275.81308,751.353516,61.816437,236.804932,759.330627,88.785233,221.486618,753.425659,118.706909,209.57341,747.977783,91.373512,291.393005,775.109375,78.817963,323.137939,765.73407,46.851624,301.270569,775.95343,-17.099476,283.587738,790.156311,95.554817,-273.457428,1001.964478,91.163765,-362.803131,998.404175,267.294495,-382.325012,1001.414307,271.878479,-295.633301,1002.066345,102.000732,-274.462128,733.891663,92.517525,-363.467499,733.892944,269.596252,-376.663147,736.45697,279.724731,-289.871735,737.439697
00187_color_1715712648.751384.png,2673,1715712648.753879,851.352478,1007.556824,957.262512,907.894775,1013.013855,974.442017,877.937439,968.713135,985.118164,829.101624,956.477844,946.946716,797.356567,959.464905,925.902527,768.356506,975.575134,912.62323,786.218384,1024.833374,930.21875,766.49408,1038.130371,912.927063,746.528687,1046.968384,891.40509,295.679932,957.865906,1497.171143,242.138367,948.652832,1512.400391,191.284607,963.054688,1491.762817,134.108612,277.072937,762.996765,164.378967,275.858917,756.10022,186.690948,275.781128,751.337219,61.801991,236.770065,759.318787,88.775093,221.448563,753.409485,118.694031,209.549423,747.970642,91.500633,291.351685,774.999268,78.599838,323.952118,766.318542,46.845219,301.232117,775.966187,-17.120766,283.568573,790.132202,96.948502,-274.245911,1001.889954,92.173416,-362.91922,998.396729,268.258881,-382.189789,1001.420471,272.541382,-295.732666,1002.141357,102.365631,-273.732361,734.340576,93.611862,-363.592804,733.884399,270.7229,-376.538361,736.359131,280.752716,-289.734863,737.44812
00188_color_1715712648.785950.png,2676,1715712648.783879,845.656799,1007.640015,956.861084,902.140869,1013.607849,974.058594,872.594543,968.99585,984.549683,823.94696,956.340759,946.34021,792.13562,959.244995,925.41217,762.989075,975.06897,912.054565,780.375183,1024.284424,929.851013,760.454651,1037.459839,912.536682,740.439941,1046.293945,891.141418,295.689667,957.875305,1497.174561,242.137192,948.644348,1512.393433,191.282166,963.033203,1491.753662,134.153,276.804779,762.703369,164.385208,275.850708,756.104858,186.698288,275.765564,751.323425,61.798935,236.767426,759.314514,88.773972,221.437958,753.407288,118.698212,209.524597,747.948303,91.484596,291.343292,775.007019,78.977562,323.128876,765.798706,46.730389,301.521179,776.151184,-17.140499,283.636414,790.123352,97.881264,-274.697449,1002.028198,93.340721,-363.747589,998.385864,269.543945,-382.698151,1001.435303,273.604401,-296.30896,1002.155396,103.134415,-274.065857,734.384399,94.794121,-363.741455,733.841797,271.815338,-376.654541,736.387939,281.882233,-289.694489,737.548584
00189_color_1715712648.820047.png,2680,1715712648.823879,839.868164,1007.641052,956.751465,896.375793,1013.521057,973.905884,866.848938,968.888611,984.318848,818.076904,956.472595,946.121765,786.418396,959.227478,924.926392,757.180542,975.182312,911.801819,774.631226,1024.43396,929.737427,754.675659,1037.704468,912.479797,734.731873,1046.556641,891.053955,295.692963,957.875366,1497.177368,242.136749,948.640259,1512.390869,191.273056,963.063171,1491.766113,134.161194,276.805328,762.7005,164.408417,275.847351,756.092529,186.704254,275.777161,751.343506,61.806232,236.768997,759.312012,88.769974,221.433807,753.394653,118.701233,209.51268,747.938965,91.493134,291.355774,775.011475,78.991043,323.163422,765.805786,46.989563,301.048248,775.756714,-17.15325,283.717102,790.108337,99.966835,-275.301636,1002.140747,95.544853,-364.420074,998.388123,271.818451,-382.971954,1001.463562,275.996277,-296.370819,1002.195374,105.36026,-274.174164,734.627319,97.049599,-364.330383,733.877319,274.14444,-376.812164,736.328552,284.038239,-289.882996,737.577515
00190_color_1715712648.854524.png,2683,1715712648.853879,836.690857,1007.266418,956.783203,893.273071,1012.625671,973.822693,863.300842,968.378479,984.474121,814.340942,956.21991,946.43573,782.584717,959.419495,925.501831,753.544739,975.642456,912.262207,771.666992,1024.696655,929.745178,751.863708,1037.99292,912.375488,732.02356,1047.050781,890.892212,295.685791,957.865234,1497.171387,242.135666,948.640991,1512.40625,191.273788,963.057007,1491.762573,134.16217,276.754028,762.688965,164.405792,275.81778,756.082214,186.688217,275.756317,751.337646,61.793941,236.752792,759.316711,88.74395,221.42804,753.41095,118.705078,209.475479,747.928955,91.502464,291.322693,774.993958,78.988319,323.111481,765.804993,46.995049,301.014008,775.781311,-17.147898,283.701843,790.118408,102.348152,-276.888977,1001.229858,97.954117,-364.80188,998.453308,274.313721,-383.238861,1001.597046,278.364197,-296.548065,1002.125732,107.772957,-275.289368,734.365356,99.486336,-364.907318,733.883362,276.601227,-377.227356,736.462952,286.350433,-290.091705,737.593323
00191_color_1715712648.889258.png,2687,1715712648.893879,833.292114,1005.631775,956.24469,889.89386,1010.364197,973.187439,859.392517,966.653137,984.369751,810.174622,954.943115,946.522217,778.303345,958.308716,925.595154,749.622437,974.740295,912.046631,768.446899,1023.808838,929.111877,748.846375,1037.275146,911.651733,729.17334,1046.311035,890.010864,295.687561,957.872742,1497.167847,242.133392,948.637085,1512.389893,191.281326,963.042053,1491.75354,134.181992,276.758789,762.691101,164.412552,275.81189,756.086975,186.710159,275.751526,751.329163,61.789421,236.753632,759.315002,88.761559,221.398987,753.398254,118.706444,209.492294,747.932129,91.502388,291.319702,775.007263,78.9963,323.123505,765.808899,47.000214,301.015686,775.775024,-17.154531,283.718079,790.112976,106.467094,-276.466125,1002.307434,102.475197,-365.581512,998.554871,278.711823,-383.791718,1001.73999,282.625336,-296.852386,1002.218628,112.007744,-275.783875,734.57666,103.753944,-365.49527,734.013977,280.86026,-377.462433,736.482971,290.427063,-290.352173,737.656128
00192_color_1715712648.923339.png,2690,1715712648.9238791,830.961121,1003.555786,955.27832,887.546753,1008.281372,972.349854,856.972656,964.592224,983.599548,807.792419,952.692932,945.747681,776.130371,955.97699,924.668762,747.379333,972.41748,911.074524,766.185059,1021.573059,927.818542,746.582397,1035.072388,910.31134,727.01239,1043.91333,888.59491,295.683014,957.864929,1497.174561,242.139084,948.638184,1512.399536,191.272232,963.048401,1491.762817,134.152847,276.75119,762.703064,164.403656,275.79007,756.06189,186.714447,275.745178,751.329163,61.793785,236.714615,759.30426,88.742828,221.385986,753.384399,118.704521,209.456558,747.905334,91.495239,291.301422,775.021423,78.988457,323.084045,765.817444,46.988373,300.955292,775.77124,-17.152576,283.674255,790.113892,110.615875,-278.642639,1001.154053,106.514153,-366.156769,998.562805,282.730316,-384.055695,1001.564636,286.305206,-297.534882,1002.271057,115.975006,-276.644958,734.481445,107.712463,-366.093597,734.093872,284.835907,-377.726227,736.494873,294.300201,-290.675903,737.736328
00193_color_1715712648.957172.png,2693,1715712648.953879,828.783203,1000.714783,953.839417,885.326843,1005.887634,970.999817,854.943665,962.103943,982.442505,805.926392,949.774414,944.427246,774.181274,952.851929,923.53064,745.477539,968.897583,909.529236,763.926392,1018.322937,926.294312,744.324158,1031.540649,908.568726,724.724304,1040.240601,886.795288,295.683868,957.876221,1497.177612,242.132904,948.641724,1512.399292,191.266052,963.048828,1491.763794,134.14299,276.686493,762.648926,164.396652,275.752991,756.040955,186.689194,275.733337,751.346924,61.761349,236.663956,759.259705,88.714561,221.334991,753.344543,118.696861,209.43132,747.872559,91.493744,291.228302,774.988647,78.97789,323.010559,765.822937,46.967049,300.894043,775.75824,-17.190956,283.609589,790.099915,115.272995,-278.578949,1001.798035,111.517235,-365.168396,998.128723,287.567444,-384.939911,1001.661194,291.085693,-298.183197,1002.404236,120.96563,-277.469238,734.461182,112.398613,-366.825226,734.143555,289.594818,-378.332245,736.508423,298.925568,-291.442474,737.878601
00194_color_1715712648.991089.png,2697,1715712648.993879,826.171997,996.471558,951.530579,882.602783,1002.310974,968.673706,852.62854,958.275818,980.261719,803.88562,945.30603,942.33667,772.10022,947.951782,921.372925,743.212891,963.72937,907.308411,761.153381,1013.309814,923.879944,741.500793,1026.211792,906.091309,721.696899,1034.735718,884.362549,295.682098,957.871277,1497.165527,242.137283,948.640991,1512.399048,191.292709,963.038208,1491.750366,134.174774,276.667847,762.640381,164.393158,275.787231,756.066711,186.703979,275.734467,751.3255,61.774944,236.674515,759.261108,88.737595,221.362915,753.368713,118.713066,209.447021,747.899963,91.495338,291.274353,775.021729,78.976768,323.037415,765.835876,46.955673,300.900085,775.759888,-17.191805,283.58075,790.100342,123.037773,-280.268188,1001.176147,118.704109,-367.446167,998.850037,295.025574,-385.904083,1001.773376,298.908417,-298.907196,1002.402893,128.404327,-278.246887,734.630493,119.89959,-367.629944,734.374573,297.01947,-379.431671,736.603149,306.514435,-292.511505,737.816162
00195_color_1715712649.025512.png,2700,1715712649.023879,824.421875,993.215515,949.604431,880.865356,999.364014,966.739624,851.103943,955.255798,978.470032,802.352417,941.868103,940.557068,770.473022,944.278564,919.61554,741.62146,959.925415,905.624084,759.354614,1009.542114,921.903442,739.531311,1022.362488,904.135193,719.812439,1030.653564,882.35675,295.680969,957.873108,1497.167236,242.13913,948.643799,1512.395874,191.288986,963.032654,1491.755859,134.178864,276.668945,762.631653,164.396042,275.789093,756.050049,186.704575,275.744293,751.329102,61.772217,236.613846,759.237671,88.746178,221.333847,753.345825,118.719055,209.448929,747.861145,91.496452,291.221069,775.01001,78.967018,322.988647,765.838806,46.773876,300.857971,775.845825,-17.174652,283.431854,790.085938,129.336182,-279.761414,1002.215393,125.046852,-368.242554,998.982422,301.482849,-386.667236,1001.899963,305.351898,-299.623779,1002.535706,134.892105,-279.43042,734.487488,126.248825,-368.323578,734.401123,303.214722,-380.144806,736.59082,312.891022,-293.327454,737.858521
00196_color_1715712649.059396.png,2704,1715712649.063879,822.508362,988.677795,947.18396,878.991394,994.990662,964.192749,849.247009,950.950928,976.188599,800.448242,937.250427,938.409729,768.668945,939.47937,917.382324,739.61261,955.098633,903.506348,757.354675,1004.887085,919.488831,737.43042,1017.585632,901.696045,717.727234,1025.693115,879.880066,295.685242,957.868042,1497.166748,242.136826,948.641541,1512.389771,191.29364,963.037231,1491.747803,134.184174,276.706299,762.64563,164.4048,275.812012,756.068787,186.714279,275.743317,751.314453,61.79319,236.659821,759.26532,88.765053,221.364136,753.364197,118.733063,209.454224,747.863892,91.503983,291.256653,775.034363,78.955711,323.022247,765.840271,46.859833,300.775574,775.72699,-17.176849,283.415375,790.073669,138.75,-279.835297,1003.186218,134.318985,-369.182465,999.18634,310.622864,-387.264709,1001.669983,314.703278,-300.868439,1002.593628,143.658508,-279.371277,735.16803,135.395325,-369.044891,734.59314,312.519165,-381.495728,736.876587,322.214905,-294.435242,737.892334
00197_color_1715712649.093149.png,2707,1715712649.093879,821.155212,985.036987,945.244751,877.695007,991.223816,961.973145,847.744568,947.40155,974.442444,798.898621,933.577759,936.924072,766.912476,935.907166,916.158203,737.974121,951.38031,901.91156,755.971191,1001.268372,917.706604,736.032532,1013.904358,899.828491,716.285156,1021.952637,878.040283,295.690125,957.886047,1497.177856,242.139221,948.649536,1512.400391,191.279907,963.036316,1491.756104,134.197723,276.727234,762.667297,164.425735,275.834961,756.086731,186.726593,275.762238,751.306702,61.722824,236.685883,759.298584,88.781448,221.374054,753.375488,118.7565,209.462341,747.861206,91.513908,291.268036,775.040283,78.976616,323.031311,765.852234,46.872871,300.800598,775.752258,-17.058338,283.463837,790.100647,146.176041,-280.288086,1003.483521,141.785904,-369.99057,999.339233,318.17572,-388.369293,1001.856445,322.318146,-301.912231,1002.551208,151.005692,-280.142242,735.265198,142.874542,-370.01355,734.811951,319.957825,-382.384613,736.920837,329.245728,-295.292236,738.012024
00198_color_1715712649.126542.png,2710,1715712649.123879,819.634949,980.974792,943.231689,876.265137,987.166016,959.704956,846.199951,943.463623,972.552307,797.217957,929.503906,935.27594,765.297791,931.746521,914.450806,736.303955,947.177368,900.315369,754.42865,997.15802,915.653198,734.567261,1009.656921,897.776184,714.707153,1017.627686,875.931335,295.679352,957.870544,1497.173462,242.135086,948.6521,1512.403809,191.295258,963.041931,1491.748535,134.206436,276.707397,762.675781,164.430084,275.841461,756.109375,186.724625,275.764648,751.314941,61.757195,236.667938,759.236694,88.781387,221.376099,753.376038,118.746559,209.477539,747.874329,91.503029,291.271637,775.076965,78.976517,323.025391,765.851624,46.87233,300.778412,775.748535,-17.080605,283.585114,790.320374,154.373642,-283.185547,1002.134705,150.024811,-370.984314,999.365112,326.115692,-389.391541,1002.062561,330.036713,-302.964325,1002.817749,159.263428,-280.818848,735.608582,150.895401,-370.964996,734.88385,327.864441,-383.010834,736.876038,337.669006,-296.169403,738.193665
00199_color_1715712649.160570.png,2714,1715712649.163879,817.236938,974.745544,940.177979,873.911011,981.234985,956.600647,844.049805,937.50415,969.859009,795.00354,923.259155,932.706909,763.00293,925.200317,911.934631,734.002747,940.488281,897.739929,751.895691,990.570557,912.667236,731.981628,1002.916077,894.661194,712.090759,1010.58783,872.701599,295.682159,957.870178,1497.171387,242.126648,948.642334,1512.400024,191.266418,963.055237,1491.767212,134.225891,276.712982,762.648865,164.459045,275.859192,756.116455,186.728958,275.780151,751.325684,61.757446,236.667755,759.243042,88.650406,221.381439,753.385559,118.759094,209.487335,747.88501,91.410324,291.300568,775.18103,78.87455,322.792816,765.645691,46.871319,300.817566,775.773376,-17.144691,283.539459,790.244202,165.516357,-283.663208,1002.713684,161.476318,-370.431763,999.048279,337.249939,-390.501709,1002.08667,341.40918,-303.886505,1002.855408,171.639465,-284.571838,734.511353,161.899826,-372.148682,735.099731,338.90979,-384.301178,737.094482,348.649658,-297.401733,738.376892
00200_color_1715712649.197795.png,2717,1715712649.1938791,815.228149,969.487061,937.963623,871.857666,976.304321,954.243103,842.254639,932.460571,967.615906,793.171326,917.750854,930.563171,761.133118,919.583862,909.759155,732.007812,934.839111,895.723328,749.732056,984.905701,910.39447,729.712585,997.133667,892.365601,709.85498,1004.651062,870.482178,295.688019,957.880249,1497.178833,242.127655,948.637634,1512.391479,191.266815,963.060486,1491.760254,134.221725,276.729218,762.673157,164.453003,275.864014,756.117371,186.739273,275.758881,751.309082,61.731735,236.647644,759.229614,88.758064,221.347397,753.33551,118.757454,209.485413,747.885315,91.428314,291.300232,775.179749,79.103554,322.733429,765.520325,46.877392,300.826599,775.797913,-17.158897,283.522949,790.194824,174.112305,-285.311432,1002.361389,169.775101,-372.876343,999.781372,346.119659,-391.8349,1002.555359,349.748962,-304.689545,1003.035889,178.404755,-283.041748,735.797913,170.393036,-373.22403,735.342285,347.582947,-385.220428,737.203735,357.132568,-298.292755,738.354248
00201_color_1715712649.234408.png,2721,1715712649.233879,812.111633,961.782471,935.32373,868.712158,969.101562,951.666565,839.646118,924.884644,964.903687,790.528503,909.987061,927.968323,758.480469,911.479004,907.31842,729.285156,926.286194,893.048584,746.554932,976.600159,907.75885,726.569153,988.558533,889.674744,706.476379,995.967773,867.845093,295.685455,957.870056,1497.168091,242.13472,948.628418,1512.392456,191.269424,963.030151,1491.753174,134.281265,276.774536,762.645752,164.505905,275.955383,756.135498,186.775482,275.816864,751.308716,61.791801,236.745453,759.314697,88.794983,221.414093,753.385437,118.785561,209.554398,747.929871,91.483292,291.44339,775.117065,79.030235,323.210266,765.832397,46.90609,300.967499,775.80188,-17.146391,283.694611,790.1922,185.642899,-285.927185,1003.468506,181.770401,-374.4664,999.822266,358.39093,-393.342804,1002.663513,361.849792,-305.709473,1003.176086,189.958221,-284.542969,736.082947,182.323135,-374.74884,735.474426,359.401489,-386.022278,737.26532,368.768585,-299.26062,738.523743
00202_color_1715712649.268392.png,2724,1715712649.263879,809.51416,955.437073,933.826355,866.062622,963.097778,950.254639,837.173828,918.757507,963.513184,788.206421,903.437927,926.412842,756.206787,904.804138,905.624573,726.890076,919.495911,891.499878,743.886047,969.924805,906.102112,723.790588,981.786499,887.981445,703.984741,988.952454,866.045715,295.685303,957.881348,1497.178345,242.134827,948.641052,1512.39624,191.265076,963.029053,1491.749146,134.29184,276.826477,762.659241,164.519836,276.01825,756.169922,186.791229,275.838959,751.311279,61.822224,236.787445,759.333435,88.80555,221.422012,753.408081,118.713074,209.556061,747.927246,91.488197,291.464691,775.205139,79.136055,322.931244,765.514771,46.74094,301.371796,776.045898,-17.13612,283.741333,790.191223,194.829269,-288.375,1002.661438,190.956848,-375.813507,1000.099304,367.192535,-393.45517,1002.472778,370.574951,-306.922119,1003.196472,199.57251,-286.667877,735.718933,191.324539,-375.873169,735.608459,368.537903,-387.106171,737.432861,377.657623,-300.050201,738.675415
00203_color_1715712649.304863.png,2728,1715712649.303879,805.579712,946.537048,932.514343,862.046448,954.518066,949.065491,833.303711,910.108765,962.316467,784.476624,894.498535,925.238892,752.602478,895.476624,904.215515,723.30127,909.996765,889.965454,739.891113,960.494446,904.507263,719.785278,972.169067,886.213562,699.920044,979.13446,864.159302,295.686951,957.879578,1497.178223,242.125137,948.640198,1512.391968,191.263641,963.034302,1491.761963,134.289047,276.78949,762.653564,164.520737,275.953125,756.142334,186.788467,275.820404,751.294128,61.744087,237.032303,759.638184,88.780487,221.387924,753.371826,118.721504,209.523041,747.908203,91.531914,291.428894,775.120911,78.870636,323.60614,766.108521,46.815941,301.120667,775.930542,-17.183336,283.67453,790.143372,206.913895,-289.310883,1003.327026,203.162628,-377.518402,1000.273132,379.8396,-395.593628,1002.767456,383.025574,-307.948212,1003.354553,211.017715,-287.09137,736.524658,203.568222,-377.406342,735.790527,380.725037,-388.305359,737.494751,389.474701,-301.403595,738.852356
00204_color_1715712649.342048.png,2732,1715712649.343879,800.589355,937.241638,931.772034,856.883789,945.776123,948.646606,828.527161,901.095825,961.768005,780.209229,884.897034,924.324463,748.788879,885.319214,902.53241,718.964233,899.808411,888.731873,734.879272,950.525574,903.40863,714.746887,961.928345,885.025391,694.983887,968.741333,862.900818,295.682434,957.873657,1497.174316,242.126343,948.628052,1512.38916,191.265442,963.028992,1491.754883,134.222168,276.751587,762.617554,164.52066,275.968323,756.129211,186.788239,275.841095,751.31665,61.749451,237.049576,759.655334,88.853653,221.616211,753.489563,118.700127,209.536713,747.920471,91.494995,291.444672,775.196655,78.930954,323.371033,765.796814,46.812592,301.193176,775.993591,-17.208353,283.792938,790.117798,219.161774,-290.017303,1004.163513,215.49527,-378.86676,1000.406006,391.766968,-396.350403,1002.793335,395.000916,-309.633698,1003.502869,224.243393,-290.544983,735.797546,215.785065,-378.891602,735.871277,392.953644,-389.85553,737.652405,401.921936,-302.812622,738.892883
00205_color_1715712649.376656.png,2735,1715712649.373879,796.065552,930.197876,931.660034,852.214966,939.379456,948.870239,824.250549,894.333801,961.662964,776.39624,877.536926,923.823914,744.731201,877.983154,902.470581,715.153198,891.969238,888.172852,730.336731,942.754211,902.950439,710.222229,953.952515,884.509583,690.479553,960.537537,862.268738,295.680786,957.876892,1497.176758,242.124054,948.634583,1512.400879,191.241623,963.04126,1491.768311,134.19516,276.783264,762.635071,164.580994,275.807526,755.926453,186.802841,275.82486,751.299133,61.755661,237.076065,759.682922,88.71804,221.637848,753.659607,118.691971,209.537582,747.927612,91.493538,291.456146,775.201477,78.954918,323.321625,765.776611,46.895237,301.432983,776.168213,-17.222017,283.864166,790.119263,228.326645,-291.215302,1004.013306,224.717972,-379.792664,1000.516907,400.927399,-398.060211,1003.186218,404.284668,-310.897461,1003.562439,232.327606,-289.939819,736.677185,224.786072,-379.917236,736.087219,401.934479,-391.139801,737.707275,410.793213,-304.185211,739.068481
00206_color_1715712649.411037.png,2739,1715712649.413879,788.921326,920.987427,931.845337,844.664246,931.158936,949.431824,817.795166,885.214478,961.543335,770.277466,868.177185,923.500366,738.890259,867.903931,901.653198,708.948425,881.578674,887.572876,723.125305,932.402588,902.874512,702.907166,943.363892,884.340271,682.883301,949.848877,862.196411,295.681824,957.867432,1497.175415,242.13147,948.640076,1512.398193,191.256897,963.037903,1491.75293,134.183975,276.745087,762.621887,164.413986,275.936432,756.124695,186.789215,275.827759,751.310913,61.751099,237.067825,759.707214,88.730583,221.624908,753.653198,118.85141,209.860855,748.056519,91.51973,291.461639,775.211609,78.867607,323.112213,765.641663,46.854748,301.46106,776.247314,-17.229488,283.881226,790.082336,241.033249,-292.63092,1003.760315,237.221375,-379.328339,1000.151611,413.512787,-399.677795,1003.056763,416.939056,-312.12793,1003.58783,244.758255,-291.194183,736.815186,236.983826,-381.127289,736.301086,414.016876,-392.667114,737.788025,423.406891,-305.850342,738.94574
00207_color_1715712649.445757.png,2742,1715712649.4438791,782.709167,914.247009,932.065308,838.153809,925.299805,949.974915,812.044128,878.77356,961.468445,764.998108,861.24176,923.266663,733.797791,860.751587,901.29718,703.554443,874.053589,887.264771,716.763489,924.925537,903.137573,696.353455,935.723511,884.660583,676.361084,942.009521,862.396667,295.678833,957.885681,1497.187622,242.127411,948.637268,1512.396118,191.2556,963.052795,1491.765625,134.215515,276.730072,762.630737,164.49025,275.959412,756.142029,186.911362,275.738647,751.193726,61.763718,237.090683,759.705627,88.73661,221.63623,753.667542,118.649078,209.789536,748.224426,91.692062,291.062164,774.685974,78.971504,323.251373,765.752136,46.877922,301.489105,776.250122,-17.249115,283.965942,790.074646,250.035019,-293.112518,1004.336487,246.010208,-381.758392,1000.839111,422.268372,-399.683868,1003.054871,425.926147,-313.082855,1003.699036,253.827454,-291.879761,736.99292,246.061005,-381.995941,736.371094,423.232605,-393.491699,737.915649,432.518005,-306.47821,739.064697
00208_color_1715712649.479729.png,2746,1715712649.483879,773.40918,905.864197,932.504822,828.624268,917.565796,950.69873,803.289795,870.525757,961.450256,756.739929,852.723022,922.81842,725.851013,851.695007,900.495178,695.350159,864.376099,887.255676,707.353149,915.453125,903.491943,686.725159,926.109924,885.23822,666.723572,932.354309,863.065674,295.682465,957.874084,1497.177002,242.121643,948.646301,1512.40686,191.269577,963.03363,1491.75354,134.231995,276.734192,762.645691,164.488144,275.940765,756.134094,186.801788,275.804596,751.275391,61.777954,236.849258,759.465759,88.742851,221.635086,753.665588,118.650772,209.778351,748.210938,91.535126,291.485352,775.261047,78.989288,323.153961,765.606873,46.888577,301.491821,776.259094,-17.159925,284.101135,790.172852,261.925995,-293.569733,1004.991882,258.089447,-382.791412,1000.986328,434.542786,-401.372803,1003.78656,437.763763,-313.740692,1003.822083,266.679993,-294.828156,736.174438,258.111023,-382.997345,736.610046,435.165131,-394.091522,737.963379,444.346497,-307.343872,739.102722
00209_color_1715712649.513672.png,2749,1715712649.513879,765.888916,899.53064,932.904968,820.967468,911.654236,951.144714,796.11853,864.092102,961.153748,749.694275,846.484375,922.573242,718.985962,846.160156,901.122559,688.359192,858.553162,887.299988,699.822754,908.783508,903.831482,679.088806,919.394836,885.544312,659.042664,925.8125,863.59436,295.677429,957.866516,1497.166016,242.122452,948.628967,1512.388062,191.269257,963.029236,1491.744995,134.245468,276.708191,762.622437,164.488525,275.92041,756.117493,186.79863,275.772705,751.255615,61.773712,237.065231,759.686462,88.738281,221.610992,753.651123,118.649673,209.77916,748.193909,91.554306,291.484253,775.279175,78.952126,323.152222,765.646912,46.898655,301.462555,776.260559,-17.295929,284.084229,790.051331,270.359467,-294.863068,1004.664062,266.793732,-383.714966,1001.091492,443.229919,-400.346191,1002.869629,446.3909,-314.241364,1003.993042,274.510193,-294.095673,737.075562,266.88324,-383.700226,736.578552,443.994202,-394.650696,738.166077,453.083832,-307.607391,739.197266
00210_color_1715712649.547941.png,2752,1715712649.543879,758.363525,892.976929,932.801636,813.293396,905.133545,951.20575,788.545166,857.520569,960.871216,742.180054,840.078552,922.141541,711.463745,838.408875,899.845215,680.584473,851.806702,886.398071,692.161316,902.322937,903.976746,671.41333,913.056152,885.879089,651.731262,919.812988,864.718018,295.681488,957.880432,1497.176025,242.123291,948.63501,1512.393555,191.272705,963.023193,1491.744751,134.302582,276.80011,762.656433,164.556671,275.984711,756.136169,186.849487,275.798584,751.248169,61.828789,237.199142,759.760254,88.789368,221.745407,753.714233,118.664536,209.866043,748.255615,91.594528,291.629028,775.279175,79.020332,323.284332,765.608887,46.953011,301.587219,776.243469,-17.2645,284.284332,790.046265,279.187683,-297.968964,1003.069031,275.312561,-384.589539,1001.204956,452.29718,-401.924988,1003.192566,455.131561,-314.620636,1003.921631,283.056854,-295.218109,737.067505,275.311157,-384.497955,736.607239,452.566162,-395.006714,737.984924,461.436249,-308.117004,739.265808
00211_color_1715712649.581817.png,2756,1715712649.583879,748.283875,883.697144,931.971008,803.190369,895.61499,950.49939,778.308105,847.967651,959.753296,732.100891,830.891968,921.197693,701.213867,829.060913,898.226257,670.780457,842.654236,885.025146,682.067322,893.249329,903.375,661.716003,904.796204,885.925598,641.508911,910.864197,863.819336,295.679108,957.873596,1497.171387,242.119339,948.627441,1512.398682,191.26532,963.020386,1491.746216,134.537277,277.053711,762.818176,164.636963,276.04483,756.164368,186.910095,275.796234,751.255493,61.873432,237.205139,759.770874,88.853027,221.780502,753.761536,118.71328,209.857681,748.252869,91.664108,291.663239,775.295959,79.029732,323.224609,765.550415,47.00975,301.578857,776.233398,-17.203688,284.247986,790.02887,289.693298,-298.563324,1003.681091,286.365967,-385.99353,1001.243225,463.247314,-402.628143,1003.335266,465.564636,-315.446381,1004.045227,294.947205,-298.836456,735.533875,286.446625,-385.694275,736.787476,463.656494,-395.620331,738.347656,472.058899,-308.589508,739.480347
00212_color_1715712649.615769.png,2759,1715712649.613879,740.899841,875.719604,930.719482,795.667969,887.640808,949.206177,770.723877,840.027954,958.199158,724.922058,823.200073,919.874817,693.938171,822.091614,896.843079,663.223755,835.643311,883.469666,674.946777,886.095886,902.398804,654.085632,896.543945,884.242432,633.973694,903.287231,862.028442,295.673065,957.874146,1497.17981,242.116196,948.630493,1512.395142,191.252869,963.018066,1491.747437,134.37326,277.052612,762.992371,164.644348,275.993469,756.155823,186.914551,275.782104,751.229553,61.880096,237.17691,759.756287,88.840012,221.749939,753.720154,118.722717,209.820541,748.208496,91.679848,291.603577,775.299377,79.049446,323.135162,765.556885,47.008324,301.512115,776.25531,-17.207811,284.115204,790.007324,296.488403,-297.826599,1004.598145,294.257751,-386.690613,1001.271851,470.769928,-402.222382,1003.224609,473.182831,-315.872833,1004.180664,302.108826,-298.86084,736.213806,294.12326,-386.815674,736.921265,471.400635,-396.001953,738.307251,479.679047,-309.021881,739.44519
00213_color_1715712649.650062.png,2763,1715712649.653879,731.355591,864.132935,927.634155,785.975403,876.106628,946.345215,761.067688,828.321289,954.591248,715.053833,811.057434,915.664185,684.594482,811.173767,893.491394,654.03479,824.085022,880.252319,665.208496,873.931213,899.164856,644.440735,885.019836,881.003052,624.391113,891.9422,859.034241,295.673279,957.880371,1497.181885,242.113541,948.636475,1512.393799,191.277298,963.008911,1491.737793,134.454422,277.158722,763.008179,164.705002,276.090698,756.161438,186.964554,275.811432,751.237183,61.93119,237.234711,759.794983,88.910278,221.83194,753.787415,118.771019,209.889374,748.246948,91.730675,291.742371,775.306335,79.364204,323.481201,765.78302,47.036606,301.625061,776.266785,-17.170645,284.21048,789.999634,306.645447,-299.503967,1004.553772,303.938385,-387.673401,1001.450684,480.913879,-404.231384,1003.719666,482.7724,-316.658905,1004.132263,311.495911,-299.530823,736.604614,303.868683,-387.669006,736.975342,481.099304,-396.654907,738.195557,489.185364,-309.789337,739.535278
00214_color_1715712649.683991.png,2766,1715712649.6838791,723.98999,854.691162,924.529602,778.644531,866.742188,942.885193,754.093445,818.739441,950.84198,708.634583,801.803406,912.109131,677.857178,800.234863,889.241882,647.559753,813.369324,875.521423,657.921692,863.93219,895.739258,637.207336,875.058289,877.900085,617.085388,881.935181,855.876526,295.672211,957.863464,1497.168823,242.126282,948.628845,1512.392822,191.250458,963.013428,1491.748901,134.550491,277.17868,763.009521,164.839279,276.238098,756.223816,187.038956,275.838745,751.229797,62.036427,237.312988,759.930481,88.988503,221.792389,753.800842,118.833115,209.87822,748.237854,91.803246,291.737518,775.292725,79.449142,323.462341,765.767456,47.105099,301.608673,776.276245,-17.097042,284.112946,790.003357,313.451202,-300.361816,1004.547485,310.734497,-388.404053,1001.528748,487.213013,-403.98703,1003.525757,490.056366,-317.789795,1004.066711,318.358887,-300.176422,736.630493,310.558868,-388.238831,737.049927,487.760406,-397.437866,738.35376,496.056824,-310.633392,739.515442
00215_color_1715712649.718925.png,2770,1715712649.723879,715.025024,841.572632,919.697144,769.056824,853.537231,936.973511,744.952515,806.749451,946.242188,700.206787,787.520508,906.119934,669.168823,786.139465,883.218872,638.574402,798.921143,869.723328,648.299561,849.169556,890.426392,627.227295,860.10675,872.758606,607.331299,867.536682,851.574036,295.664795,957.857483,1497.164429,242.118103,948.629883,1512.398315,191.255676,963.016296,1491.739136,134.553925,277.14621,762.999451,164.785721,276.405579,756.470398,187.062073,275.819458,751.226746,61.956982,237.906754,760.616882,88.99662,221.766815,753.772705,118.860703,209.849106,748.20752,91.581741,292.246979,775.645813,79.444122,323.389191,765.797119,47.105515,301.550232,776.360596,-17.089588,283.943268,790.076294,321.681671,-300.83783,1004.598999,319.192108,-388.038422,1000.766968,496.247528,-406.157776,1003.772278,498.667175,-318.626373,1004.191406,327.049469,-301.295593,736.567078,319.148621,-389.327667,737.080566,496.402649,-398.819641,738.517883,504.713348,-311.787476,739.611694
00216_color_1715712649.753433.png,2773,1715712649.753879,707.747131,829.686951,914.231323,761.950439,843.285034,931.460938,739.827881,794.834045,938.357849,693.776978,774.32843,899.352783,662.553223,774.892334,878.292969,631.682556,787.156738,864.976624,641.146606,837.928345,886.31488,619.633484,848.072327,868.870911,598.94342,854.697937,847.367615,295.673279,957.868652,1497.171509,242.12056,948.634094,1512.398315,191.247131,963.015564,1491.746094,134.594238,277.21582,763.009277,164.804535,276.443848,756.483582,187.086304,275.851196,751.233093,62.124893,237.10965,759.708374,89.042686,221.820923,753.789429,118.88887,209.871628,748.220764,91.763016,291.896179,775.393188,79.456146,323.439362,765.788757,47.220253,301.603088,776.435486,-17.069532,283.924805,790.060364,328.436951,-303.444122,1003.645996,325.149811,-389.947662,1001.600952,501.598999,-406.076477,1003.71051,504.583466,-319.354187,1004.26532,332.934662,-301.939789,736.676086,324.928955,-389.861389,737.11676,502.115356,-399.189667,738.284485,510.530579,-312.419006,739.770935
00217_color_1715712649.788254.png,2776,1715712649.783879,700.467224,818.489014,908.11731,754.932434,832.812744,925.016174,733.004028,784.169617,932.44281,687.365356,764.545654,894.34845,655.687256,763.647156,873.021667,624.441406,775.626526,860.110474,633.417603,825.480774,881.397888,611.676086,836.134033,864.433044,590.499268,842.412537,842.934814,295.669006,957.859131,1497.168335,242.121002,948.636047,1512.396851,191.245743,963.027161,1491.75293,134.63237,277.228088,763.024231,164.855606,276.453003,756.493042,187.202026,276.025299,751.315674,62.164963,237.069183,759.67627,89.140327,221.852982,753.867615,118.967148,209.872482,748.227844,91.863174,291.750458,775.312134,79.497635,323.401001,765.7948,47.321949,301.618042,776.600159,-16.997066,283.710999,790.002869,333.912384,-304.118256,1003.595459,330.555511,-390.437164,1001.659058,507.044922,-406.246063,1003.522034,509.804779,-320.292969,1004.240417,338.38855,-302.618256,736.645874,330.413483,-390.46637,737.232422,507.501892,-400.443146,738.609619,516.021484,-313.154633,739.725464
00218_color_1715712649.823970.png,2780,1715712649.823879,691.467896,802.836731,899.632324,745.861206,819.096191,916.289307,724.031677,769.581421,923.745422,678.509399,749.999512,887.156555,646.521301,747.004028,865.448608,614.698059,759.084534,854.109192,623.292725,809.338257,874.901794,600.983215,819.535767,858.476624,579.26123,825.623108,837.82373,295.674225,957.876953,1497.179688,242.106018,948.616394,1512.387573,191.239197,963.025391,1491.757812,134.635056,277.19046,763.02832,164.846436,276.417023,756.484985,187.340408,276.190765,751.380737,62.194286,236.978287,759.625549,89.222839,221.973053,754.103149,119.002747,209.855789,748.221985,91.876823,291.654541,775.314453,79.499214,323.307678,765.820007,47.090683,301.331573,776.274963,-16.992266,283.460327,790.003296,340.474243,-304.446167,1004.323608,337.200378,-391.805573,1001.763794,513.755005,-407.657532,1003.828857,516.411194,-321.489075,1004.301575,345.101685,-304.004517,736.552856,337.048218,-391.540466,737.334656,514.355652,-400.958893,738.537537,522.263367,-314.108917,739.869812
00219_color_1715712649.862234.png,2784,1715712649.863879,682.754517,787.433472,892.603943,737.461914,804.462402,907.73645,716.008789,753.588623,914.729309,670.3797,732.957703,879.053162,638.033142,731.219543,859.410095,605.666321,742.032043,848.38623,613.766602,792.587769,869.910461,590.654236,802.384399,854.272522,568.162903,808.075073,834.228882,295.669342,957.863953,1497.174316,242.120987,948.643005,1512.394653,191.271652,963.015198,1491.732422,134.409088,277.732849,763.315491,164.86145,276.454102,756.494324,187.050629,276.1297,751.568848,62.202011,236.989609,759.67865,89.233551,221.653702,753.679504,119.025665,209.868561,748.210815,91.871964,291.661011,775.320557,79.492012,323.360474,765.872192,47.135502,301.410248,776.351624,-17.001223,283.273468,789.916199,346.282776,-305.368225,1004.589661,342.968292,-392.930176,1001.733887,520.046753,-409.337402,1003.658508,522.45752,-322.285339,1004.362793,351.050751,-305.293457,736.562012,342.885132,-392.682983,737.2229,520.473816,-403.484924,739.051392,528.406799,-314.984985,739.896606
00220_color_1715712649.896198.png,2787,1715712649.893879,676.9021,775.553589,887.706787,731.804504,793.078064,901.155823,711.595276,741.908325,909.095703,665.048645,722.099731,875.068848,631.850769,718.920715,856.331421,599.139587,729.184204,846.000793,607.491638,780.154114,867.378296,583.783203,789.737061,852.335144,560.717712,795.28125,833.007568,295.672668,957.868408,1497.178345,242.122833,948.641541,1512.395264,191.247482,963.01825,1491.750732,134.674301,277.1875,763.02301,164.873367,276.427734,756.494507,187.049911,276.116516,751.561707,62.211597,236.936264,759.648438,89.244545,221.619293,753.671021,119.081741,209.906845,748.253662,91.878426,291.637634,775.329956,79.581947,323.496246,766.054016,47.103947,301.317474,776.372498,-16.969456,283.082458,789.868225,350.232971,-305.085266,1005.34668,346.896667,-393.832245,1001.853943,523.489624,-409.282837,1003.533142,526.533264,-323.126038,1004.476685,355.452972,-307.077362,736.097961,346.898041,-393.41861,737.287598,524.450378,-404.354187,739.018005,532.382202,-315.964447,739.876465
00221_color_1715712649.929967.png,2791,1715712649.9338791,670.114441,759.703125,882.335449,725.141235,778.04248,893.732483,706.090881,726.350342,901.987549,658.644226,705.479736,869.707458,624.860474,701.63562,852.133179,591.540283,711.171936,842.92926,599.473022,761.779724,864.442932,574.699097,770.278809,850.095886,550.710083,775.025269,831.632324,295.670288,957.869141,1497.172729,242.124039,948.636353,1512.397705,191.262024,963.013916,1491.74939,134.739105,277.153503,763.015808,164.878845,276.484497,756.538452,187.087738,276.136597,751.565002,62.241802,236.955353,759.667908,89.257111,221.700195,753.739014,119.158272,210.066956,748.471863,91.888847,291.657196,775.353394,79.487511,323.467468,766.070007,47.127483,301.336304,776.376221,-16.9293,282.995667,789.797058,354.912476,-305.904602,1005.205139,351.509949,-394.450287,1001.891235,528.470825,-411.201996,1003.640991,530.901611,-324.369629,1004.342224,359.114349,-305.600983,737.322083,351.303894,-394.056671,737.318665,528.840271,-405.574493,739.210571,536.602112,-316.98996,740.030823
00222_color_1715712649.964081.png,2794,1715712649.963879,664.783936,747.053406,878.325256,720.005981,767.193359,888.625488,702.156555,715.339905,897.236023,654.485718,693.090637,865.886597,620.333008,688.463867,849.096802,586.620361,697.141418,840.691284,593.826721,748.034241,861.982605,568.742188,756.375183,848.481873,544.257935,760.818054,830.701843,295.501587,957.639343,1497.04187,242.126968,948.634583,1512.400757,191.243088,963.044312,1491.771118,134.749527,277.128693,763.008789,164.923187,276.382446,756.490662,187.087799,276.122894,751.567383,62.241951,236.929642,759.661011,89.273598,221.620361,753.696716,119.185669,210.109879,748.536438,91.901321,291.635284,775.36261,79.684715,323.638519,766.272217,47.120918,301.319183,776.391357,-16.914429,282.868958,789.707947,357.468353,-305.784546,1005.376465,354.641052,-395.592255,1002.075684,531.299561,-411.815216,1003.702148,534.060547,-324.693512,1004.449341,361.458984,-305.206268,737.813599,354.169647,-394.594574,737.338135,531.406189,-404.506531,738.612976,539.6026,-317.855713,739.998596
00223_color_1715712649.998204.png,2797,1715712649.993879,659.173401,734.3927,874.357849,714.372681,756.549561,883.292969,698.664734,704.977905,892.796082,650.644531,681.041016,862.171753,616.388428,675.143616,846.031311,582.152039,682.720398,838.29248,588.150696,733.735291,859.885254,562.498657,741.159424,847.030701,537.453125,744.837891,829.912292,295.74588,958.050476,1497.390991,242.085907,948.625732,1512.414307,191.257248,963.04126,1491.762817,134.767349,277.133301,763.006653,164.937469,276.401428,756.500854,187.072906,276.159973,751.608459,62.249256,236.950714,759.655823,89.296478,221.649292,753.725952,119.0616,210.544937,748.764954,91.893738,291.668274,775.371582,79.787857,323.732605,766.406982,47.117077,301.374817,776.407532,-16.918356,282.86087,789.666504,359.924988,-305.717773,1005.618225,356.909882,-397.476776,1003.381104,533.040771,-411.337708,1003.46698,536.158936,-325.508636,1004.370117,364.449768,-306.35495,737.312317,356.437653,-394.572052,737.345642,533.723206,-406.158936,739.023438,542.443237,-318.623627,739.736877
