mbdulkadiroglu/VisualAffordanceDataset/synchronized_frames_13.csv
RealSense_frame,Vicon_frame,Vicon_timestamp,RightHand1:Wrist1_X,RightHand1:Wrist1_Y,RightHand1:Wrist1_Z,RightHand1:Wrist2_X,RightHand1:Wrist2_Y,RightHand1:Wrist2_Z,RightHand1:Wrist3_X,RightHand1:Wrist3_Y,RightHand1:Wrist3_Z,RightHand1:Thumb1_X,RightHand1:Thumb1_Y,RightHand1:Thumb1_Z,RightHand1:Thumb2_X,RightHand1:Thumb2_Y,RightHand1:Thumb2_Z,RightHand1:Thumb3_X,RightHand1:Thumb3_Y,RightHand1:Thumb3_Z,RightHand1:IndexFinger1_X,RightHand1:IndexFinger1_Y,RightHand1:IndexFinger1_Z,RightHand1:IndexFinger2_X,RightHand1:IndexFinger2_Y,RightHand1:IndexFinger2_Z,RightHand1:IndexFinger3_X,RightHand1:IndexFinger3_Y,RightHand1:IndexFinger3_Z,LeftHand1:IndexFinger1_X,LeftHand1:IndexFinger1_Y,LeftHand1:IndexFinger1_Z,LeftHand1:IndexFinger2_X,LeftHand1:IndexFinger2_Y,LeftHand1:IndexFinger2_Z,LeftHand1:IndexFinger3_X,LeftHand1:IndexFinger3_Y,LeftHand1:IndexFinger3_Z,LeftHand1:Thumb1_X,LeftHand1:Thumb1_Y,LeftHand1:Thumb1_Z,LeftHand1:Thumb2_X,LeftHand1:Thumb2_Y,LeftHand1:Thumb2_Z,LeftHand1:Thumb3_X,LeftHand1:Thumb3_Y,LeftHand1:Thumb3_Z,LeftHand1:Wrist1_X,LeftHand1:Wrist1_Y,LeftHand1:Wrist1_Z,LeftHand1:Wrist2_X,LeftHand1:Wrist2_Y,LeftHand1:Wrist2_Z,LeftHand1:Wrist3_X,LeftHand1:Wrist3_Y,LeftHand1:Wrist3_Z,LeftHand1:Wrist4_X,LeftHand1:Wrist4_Y,LeftHand1:Wrist4_Z,Realsense:Camera1_X,Realsense:Camera1_Y,Realsense:Camera1_Z,Realsense:Camera2_X,Realsense:Camera2_Y,Realsense:Camera2_Z,Realsense:Camera3_X,Realsense:Camera3_Y,Realsense:Camera3_Z,Cup:Corner1_X,Cup:Corner1_Y,Cup:Corner1_Z,Cup:Corner2_X,Cup:Corner2_Y,Cup:Corner2_Z,Cup:Corner3_X,Cup:Corner3_Y,Cup:Corner3_Z,Cup:Corner4_X,Cup:Corner4_Y,Cup:Corner4_Z,Cup:Corner5_X,Cup:Corner5_Y,Cup:Corner5_Z,Cup:Corner6_X,Cup:Corner6_Y,Cup:Corner6_Z,Cup:Corner7_X,Cup:Corner7_Y,Cup:Corner7_Z,Cup:Corner8_X,Cup:Corner8_Y,Cup:Corner8_Z,Coffee:Corner1_X,Coffee:Corner1_Y,Coffee:Corner1_Z,Coffee:Corner2_X,Coffee:Corner2_Y,Coffee:Corner2_Z,Coffee:Corner3_X,Coffee:Corner3_Y,Coffee:Corner3_Z,Coffee:Corner4_X,Coffee:Corner4_Y,Coffee:Corner4_Z,Coffee:Corner5_X,Coffee:Corner5_Y,Coffee:Corner5_Z,Coffee:Corner6_X,Coffee:Corner6_Y,Coffee:Corner6_Z,Coffee:Corner7_X,Coffee:Corner7_Y,Coffee:Corner7_Z,Coffee:Corner8_X,Coffee:Corner8_Y,Coffee:Corner8_Z
00171_color_1715976472.161341.png,1884,1715976472.157727,533.387878,382.23349,884.585022,588.126221,412.489655,868.728088,589.973083,364.266296,891.860779,536.018555,324.082764,882.643372,505.383545,303.27594,877.729004,470.886993,295.060181,881.413818,461.622253,362.008942,887.424561,434.480377,357.941986,877.444885,408.110443,349.436432,863.346191,48.841919,196.18927,759.721863,78.300011,198.032455,752.443604,100.528641,199.995453,748.0979,-21.358122,149.616394,756.230042,6.854083,137.370621,750.57666,38.080471,128.547058,744.545166,3.203795,207.317062,772.152649,-10.497184,237.404205,762.996216,-43.866657,209.735474,776.055115,-107.832504,183.246109,783.897827,187.179337,980.022339,1493.991455,239.169617,974.131104,1516.24353,290.306763,986.284729,1498.588623,566.947998,-517.990173,835.141174,520.409485,-523.792847,834.371216,512.77063,-459.101135,834.654419,574.861938,-464.586121,834.335999,512.718994,-526.165771,738.017456,510.674896,-449.813721,739.823303,575.840454,-456.352814,740.329956,573.326172,-524.32666,740.446411,253.250931,13.65415,846.9104,324.387146,8.89889,847.063538,325.359497,91.713463,847.460205,256.237793,92.479027,846.284851,249.90065,6.129907,741.564148,329.575287,3.391932,741.351624,329.725159,97.926262,740.924316,251.923264,96.955742,740.086914
00172_color_1715976472.198755.png,1888,1715976472.197727,543.718689,372.642975,876.19751,598.429993,402.708496,858.380981,600.867615,354.142609,880.548767,545.328796,314.658722,873.054199,514.298157,294.017517,868.701904,479.791779,286.177734,873.611755,471.633698,353.207062,881.406921,444.110535,349.541107,872.336182,417.094208,341.570892,859.361145,48.876205,196.182434,759.741516,78.33049,198.044128,752.449768,100.560333,199.994431,748.094543,-21.336115,149.576859,756.181458,7.072298,137.483124,750.837708,38.158367,128.522751,744.483582,3.185726,207.295731,772.243958,-10.454314,237.26445,763.0401,-43.91592,209.463104,775.740234,-107.766678,183.001572,783.871033,187.181046,980.020569,1493.992798,239.171753,974.141663,1516.254272,290.301971,986.283325,1498.592896,567.045715,-518.295654,835.207764,520.382751,-523.658813,834.306824,512.784119,-459.078308,834.640198,574.821716,-464.616516,834.368286,512.751587,-526.153625,738.001892,510.700409,-449.790955,739.816711,575.867981,-456.347809,740.341553,573.370728,-524.466309,740.515869,253.287292,13.675589,846.90155,324.423309,8.924008,847.056091,325.430939,91.622665,847.402405,256.285645,92.462456,846.257446,249.901947,6.110928,741.548706,329.589996,3.403939,741.340759,330.150269,97.184807,740.47937,251.944565,96.964745,740.081055
00173_color_1715976472.233072.png,1892,1715976472.237727,554.614136,362.466003,865.494141,609.198547,392.2966,845.320618,612.315491,343.227844,866.414185,554.94458,304.501007,860.911987,523.288513,284.502655,857.566345,488.801483,277.035095,863.578125,482.469238,344.24823,873.581848,454.393311,341.536469,865.964111,426.702393,334.142609,854.127502,48.88599,196.184418,759.758972,78.332092,198.037003,752.466125,100.563339,200.001511,748.087158,-21.355591,149.504868,756.119507,6.981968,137.482193,750.813904,38.226231,128.502213,744.480164,3.195511,207.234573,772.165894,-10.460697,237.595505,763.343262,-43.924023,209.394226,775.663513,-107.713226,182.768478,783.751282,187.214874,979.993286,1493.974487,239.169693,974.139343,1516.253296,290.296875,986.262329,1498.569214,567.099731,-517.756775,834.827698,520.566345,-523.429688,834.124817,512.801819,-459.069611,834.639954,574.835815,-464.59729,834.358337,512.744019,-526.10968,737.987061,510.69516,-449.782166,739.815308,575.87854,-456.326447,740.308899,573.387329,-524.469299,740.529297,253.31897,13.679474,846.887207,324.43103,8.93702,847.062317,325.44162,91.607986,847.400635,256.303955,92.425186,846.217712,249.913055,6.121393,741.548584,329.597748,3.423074,741.323364,330.153839,97.215752,740.49176,251.945221,96.970871,740.075439
00174_color_1715976472.268802.png,1895,1715976472.2677271,563.112732,354.269867,855.614807,617.500061,383.928986,833.711975,621.134094,334.413086,853.822083,562.383423,296.328705,849.955017,530.340393,276.808075,847.421204,495.928162,269.625092,854.320496,490.883575,337.001984,865.911621,462.659851,334.688873,859.189941,434.338409,328.172211,848.339111,48.886658,196.334259,759.851379,78.314041,198.140808,752.505798,100.534691,200.061493,748.096436,-21.338018,149.649597,756.176147,7.001926,137.598969,750.853882,38.255836,128.860016,744.829041,3.148556,207.420609,772.271423,-10.538646,237.711304,763.263733,-43.958187,209.505112,775.538818,-107.648285,182.784668,783.689514,187.198914,980.008545,1493.993042,239.167389,974.141235,1516.255127,290.312286,986.301636,1498.595825,567.34198,-517.863098,834.87854,520.571106,-523.395325,834.159973,512.781982,-458.950745,834.616333,574.910156,-464.383453,834.256531,512.736816,-526.085388,738.027893,510.70047,-449.790314,739.795593,575.863403,-456.300873,740.318481,573.382263,-524.430115,740.528442,253.283356,13.691704,846.912781,324.241211,9.622406,847.033752,325.615479,91.696495,847.476624,256.296326,92.442093,846.218506,249.906387,6.13107,741.551819,329.333679,3.742893,741.423279,330.139435,97.24482,740.480347,251.934326,96.97654,740.066772
00175_color_1715976472.303619.png,1899,1715976472.307727,574.578552,341.977295,841.868713,628.698792,371.493805,817.355103,633.090088,321.573242,836.372681,572.643677,284.258545,835.101868,540.3078,265.005524,833.432434,506.071747,257.652435,841.460144,502.351868,325.569794,854.808411,473.795074,323.905914,849.202393,445.071503,318.039978,839.44812,48.879406,196.264664,759.889526,78.299522,198.105194,752.512329,100.523674,200.040955,748.06958,-21.406279,149.410629,756.056335,7.010208,137.377899,750.788025,38.315857,128.724869,744.68988,3.258501,207.723297,772.865784,-10.52957,237.77858,763.501038,-43.895519,209.252258,775.395935,-107.384819,182.193451,783.670654,187.203918,980.000793,1493.980835,239.166077,974.132935,1516.244141,290.301758,986.298218,1498.589722,567.348328,-517.869263,834.879211,520.572937,-523.394592,834.165649,512.741211,-458.828857,834.535767,575.166809,-464.297302,834.098633,512.748657,-526.116699,738.0177,510.703796,-449.776001,739.819397,575.860657,-456.279022,740.317627,573.386292,-524.421265,740.519897,253.270508,13.694442,846.911682,324.156189,9.131343,847.256958,325.430267,91.592491,847.389526,256.288177,92.436302,846.214172,249.915146,6.135558,741.561646,329.30069,3.779691,741.430481,330.128784,97.247963,740.483154,251.934647,96.966499,740.052734
00176_color_1715976472.340750.png,1902,1715976472.337727,583.537903,331.614746,832.61438,637.311768,361.39386,805.898682,642.579468,311.139069,823.869507,580.602356,274.089478,824.626892,548.216309,255.05513,823.714661,513.97113,247.388016,832.308289,511.718567,315.852478,847.952393,482.833038,314.440369,843.268799,453.677917,309.100494,834.516113,48.920273,196.186401,759.852966,78.35495,198.048645,752.48761,100.580841,200.005051,748.032166,-21.428316,149.272888,755.906616,7.053757,137.217941,750.726746,38.459545,128.643204,744.610107,3.162703,207.481583,772.678528,-10.465652,237.929443,763.831238,-43.763752,209.049988,775.250977,-106.99057,181.692749,783.606628,187.187607,980.022095,1493.996948,239.168732,974.131897,1516.249878,290.300812,986.287231,1498.591919,567.347656,-517.897278,834.888367,520.583923,-523.408813,834.146912,512.812073,-458.920319,834.561829,575.164612,-464.312042,834.098145,512.743774,-526.122803,737.999084,510.694031,-449.773865,739.834167,575.876526,-456.339111,740.322937,573.186707,-522.491211,739.54126,253.324127,13.689096,846.852661,324.181061,9.818633,847.024475,325.600159,91.676476,847.471375,256.283722,92.442276,846.224792,249.903488,6.146666,741.543579,329.255188,3.801711,741.44165,330.138214,97.250786,740.48584,251.927017,96.970779,740.065247
00177_color_1715976472.375929.png,1906,1715976472.377727,596.594116,317.024567,822.655334,649.704346,347.437744,792.68512,656.400269,296.652313,808.926392,591.987915,259.750153,812.522827,559.05658,240.945999,811.725891,524.542053,232.92836,820.401245,525.292847,301.957428,841.163147,496.108185,301.044464,838.071899,466.525543,296.46521,830.723877,48.93132,196.422379,759.927979,78.327133,198.075684,752.402893,100.55719,200.001755,748.013184,-21.473438,149.338501,755.803772,7.041645,137.257812,750.721558,38.443005,128.706741,744.647522,3.141663,207.524719,772.464783,-10.516469,237.767929,763.435608,-43.629635,209.20665,775.052734,-106.535507,181.813171,783.829163,187.210785,980.003296,1493.976807,239.168732,974.131409,1516.246826,290.302979,986.273315,1498.580566,567.301208,-517.897034,834.872681,520.537048,-523.446899,834.143677,512.695618,-458.911255,834.56488,575.120667,-464.338623,834.121094,512.760681,-526.128418,738.002502,510.686768,-449.775055,739.807434,575.856567,-456.326141,740.347839,573.482239,-522.565186,739.369751,253.354431,13.713762,846.83252,324.156311,9.935742,847.0271,325.423309,91.606583,847.380432,256.284515,92.442726,846.206665,249.925751,6.11783,741.526428,329.22229,3.841252,741.476074,330.127563,97.248268,740.474976,251.940643,96.978432,740.062073
00178_color_1715976472.411098.png,1909,1715976472.407727,607.257202,306.154022,817.428711,660.082397,337.210419,785.179077,667.682495,286.040375,799.9245,601.514709,249.180283,805.776245,568.539185,230.333038,804.806335,534.033875,221.80368,813.705261,536.181274,291.43988,837.533569,507.025055,291.025452,835.424133,477.151215,286.58905,828.591919,48.857357,196.367783,759.791504,78.290733,198.114227,752.436279,100.532623,199.949661,747.977051,-21.567249,149.200531,755.578369,6.960197,137.076508,750.599731,38.43285,128.611526,744.571716,3.15966,207.328506,772.204102,-10.48164,237.910767,763.681152,-43.509331,209.047546,774.851318,-106.245346,181.573929,783.878296,187.221848,979.993958,1493.967529,239.177307,974.126892,1516.249878,290.300812,986.261658,1498.57251,567.295532,-517.916504,834.869202,520.439148,-523.591675,834.2453,512.792297,-459.077789,834.628174,575.113159,-464.36499,834.116882,512.763855,-526.134399,737.9823,510.713531,-449.786316,739.812073,575.866882,-456.34024,740.334045,573.36908,-524.424805,740.511475,253.324188,13.665382,846.84021,324.157379,9.939085,846.997864,325.435516,91.607918,847.385681,256.292267,92.444649,846.202881,249.917114,6.126014,741.509033,329.212646,3.827835,741.448547,330.135223,97.234688,740.470764,251.939957,96.984879,740.052307
00179_color_1715976472.445976.png,1913,1715976472.447727,623.724426,292.977417,813.019287,675.391602,323.523041,777.387512,683.187012,271.816132,791.061401,616.123901,236.362625,800.666077,582.997314,217.678543,801.776428,548.931274,209.406601,812.443787,552.814453,278.446106,836.018188,523.878784,278.763763,835.108215,493.759674,274.546509,829.250244,48.903965,196.35289,759.843262,78.385414,198.239029,752.616333,100.592674,199.985748,748.015991,-21.617567,149.158615,755.459656,6.973184,137.044525,750.609436,38.479168,128.610886,744.545715,3.12349,207.343994,772.24115,-10.49528,237.647598,763.3974,-43.418953,208.939758,774.666321,-105.87439,181.079453,783.772583,187.198502,980.00769,1493.97522,239.172562,974.131409,1516.248047,290.296387,986.245972,1498.559082,566.950378,-517.828491,834.93158,520.435181,-523.597046,834.261536,512.797546,-459.081757,834.636292,574.897827,-464.517303,834.261658,512.762085,-526.130676,737.97229,510.711182,-449.793793,739.818115,575.878052,-456.35141,740.330994,573.382874,-524.409668,740.499817,253.340637,13.674515,846.823364,324.170929,9.944179,846.993652,325.441193,91.625839,847.371826,256.310486,92.443214,846.180298,249.934418,6.136311,741.492065,329.226685,3.851372,741.448181,330.154175,97.242126,740.458252,251.959229,96.98243,740.032349
00180_color_1715976472.481324.png,1916,1715976472.477727,635.68512,283.725555,812.083923,686.927307,312.287415,774.813904,693.612488,260.784393,789.408752,625.671265,226.192169,800.394409,592.37439,209.464584,803.073975,558.296448,202.247055,814.542053,564.9375,271.496826,837.187805,535.880188,272.456818,836.690186,505.726624,268.813812,831.358704,48.978374,196.413437,759.992004,78.441093,198.268356,752.699646,100.749123,200.215027,748.311951,-21.557941,149.240509,755.546143,7.064067,137.097137,750.673523,38.605747,128.674652,744.568787,3.151841,207.413864,772.348694,-10.474642,237.712143,763.401978,-43.351025,208.994827,774.568481,-105.612259,180.818436,783.716431,187.205627,980.004028,1493.986572,239.173935,974.131653,1516.25293,290.299225,986.254822,1498.567505,567.178589,-518.015869,834.994263,520.448425,-523.600098,834.303589,512.815063,-459.074493,834.63092,574.965637,-464.50354,834.274353,512.749695,-526.112854,738.009705,510.706238,-449.797516,739.807617,575.887573,-456.341553,740.307495,573.383423,-524.422241,740.510742,253.280518,13.670561,846.882141,324.166992,9.963201,846.996948,325.44873,91.618904,847.359131,256.31366,92.46743,846.191528,249.914856,6.116044,741.502686,329.221588,3.82855,741.456543,330.153839,97.233955,740.444214,251.966888,96.986084,740.027832
00181_color_1715976472.517369.png,1920,1715976472.5177271,647.893494,272.094208,815.710693,700.487915,296.882141,777.566833,705.585022,246.220016,795.088562,636.832214,214.566986,807.250977,602.921143,198.519852,809.841492,568.562683,192.782303,821.248413,576.428406,263.227692,840.079041,547.510071,264.918182,839.003784,517.224792,261.762512,833.237671,49.109318,196.512283,760.252441,78.572166,198.361969,752.835876,100.767296,200.2556,748.246704,-21.402622,149.269409,755.560852,7.337316,137.110077,750.667358,38.930592,128.832108,744.495728,3.158771,207.487396,772.537964,-10.467942,237.702972,763.401367,-43.234074,208.926682,774.548828,-105.256042,180.305267,783.633301,187.197159,980.014221,1493.980713,239.175156,974.138672,1516.251953,290.296234,986.278564,1498.578857,567.154785,-518.007202,835.020752,520.429626,-523.604187,834.34906,512.823792,-459.034058,834.645996,574.933228,-464.506958,834.290283,512.745911,-526.116699,738.015259,510.793213,-449.914246,739.768127,575.88678,-456.330475,740.311768,573.374817,-524.429382,740.524475,253.296341,13.679319,846.867065,324.163361,9.937227,846.990417,325.451385,91.623032,847.356995,256.316101,92.439987,846.161621,249.92424,6.1138,741.490417,329.22406,3.832473,741.440369,330.1521,97.261642,740.453003,251.967453,96.990654,740.02417
00182_color_1715976472.556381.png,1924,1715976472.557727,658.783997,260.175232,824.221436,712.409241,283.587952,786.505859,716.450195,233.217163,804.879456,647.787415,203.094879,817.143555,613.515625,186.821899,819.558228,578.879028,181.504745,830.661926,587.253235,252.688828,848.128418,558.091492,254.330429,846.495422,527.900818,251.430389,840.467773,49.289341,196.694534,760.564148,78.752403,198.444809,752.98053,100.92469,200.335785,748.257446,-21.150839,149.360687,755.591125,7.702335,137.267792,750.755371,39.353359,129.147552,744.475342,3.185869,207.745544,772.948853,-10.485765,237.41684,763.097473,-43.102642,208.902237,774.529602,-104.841057,179.741699,783.585571,187.193039,980.010742,1493.985107,239.171478,974.129639,1516.250244,290.305634,986.258606,1498.563843,567.113159,-518.035706,835.054504,520.426758,-523.614075,834.354431,512.815796,-459.056396,834.641357,574.877319,-464.541687,834.340942,512.750427,-526.118164,738.014771,510.800598,-450.117035,739.562744,575.893372,-456.337708,740.316406,573.386475,-524.407471,740.511292,253.291107,13.691883,846.86853,324.165985,9.945507,846.983826,325.454407,91.61898,847.352722,256.309265,92.460899,846.185425,249.920319,6.123547,741.488647,329.233459,3.848849,741.451355,330.162659,97.256195,740.453308,251.976883,96.991669,740.023682
00183_color_1715976472.593184.png,1928,1715976472.597727,669.573853,249.86171,834.424438,723.214844,273.16687,796.784668,726.599182,222.647522,814.386597,657.455383,192.615829,825.887939,623.273865,177.043457,828.41272,588.689575,172.011871,839.555542,597.867859,242.360748,858.602051,568.898987,244.675812,857.375793,538.669312,242.035614,851.59613,49.423908,196.815399,760.733215,78.84314,198.511444,753.047791,101.025208,200.367249,748.244507,-20.999586,149.475769,755.620728,7.925567,137.312042,750.748657,39.590023,129.380997,744.477051,3.292363,207.622101,772.799866,-10.443932,237.827179,763.529114,-43.008949,208.906815,774.514526,-104.515633,179.389496,783.544434,187.198273,979.998291,1493.983887,239.169891,974.131958,1516.255005,290.311981,986.293274,1498.586426,567.065674,-518.05896,835.073669,520.406494,-523.619568,834.327087,512.798279,-459.068634,834.648071,574.81665,-464.590088,834.371765,512.746704,-526.102844,737.992371,510.725433,-449.708191,739.88385,575.883911,-456.309692,740.339722,573.394043,-524.405701,740.512695,253.308212,13.667332,846.854553,324.171906,9.95344,846.989624,325.465607,91.624344,847.35907,256.319458,92.438835,846.157898,249.93924,6.12724,741.493103,329.243439,3.849636,741.455078,330.157349,97.259224,740.455872,251.983887,96.992958,740.024719
00184_color_1715976472.631894.png,1931,1715976472.627727,676.877441,244.733017,840.477661,730.147217,268.186798,802.73645,733.467651,217.584641,819.973633,664.578491,187.657913,832.18927,630.286804,172.319443,835.038391,595.699829,167.444611,846.294617,605.505554,237.641586,865.471741,576.592651,239.972733,864.598389,546.222656,237.542755,859.165771,49.494423,196.863846,760.851135,78.878586,198.532761,753.09082,101.050728,200.382004,748.254883,-20.984333,149.473557,755.627502,8.015548,137.320724,750.747864,39.724148,129.489029,744.453979,3.317971,207.508499,772.754211,-10.371469,238.27803,764.105652,-42.948334,208.862122,774.530518,-104.277199,179.116302,783.583374,187.215759,979.991516,1493.97876,239.160095,974.131592,1516.259644,290.307861,986.291443,1498.592163,567.054138,-518.043274,835.081299,520.39386,-523.612488,834.32373,512.793274,-459.045959,834.642273,574.814514,-464.58432,834.380188,512.781921,-526.123413,737.998047,510.728363,-449.730621,739.85022,575.880371,-456.327698,740.324158,573.388062,-524.430176,740.536682,253.283768,13.692705,846.881287,324.184174,9.960199,846.986145,325.647888,91.715065,847.435608,256.320984,92.461021,846.18457,249.941345,6.130244,741.504211,329.240265,3.856575,741.439697,330.164948,97.258354,740.443176,251.976074,96.99736,740.020081
00185_color_1715976472.666773.png,1935,1715976472.667727,685.053711,241.220154,845.761414,738.749634,264.077545,807.641235,741.61615,213.438385,824.52533,672.517029,184.029327,837.202759,638.218018,168.820694,840.249023,603.679077,164.022064,851.709351,613.755188,234.103851,870.913452,584.712585,236.633301,870.142273,554.339417,234.31958,864.72699,49.55999,196.92894,760.967712,78.928787,198.556122,753.13562,101.09301,200.41423,748.256409,-20.910667,149.526794,755.625793,8.109668,137.392685,750.768005,39.868935,129.625275,744.464722,3.336683,207.535629,772.826477,-10.397574,238.055878,763.823364,-42.924957,208.876511,774.487854,-104.134895,179.015121,783.635498,187.19368,980.011658,1493.990356,239.152359,974.119873,1516.231812,290.2995,986.27301,1498.576782,567.087341,-518.022461,835.075073,520.4104,-523.601746,834.334839,512.813782,-459.050842,834.638977,574.834229,-464.552979,834.378662,513.166748,-526.594055,738.582336,510.724609,-449.744934,739.810303,575.897461,-456.328979,740.331482,573.388489,-524.429626,740.527588,253.280334,13.695917,846.888428,324.185638,9.973273,846.997131,325.639954,91.700829,847.42572,256.322205,92.464882,846.181091,249.928787,6.130619,741.509766,329.248016,3.854162,741.453308,330.1651,97.259811,740.451721,251.973328,97.004433,740.012573
00186_color_1715976472.702035.png,1938,1715976472.697727,689.976074,239.293823,847.83252,744.660522,262.296783,809.943481,747.221619,211.360931,826.355103,677.134949,182.498154,838.565552,642.79303,167.447128,841.069092,608.220032,162.646759,852.272583,618.16272,232.612778,871.974976,589.078796,235.345703,870.858032,558.899048,233.449371,865.209412,49.624458,196.929382,761.004517,78.997719,198.564651,753.152954,101.162857,200.401962,748.231262,-20.78474,149.48909,755.563782,8.240729,137.386566,750.734436,40.027313,129.692551,744.427429,3.355617,207.58725,772.947205,-10.348542,237.983063,763.755249,-42.830612,208.831833,774.475464,-103.95826,178.881317,783.683289,187.223938,979.990112,1493.980225,239.15947,974.125366,1516.257935,290.300385,986.246338,1498.572998,567.432922,-517.795898,835.081116,520.801086,-523.316833,834.513977,513.200195,-458.837463,834.657776,575.250244,-464.368378,834.155151,513.145447,-526.49408,738.669617,510.756134,-449.747559,739.828308,575.96344,-456.278656,740.130737,573.442871,-524.446777,740.516235,253.372574,13.689613,846.813416,324.197205,9.936621,846.967529,325.472748,91.607925,847.337585,256.334381,92.459572,846.183899,249.9561,6.136654,741.48407,329.266296,3.859816,741.423828,330.170868,97.251053,740.444275,251.984573,96.991333,740.019043
00187_color_1715976472.737212.png,1942,1715976472.737727,696.460083,238.00531,848.89386,751.730225,260.947327,810.472839,753.883484,209.474045,825.566162,683.223755,181.7724,839.304626,648.685608,167.104019,841.768738,614.214355,162.268021,852.965759,624.869263,232.375687,873.273682,595.842407,235.383728,871.945923,565.518555,233.930679,866.117737,49.690964,196.870529,761.074707,79.065605,198.549103,753.195679,101.224258,200.379333,748.219666,-20.757158,149.390228,755.52124,8.28903,137.304398,750.720764,40.109631,129.672684,744.379395,3.387295,207.604813,773.096497,-10.346766,237.833847,763.711304,-42.762486,208.714294,774.479858,-103.858742,178.722443,783.658569,187.21225,979.996094,1493.969238,239.156158,974.12384,1516.264771,290.306732,986.274353,1498.584106,567.209351,-518.017639,835.047241,520.488953,-522.999512,834.390686,513.717468,-458.415466,834.624573,575.609802,-464.725769,834.24646,512.91748,-525.753052,738.55542,511.414825,-449.099091,739.817139,576.592712,-456.570343,740.170471,573.261658,-524.524597,740.476379,253.352081,13.694684,846.821594,324.195679,9.935295,846.981689,325.661194,91.695015,847.418213,256.33432,92.458832,846.182007,249.969513,6.113439,741.481689,329.256531,3.852683,741.419189,330.181763,97.237801,740.435791,251.979477,96.988594,740.008728
00188_color_1715976472.772267.png,1945,1715976472.7677271,702.284424,237.504776,848.86615,757.002441,259.532532,809.483826,759.077515,208.421127,824.744934,688.263123,181.214249,839.635986,653.616821,166.732925,842.732422,619.285339,162.497162,854.820007,631.048401,231.990295,874.691223,601.943115,235.361649,873.762024,571.558716,234.251373,868.544067,49.782719,196.927353,761.134644,79.147346,198.559494,753.197632,101.2761,200.399796,748.213257,-20.709595,149.447937,755.559143,8.326097,137.329208,750.736267,40.152454,129.691681,744.364624,3.443281,207.556641,773.012573,-10.264538,237.711685,763.496643,-42.738064,208.770737,774.47168,-103.826981,178.811752,783.679443,187.212845,980.004883,1493.973267,239.163254,974.124146,1516.260132,290.304413,986.274536,1498.577393,567.101624,-518.046265,835.020203,520.298706,-522.459045,834.364319,514.479431,-457.728455,834.62561,576.271667,-465.001587,834.205627,512.769043,-525.000488,738.480103,512.23877,-448.101379,740.013977,577.306702,-456.71814,740.200562,573.145752,-524.57782,740.438293,253.352524,13.671133,846.822266,324.204803,9.918406,846.971558,325.474365,91.622643,847.334595,256.350403,92.457184,846.167725,249.967926,6.130233,741.474792,329.266022,3.83833,741.420105,330.185364,97.253601,740.439575,251.986328,96.984146,740.005737
00189_color_1715976472.807727.png,1949,1715976472.807727,709.559021,234.783096,849.100891,764.216675,256.585388,808.541687,765.653687,204.66452,823.498596,694.845886,179.040161,839.795532,659.912415,165.170792,843.413574,625.763916,161.356186,855.870728,638.545166,230.384888,875.800476,609.521851,234.141693,875.058899,579.092468,233.193314,869.87207,49.932121,196.93222,761.189575,79.285332,198.566025,753.24115,101.449669,200.366745,748.19397,-20.580355,149.461609,755.588013,8.479451,137.300735,750.713806,40.335316,129.712265,744.348083,3.580404,207.562729,773.072571,-10.126687,237.693466,763.506958,-42.617748,208.737747,774.450378,-103.748116,178.868759,783.609497,187.231339,979.984314,1493.963867,239.163467,974.12262,1516.26062,290.299835,986.230103,1498.544678,566.143494,-518.33136,835.212646,519.369324,-522.447388,834.268188,513.71582,-457.855804,834.558838,575.508118,-465.191803,834.634949,512.478088,-524.893494,738.252136,512.171448,-448.079926,739.948242,577.214172,-456.903229,740.532288,572.83429,-524.560425,740.600647,253.344482,13.664666,846.83374,324.198761,9.937223,846.970459,325.476837,91.617073,847.3479,256.343292,92.426445,846.142883,249.973877,6.112123,741.464966,329.267395,3.838073,741.426208,330.186768,97.243019,740.440857,251.997314,96.984573,740.006897
00190_color_1715976472.849171.png,1953,1715976472.847727,716.428284,232.021851,849.693726,771.575623,252.907806,808.549866,772.948242,201.084991,824.111206,701.592651,176.200394,841.144165,666.549683,162.165787,844.61792,632.429749,158.848373,857.262451,644.850586,227.895935,875.576721,615.959961,231.616547,874.348938,585.53186,230.543015,868.692871,49.980488,196.939194,761.257812,79.305748,198.566116,753.268311,101.465469,200.384277,748.200317,-20.561127,149.45137,755.625,8.469116,137.326477,750.763733,40.338322,129.715073,744.347473,3.577285,207.468765,772.977478,-10.108928,237.97905,763.835999,-42.654514,208.800568,774.453552,-103.843048,179.053574,783.549255,187.225845,979.981873,1493.957275,239.166473,974.125854,1516.257202,290.306732,986.267212,1498.566772,563.928528,-518.410828,835.131958,517.042542,-522.740967,834.226562,511.235413,-457.97818,834.61792,573.083496,-465.2789,834.489441,509.919464,-524.965027,738.044495,509.671204,-448.483795,739.815979,574.59082,-456.769318,740.52533,570.471252,-524.973877,740.70105,253.320633,13.680898,846.856873,324.190277,9.950652,846.966492,325.477844,91.60714,847.348389,256.33847,92.459343,846.162598,249.96051,6.094717,741.457458,329.26886,3.851979,741.419678,330.188171,97.252312,740.44043,252.00322,96.995193,740.013367
00191_color_1715976472.884840.png,1957,1715976472.887727,723.057007,228.435074,851.269897,778.792542,248.665283,809.777527,780.346802,197.088272,826.088318,708.671631,172.24765,843.462708,673.753479,158.307922,846.979248,639.416382,154.886398,859.325439,651.214294,224.349319,876.09613,622.277771,227.675858,874.698975,591.956482,226.120819,868.505188,49.993771,196.882431,761.298218,79.330986,198.531479,753.283997,101.474869,200.362579,748.212341,-20.60578,149.396378,755.640198,8.459579,137.240738,750.741333,40.320934,129.654236,744.329041,3.605644,207.546341,773.160645,-10.1222,237.900406,763.823669,-42.647552,208.772903,774.459412,-103.980049,179.254089,783.503296,187.217346,979.99353,1493.969971,239.167313,974.131042,1516.259521,290.306,986.271606,1498.579102,559.851746,-518.32074,835.081604,513.056763,-522.881836,834.211975,506.869202,-458.098938,834.636108,568.797729,-465.088745,834.504639,505.835602,-524.908691,737.852112,505.261017,-448.789734,739.657898,570.272522,-456.728729,740.447083,566.395386,-524.875854,740.57959,253.314377,13.675122,846.860413,324.210388,9.93716,846.994995,325.475464,91.605865,847.337219,256.34201,92.439545,846.149231,249.947342,6.115667,741.480225,329.254608,3.825722,741.446594,330.18335,97.242027,740.438477,251.990799,96.986244,740.014893
00192_color_1715976472.920316.png,1960,1715976472.917727,727.775696,225.474335,853.437012,783.552673,245.400681,811.906616,785.631165,194.403946,828.25354,713.663757,168.747192,845.589233,678.695435,154.446579,848.666138,644.347961,150.877258,860.751587,655.575806,220.340149,877.650391,626.648621,223.317368,875.925964,596.376282,221.442688,869.407532,49.98304,196.89357,761.307739,79.304802,198.541611,753.300354,101.465439,200.377655,748.210266,-20.621769,149.441605,755.707764,8.449193,137.286041,750.777222,40.300632,129.707321,744.361328,3.550224,207.515579,773.059082,-10.128179,237.905121,763.750732,-42.709846,208.909454,774.472412,-104.153419,179.606903,783.497253,187.204681,980.002808,1493.969482,239.159943,974.134949,1516.25769,290.298157,986.269775,1498.568237,556.279053,-518.080444,835.029846,509.544861,-523.147644,834.108887,502.706635,-458.454132,834.598328,564.479614,-464.22226,834.409607,502.174316,-525.22583,737.738525,500.999207,-449.233704,739.586304,566.091614,-456.449554,740.414307,562.89679,-524.534363,740.484863,253.281113,13.688402,846.888855,324.187988,9.949736,846.981079,325.661896,91.700203,847.417358,256.328918,92.471748,846.173706,249.934784,6.143257,741.506897,329.25296,3.835199,741.442627,330.169678,97.255966,740.43512,251.987778,96.981377,740.008301
00193_color_1715976472.955854.png,1964,1715976472.957727,732.719299,220.218216,857.125793,788.772827,241.566223,815.568542,791.416626,189.929123,831.630188,719.661194,163.801758,848.769348,684.792236,149.082962,851.580444,650.408142,144.961472,863.492676,660.628174,214.309097,880.958008,631.643982,216.853561,879.159119,601.483032,214.507736,872.481079,49.993378,196.836151,761.343384,79.32756,198.53392,753.316528,101.487671,200.361038,748.219788,-20.610655,149.388901,755.728394,8.43048,137.267609,750.787964,40.301243,129.666016,744.355469,3.589637,207.46022,773.060547,-10.144002,237.75444,763.642761,-42.718964,208.906952,774.506958,-104.299263,179.901489,783.450623,187.183853,980.014771,1493.984497,239.158463,974.135071,1516.260864,290.302002,986.283325,1498.576416,549.134216,-517.644287,835.074097,502.419403,-523.248657,834.062988,494.731415,-458.732727,834.544434,556.778564,-464.112,834.447632,495.211212,-525.712463,737.834534,493.145599,-449.524994,739.468384,557.737671,-455.046204,740.683716,555.995667,-523.832947,740.40387,253.293457,13.681677,846.887024,324.180328,9.946316,846.985168,325.659912,91.703789,847.425842,256.334167,92.481224,846.190063,249.947632,6.122911,741.503723,329.240082,3.852849,741.447083,330.167389,97.25219,740.453308,251.986298,96.997421,740.015747
00194_color_1715976472.990993.png,1967,1715976472.987727,735.962585,217.373566,859.575073,791.850769,239.107468,818.284851,795.168762,187.604645,833.613403,723.45343,160.38208,851.099304,688.729187,145.317398,854.059937,654.445007,140.987289,866.055725,664.488708,210.428528,884.46814,635.394592,212.847031,883.364136,605.149292,210.676056,877.753784,50.001221,196.829315,761.402283,79.301056,198.487625,753.322327,101.459175,200.336716,748.241577,-20.619383,149.374908,755.768066,8.415592,137.240433,750.774597,40.255318,129.663986,744.367249,3.504426,207.739258,773.427551,-10.220292,237.392578,763.290283,-42.808407,208.969482,774.503784,-104.509026,180.188782,783.332458,187.215195,979.985413,1493.980713,239.154739,974.128967,1516.265869,290.29245,986.236694,1498.547363,542.325684,-517.355347,835.002075,495.694061,-523.142029,834.027344,487.747375,-458.648041,834.533081,549.762207,-463.971466,834.389404,488.460938,-525.637939,737.604248,486.020935,-449.541229,739.456177,551.097534,-455.389221,740.434937,549.188843,-523.506958,740.418945,253.317184,13.687015,846.866394,324.108521,9.446253,847.181152,325.644012,91.707687,847.446045,256.314667,92.473541,846.189636,249.950912,6.137543,741.500244,329.270447,3.857637,741.46228,330.154236,97.257751,740.452576,251.972351,96.990814,740.02887
00195_color_1715976473.026034.png,1971,1715976473.0277271,739.360474,213.500259,863.095276,794.88501,236.200867,821.36676,798.9328,184.984741,836.974426,727.512329,156.579163,854.137512,693.077515,141.032394,857.14563,658.855957,136.10582,869.293152,668.60553,205.567871,888.642273,639.486206,208.005096,888.286194,609.113403,205.643265,883.379395,50.015656,196.877045,761.48938,79.320053,198.508194,753.357056,101.463997,200.348679,748.253357,-20.612417,149.469238,755.91803,8.420777,137.303894,750.832947,40.260914,129.692627,744.403503,3.506784,207.685226,773.350281,-10.219643,237.414825,763.248413,-42.87281,209.121674,774.543579,-104.727638,180.577194,783.240417,187.186325,980.013184,1493.977661,239.159225,974.115234,1516.230347,290.301117,986.243225,1498.55542,531.386719,-517.059448,834.853577,484.724487,-522.59375,833.689453,476.908936,-458.386932,834.421021,538.923889,-463.662811,834.358948,477.506653,-525.379333,737.591125,475.274261,-449.093628,739.389526,540.312683,-455.173279,740.228577,537.930237,-523.083008,740.272034,253.316879,13.690436,846.868103,324.170105,9.948668,846.99823,325.637604,91.693283,847.437988,256.323425,92.462227,846.196167,249.936737,6.138159,741.514709,329.240936,3.856775,741.463196,330.149017,97.242516,740.457092,251.969666,96.991119,740.031799
00196_color_1715976473.061086.png,1974,1715976473.057727,741.584106,210.905594,864.887329,796.578918,233.984787,822.863892,801.235168,182.781845,838.251587,729.823608,153.567871,855.566772,695.506653,138.08168,858.928406,661.426514,132.907578,871.251099,670.991943,202.451447,890.902222,641.816467,204.594711,890.595276,611.38739,202.043091,885.909241,50.01292,196.77626,761.480042,79.312256,198.449814,753.357605,101.460648,200.31311,748.261658,-20.628092,149.356186,755.868896,8.42701,137.226685,750.788086,40.243603,129.649704,744.371216,3.543015,207.554749,773.248596,-10.169277,237.579636,763.469971,-42.920662,209.060776,774.540283,-104.926346,180.730667,783.082947,187.227798,979.990234,1493.956421,239.165039,974.123962,1516.256348,290.29364,986.238464,1498.560669,521.400879,-517.126404,834.762451,474.701721,-522.447571,833.795959,467.545319,-457.956696,834.306213,529.493286,-463.916931,834.285278,467.450012,-524.772766,737.344727,465.966705,-448.652588,739.313293,530.972717,-455.427826,740.164062,528.15918,-523.435852,740.148987,253.376953,13.700893,846.812378,324.164307,9.91647,846.993652,325.457153,91.598137,847.373413,256.315704,92.454323,846.207092,249.930542,6.117637,741.487549,329.233673,3.832923,741.450989,330.153229,97.234169,740.457397,251.963318,96.963203,740.032837
00197_color_1715976473.096022.png,1978,1715976473.097727,743.531128,207.297333,865.893005,798.21936,230.75592,823.51593,803.221741,179.833954,839.180725,732.249207,150.157898,856.81134,698.161194,134.431274,860.655579,664.078552,129.020859,873.132629,673.0896,198.380051,892.169922,644.034546,200.373871,892.097412,613.649719,197.543579,887.451111,49.967052,196.792389,761.514648,79.285919,198.433731,753.360962,101.423706,200.328857,748.289612,-20.62253,149.412338,755.952637,8.397248,137.315262,750.855835,40.219761,129.714523,744.429688,3.506778,207.558701,773.208069,-10.151301,237.878021,763.743958,-43.045498,209.18576,774.601685,-105.25148,181.307007,782.982178,187.230713,979.991333,1493.953979,239.167801,974.126221,1516.247314,290.291565,986.210938,1498.540649,506.129333,-517.410645,834.705933,459.311829,-522.011841,833.604614,453.33075,-457.321747,834.190186,515.152832,-464.341003,834.125732,452.046478,-524.025757,737.161255,451.913818,-447.789734,739.318787,516.751648,-455.69754,740.155396,512.776184,-523.822449,739.999573,253.388351,13.685732,846.798401,324.171112,9.921377,846.99884,325.454681,91.607994,847.383545,256.312286,92.443344,846.186707,249.944565,6.108781,741.501099,329.233826,3.8202,741.455566,330.157745,97.248589,740.463623,251.959808,96.971405,740.039001
00198_color_1715976473.130872.png,1981,1715976473.127727,744.302673,204.629318,865.812256,798.866028,227.883987,822.994751,804.405762,177.074722,839.010132,733.378723,147.206879,856.901978,699.232727,131.276474,861.001892,665.25885,125.912964,873.518921,673.744934,195.2435,891.938843,644.708008,197.11203,891.698975,614.310608,194.009354,886.955139,49.964336,196.63623,761.495361,79.276833,198.36261,753.366211,101.491974,200.393311,748.483032,-20.662958,149.220764,755.941528,8.379256,137.15387,750.772705,40.209824,129.598129,744.344177,3.547554,207.569809,773.379272,-10.118719,237.705154,763.755798,-43.065151,209.022461,774.68158,-105.471931,181.429718,782.88385,185.969116,980.343689,1492.245483,239.172119,974.130798,1516.257935,290.307373,986.253113,1498.557617,493.635712,-517.632507,834.51178,446.729218,-521.804871,833.369751,441.487091,-456.876831,834.069824,503.25824,-464.453522,833.987671,439.550415,-523.615967,736.960449,440.007446,-447.4375,739.226929,504.851166,-455.985992,739.912476,500.307251,-524.010254,739.829407,253.339081,13.674618,846.846802,324.165771,9.905245,847.00293,325.445068,91.593559,847.375488,256.315247,92.454842,846.206909,249.916428,6.102284,741.501892,329.229584,3.809695,741.461426,330.153381,97.235199,740.469971,251.965012,96.96804,740.047424
00199_color_1715976473.165656.png,1985,1715976473.167727,744.292419,200.030869,864.753418,798.867737,223.760178,822.368103,804.838867,172.732376,838.396606,733.913452,142.322495,856.181702,699.923218,126.287666,860.109924,665.919556,120.889305,872.64093,673.669128,190.395203,890.462097,644.567993,191.749435,889.794861,614.279846,188.299194,884.744934,49.702663,196.331909,761.476013,79.120628,198.158905,753.370117,101.274879,200.007812,748.244324,-20.839474,148.992188,755.819092,8.219409,137.04454,750.713989,40.045502,129.524231,744.312561,3.360439,207.399445,773.456543,-10.229392,237.360199,763.663208,-43.266243,208.882904,774.771179,-106.001205,181.939178,782.764587,185.999115,980.272644,1492.259766,239.172638,974.109985,1516.213745,290.30545,986.269775,1498.57251,476.154785,-517.091125,834.363708,429.257568,-521.361145,833.23584,423.729858,-456.635925,833.807373,485.552307,-463.982086,833.774536,422.081696,-523.469177,736.807739,422.357269,-447.270569,738.913513,487.152069,-455.438263,739.757202,482.850677,-523.49408,739.711609,253.314728,13.675083,846.842346,324.152863,9.908825,846.995789,325.440918,91.59166,847.36853,256.312256,92.435966,846.192688,249.904846,6.132632,741.519226,329.225006,3.819005,741.445984,330.142029,97.241547,740.471008,251.947128,96.964493,740.052734
00200_color_1715976473.200856.png,1988,1715976473.197727,743.94342,195.8564,863.811707,798.536865,219.726212,821.353699,804.877625,168.881195,837.740295,733.888855,138.111633,855.416382,700.002625,121.968704,859.375977,665.94458,116.311195,871.678101,673.140198,185.876663,889.22467,644.065979,187.081406,888.402832,613.874573,183.33046,883.125,49.457947,196.237717,761.583191,78.954559,198.098465,753.53186,100.992699,199.793365,748.180847,-21.008774,149.10405,755.969727,8.047878,137.161133,750.794067,39.860332,129.692474,744.370117,3.191376,207.379105,773.426392,-10.378119,237.53479,763.813843,-43.577335,209.170456,774.913391,-106.481651,182.601532,782.823608,185.962708,980.374939,1492.272339,239.173203,974.13269,1516.259399,290.30661,986.286499,1498.583984,461.897736,-516.553406,834.247253,414.991974,-520.799988,833.104248,409.519836,-455.969086,833.706116,471.319061,-463.376038,833.645325,407.790405,-522.769348,736.690125,408.36673,-446.617737,738.892883,472.874725,-454.975128,739.544312,468.619598,-522.876282,739.559814,253.286896,13.693477,846.893616,324.159119,9.939677,847.01532,325.632507,91.701477,847.46637,256.296692,92.463486,846.214172,249.915848,6.137526,741.541565,329.21994,3.823272,741.474243,330.136749,97.245064,740.476807,251.950058,96.977257,740.049072
00201_color_1715976473.236198.png,1992,1715976473.237727,742.796265,190.019501,862.814453,797.380005,214.097305,820.285645,804.13739,163.843842,837.527893,733.726501,132.132797,855.213135,699.871033,115.398712,858.749695,665.852905,109.518661,870.963745,671.820129,179.065277,887.738098,642.709473,179.726151,886.526062,612.669983,175.458115,880.833069,49.197742,196.044952,761.642273,78.635384,197.697113,753.32843,100.727104,199.515396,748.169373,-21.178652,149.032028,755.982544,7.850728,137.185028,750.801941,39.656796,129.756561,744.368225,2.964272,207.391602,773.613403,-10.557843,237.401917,763.814209,-43.815838,209.170135,775.013428,-107.021538,183.165741,782.839478,185.969345,980.351501,1492.297729,239.167953,974.136292,1516.257324,290.30542,986.286072,1498.584473,441.789276,-515.599915,834.028931,395.024841,-519.928162,832.912659,389.437653,-455.108643,833.478394,451.17334,-462.41864,833.441895,387.839874,-522.19635,736.595459,388.070526,-445.596558,738.676514,453.105286,-454.085541,739.395691,448.505859,-521.909729,739.298767,253.282135,13.685837,846.903992,324.161865,9.927242,847.020386,325.442841,91.605003,847.376953,256.30426,92.470993,846.22583,249.908005,6.14433,741.546204,329.22226,3.830432,741.479431,330.138397,97.248947,740.473999,251.94693,96.975594,740.053101
00202_color_1715976473.271492.png,1995,1715976473.2677271,741.485718,185.233902,862.209106,795.936646,209.88829,819.995178,803.171143,159.539734,837.066833,733.041016,127.360222,854.745239,699.243225,110.352806,858.119812,665.220642,104.149796,870.239014,670.437439,173.57901,886.781616,641.362122,174.020813,885.410706,611.340454,169.285919,879.438965,48.88979,195.832428,761.734741,78.253471,197.292374,753.327026,100.399414,199.110764,748.147095,-21.438438,149.00972,756.039368,7.558483,137.156082,750.792542,39.336773,129.791702,744.355896,2.693854,207.2603,773.641174,-10.737747,237.626831,764.240295,-44.086823,209.181824,775.072571,-107.475197,183.566376,782.769592,185.964249,980.441345,1492.25647,239.181,974.124451,1516.248779,290.297485,986.261414,1498.575806,426.150452,-514.804321,833.884399,379.339233,-519.305603,832.78009,373.443817,-454.466125,833.321899,435.21051,-461.64444,833.364258,372.13385,-521.418091,736.483643,372.095184,-445.09726,738.447266,437.118896,-453.3526,739.219177,432.924133,-521.099915,739.150085,253.33374,13.69159,846.856445,324.163879,9.903993,847.020508,325.449921,91.595314,847.401367,256.294006,92.454697,846.233032,249.925339,6.126031,741.534851,329.223969,3.832644,741.479492,330.146088,97.251396,740.49762,251.95372,96.978493,740.061096
00203_color_1715976473.306309.png,1999,1715976473.307727,739.142151,178.722015,861.211426,793.492615,204.109375,819.16748,801.15979,153.680115,836.016235,731.227844,120.74292,853.603149,697.550598,103.39061,856.699036,663.554321,96.797264,868.664368,668.046143,166.368576,885.627197,639.018494,166.279953,884.043945,609.105957,161.095795,877.789795,48.427765,195.599365,761.717529,77.779442,196.936844,753.403381,99.900368,198.587006,748.149963,-21.803619,149.133499,756.221802,7.064165,137.354492,750.891724,38.869991,129.921066,744.365967,2.15714,207.348434,773.75061,-11.065321,237.716309,764.234375,-44.43602,209.452789,775.166992,-108.290413,184.520599,782.749573,185.954956,980.333557,1492.256836,239.171082,974.123657,1516.25,290.298431,986.236206,1498.55896,405.279541,-513.914551,833.722107,358.462067,-518.012085,832.507629,353.034027,-453.392914,833.058105,414.756439,-460.896729,833.176636,351.468506,-520.155579,736.048157,351.821442,-443.855164,738.198608,416.954681,-452.320312,739.180481,412.212372,-520.297668,738.990723,253.380478,13.680901,846.827515,324.16803,9.903476,847.043335,325.440857,91.592369,847.398499,256.297546,92.428337,846.21167,249.914566,6.125204,741.525818,329.216217,3.839478,741.472534,330.138794,97.2332,740.492249,251.943588,96.972351,740.073364
00204_color_1715976473.341668.png,2002,1715976473.337727,736.981628,174.373917,860.195068,791.037048,200.029831,818.051758,799.141968,149.949036,835.382385,729.572021,116.317085,852.623596,696.051575,98.78244,855.907349,662.040222,91.855782,867.698914,665.944885,161.49472,884.558899,636.934753,160.958801,882.801208,607.077393,155.746124,876.712769,48.116657,195.451904,761.683777,77.409019,196.653229,753.375244,99.592628,198.304504,748.149048,-22.040751,149.284409,756.341248,6.818262,137.496429,750.91394,38.58477,130.072311,744.404053,1.874761,207.406586,773.801086,-11.261228,237.744202,764.221191,-44.718861,209.658432,775.270325,-108.778252,184.99971,782.680969,185.983276,980.364014,1492.268188,239.177139,974.129517,1516.249756,290.300934,986.259766,1498.574463,389.004822,-513.264343,833.503845,342.176453,-516.996521,832.35144,337.371826,-452.178497,832.844116,398.953491,-460.31424,833.05249,335.293396,-519.030579,735.829285,336.569794,-442.636108,738.092285,401.01889,-451.957489,738.882202,395.909058,-519.693848,738.809265,253.351593,13.679483,846.835571,324.164032,9.910715,847.025574,325.439636,91.6036,847.395264,256.304749,92.444473,846.218811,249.918198,6.116217,741.520203,329.230347,3.842128,741.472046,330.143372,97.249611,740.496582,251.951035,96.97258,740.065857
00205_color_1715976473.376473.png,2006,1715976473.377727,733.552307,169.024338,858.137878,787.541565,195.077393,816.334595,796.038696,145.135666,833.924622,726.759705,111.31958,851.009094,693.123413,92.989288,853.614136,659.114197,86.01519,865.354065,662.615112,155.784103,882.126709,633.405945,154.685532,880.078796,603.662659,149.057373,873.644287,47.572895,195.259995,761.663391,76.926979,196.386917,753.431702,99.086472,197.910309,748.085999,-22.436232,149.569458,756.50769,6.441242,137.713654,750.998657,38.23296,130.221756,744.386475,1.457378,207.590866,773.90625,-11.589697,237.879425,764.21814,-45.176464,210.000015,775.439575,-109.417488,185.596375,782.757935,185.976624,980.275696,1492.256104,239.183044,974.127502,1516.24646,290.303925,986.23584,1498.558472,369.940369,-512.311768,833.268005,323.173553,-515.707703,832.062256,318.548218,-450.927124,832.668335,380.211487,-459.382507,832.787842,316.084045,-517.645752,735.546692,317.52533,-441.186249,738.00293,382.527863,-450.845032,738.756958,376.809265,-518.562195,738.576477,253.357376,13.665249,846.831787,324.161835,9.912758,847.017639,325.439697,91.608421,847.410156,256.304626,92.43924,846.207886,249.917419,6.116877,741.515564,329.232269,3.833965,741.478943,330.148315,97.228859,740.487,251.955353,96.977348,740.072876
00206_color_1715976473.411442.png,2009,1715976473.407727,730.681152,165.28363,856.12738,784.783691,191.409622,814.453247,793.439697,141.36084,831.999146,724.162598,107.367676,849.022461,690.638062,89.111542,851.539734,656.562073,81.907608,862.973389,659.615112,151.709915,879.638,630.35614,150.301147,877.336121,600.782471,144.378448,870.619446,47.230659,195.209686,761.65448,76.621338,196.262711,753.466614,98.809731,197.755127,748.129456,-22.751842,149.79805,756.708496,6.112033,137.956879,751.122375,37.774757,130.374008,744.344299,1.196279,207.732773,773.962891,-11.780771,238.025909,764.231628,-45.52607,210.321045,775.614563,-109.893661,186.064316,782.815369,185.967621,980.311096,1492.302368,239.176041,974.125427,1516.244751,290.30661,986.274231,1498.572266,356.808533,-511.145782,833.133789,310.050537,-514.936707,831.881714,305.138275,-450.147095,832.441223,366.830475,-458.180542,832.675537,303.19519,-517.024292,735.43988,304.175629,-440.331787,737.711548,368.877716,-449.624603,738.63092,363.901886,-517.55896,738.411377,253.286041,13.684413,846.909851,324.169189,9.935057,847.036377,325.447754,91.606697,847.405701,256.309784,92.455414,846.226868,249.900452,6.130836,741.549927,329.207733,3.822941,741.494507,330.13678,97.245468,740.489685,251.952118,96.980049,740.068237
00207_color_1715976473.446577.png,2013,1715976473.447727,726.830505,160.397964,852.751221,781.026123,186.714371,811.585815,789.822205,137.034973,829.784058,720.764282,102.611626,846.177429,687.165405,84.054749,848.434692,653.025818,76.87706,859.59137,655.690796,146.683273,875.967346,626.514038,145.154419,873.442627,596.975098,138.989029,866.569336,46.85202,195.120239,761.685242,76.228409,196.022354,753.418701,98.390434,197.409302,748.083313,-23.125492,149.827637,756.791138,5.754893,137.957123,751.114563,37.410099,130.39003,744.268494,1.049092,207.705276,774.07251,-12.069212,237.979584,764.277344,-45.901714,210.390121,775.791504,-110.366791,186.165588,782.802612,185.962479,980.313782,1492.288696,239.172913,974.132202,1516.248047,290.299622,986.249756,1498.552124,342.840576,-509.596527,833.03009,296.167328,-513.918274,831.725098,290.349976,-449.255859,832.203491,352.165863,-456.568481,832.433472,289.330811,-516.292053,735.308594,289.403931,-439.672241,737.430298,354.467712,-448.020386,738.457092,350.07962,-515.995239,738.303711,253.284012,13.673671,846.893982,324.15036,9.932924,847.020813,325.443665,91.619255,847.411804,256.298553,92.442368,846.215332,249.903397,6.127331,741.534912,329.2052,3.821944,741.496582,330.130066,97.258141,740.495056,251.944122,96.978401,740.073792
00208_color_1715976473.481808.png,2016,1715976473.477727,723.832214,156.746536,850.058105,778.366516,183.046402,809.212646,786.935913,133.126053,827.36853,717.937744,98.937584,843.591187,684.361206,80.320885,845.665649,650.14447,73.025871,856.5979,652.530701,143.016434,872.715271,623.323181,141.262787,869.833313,593.8703,135.149902,862.793945,46.688946,195.020905,761.723267,76.080544,195.90506,753.442932,98.241089,197.272308,748.084656,-23.297501,149.752762,756.824219,5.621881,137.92659,751.114014,37.259487,130.374344,744.215576,0.875621,207.546997,773.990601,-12.190756,237.861526,764.312988,-46.035805,210.322906,775.933838,-110.589638,186.146393,782.813538,185.981934,980.230896,1492.306274,239.172638,974.137451,1516.250732,290.30481,986.275696,1498.581421,334.671875,-508.5448,832.835632,287.959412,-513.267456,831.639587,281.660828,-448.547913,832.099243,343.474457,-455.467529,832.395447,281.240204,-515.828308,735.253113,280.635986,-439.167572,737.313171,345.885681,-446.853088,738.356323,342.008148,-514.951294,738.252441,253.311127,13.693523,846.892151,324.166992,9.913771,847.055176,325.438873,91.613441,847.411987,256.307495,92.463379,846.240051,249.903137,6.129786,741.55835,329.203918,3.838645,741.501099,330.136688,97.246147,740.491516,251.956284,96.984238,740.071106
00209_color_1715976473.516688.png,2020,1715976473.5177271,719.634094,151.830765,846.216919,774.35675,178.092087,805.805542,783.0672,128.487579,824.614075,714.019226,93.895386,840.072876,680.339172,75.218704,841.616333,646.052734,67.954887,852.161865,648.111084,138.04718,867.983093,618.93158,136.382065,864.877075,589.604492,129.967194,857.360046,46.577496,194.950272,761.684448,75.974739,195.829361,753.41272,98.128853,197.210602,748.079956,-23.428926,149.777527,756.901184,5.592174,137.881699,751.129761,37.123192,130.376694,744.200439,0.742667,207.434021,773.842224,-12.248651,237.861176,764.308472,-46.120522,210.377365,776.013,-110.759926,186.317688,782.833496,185.967514,980.307495,1492.311279,239.176071,974.129822,1516.248047,290.308197,986.281311,1498.578979,327.376526,-507.340546,832.856079,280.700867,-512.509521,831.485962,273.699036,-447.924225,831.949097,335.527679,-454.018982,832.379211,274.087524,-515.16864,735.025696,272.883331,-438.603973,737.022522,338.048889,-445.486237,738.374512,335.04364,-513.562927,738.231384,253.301498,13.692506,846.900635,324.155121,9.940516,847.034241,325.444244,91.608681,847.405579,256.299927,92.441826,846.216675,249.908142,6.154413,741.559875,329.213745,3.840534,741.498962,330.138458,97.251366,740.507263,251.944778,96.960197,740.061401
00210_color_1715976473.551399.png,2023,1715976473.547727,716.696228,148.290619,843.193665,771.414368,174.468521,803.073242,780.106506,124.756287,821.863708,711.11554,90.323792,837.345154,677.562256,71.657867,838.912476,643.132874,64.319946,849.212952,645.104187,134.614594,864.828064,615.94989,132.794937,861.517883,586.596252,126.296547,853.965088,46.579517,194.958649,761.667603,75.952637,195.779144,753.395996,98.114502,197.194122,748.084961,-23.422483,149.807755,756.915955,5.548412,137.848816,751.064392,37.089165,130.367935,744.198853,0.734445,207.387283,773.755188,-12.235469,237.885818,764.324219,-46.123352,210.427109,776.040527,-110.807846,186.421127,782.822327,185.945892,980.354431,1492.273193,239.173019,974.12793,1516.255859,290.301331,986.26947,1498.57959,324.392853,-506.721497,832.831848,277.753632,-512.136353,831.41449,270.509308,-447.542816,831.887024,332.361145,-453.409149,832.391174,271.1521,-514.800659,734.971313,269.69696,-438.094482,737.029236,334.980164,-444.805939,738.350708,332.193878,-512.919434,738.24469,253.357285,13.678647,846.839355,324.169678,9.905608,847.023315,325.451874,91.597282,847.408386,256.301239,92.447548,846.235413,249.923645,6.111333,741.536804,329.227936,3.846389,741.48645,330.144958,97.24369,740.504761,251.945435,96.97393,740.073914
00211_color_1715976473.587387.png,2027,1715976473.587727,712.610535,143.781158,838.969604,767.328064,169.922852,799.142395,776.064941,120.551842,818.517578,707.07428,85.727814,833.34082,673.520142,67.118919,834.877136,639.010254,59.875931,845.034363,640.921631,130.198257,860.425232,611.834595,128.299088,856.900757,582.487976,121.802444,849.220215,46.562439,194.950531,761.640503,75.941193,195.777145,753.38739,98.103973,197.170425,748.083496,-23.485615,149.8564,756.930298,5.520953,137.856552,751.060425,37.052624,130.383972,744.198486,0.739334,207.355545,773.701294,-12.230734,237.891418,764.309143,-46.155212,210.512161,776.090332,-110.84684,186.524994,782.844299,185.965347,980.390564,1492.255005,239.175537,974.125183,1516.251953,290.307404,986.273254,1498.577148,323.503265,-506.501068,832.74353,276.838013,-511.626953,831.457336,269.799591,-447.063812,831.909363,331.725647,-453.143127,832.261047,270.074249,-514.411804,735.096619,268.991028,-437.711029,737.18866,334.010071,-444.600403,738.235168,331.139923,-512.670715,738.131897,253.369415,13.685745,846.848816,324.168488,9.911036,847.022339,325.456268,91.602791,847.415771,256.309814,92.437309,846.231628,249.927902,6.135566,741.541138,329.226196,3.833717,741.488098,330.151245,97.246803,740.49884,251.962723,96.978218,740.078735
00212_color_1715976473.621634.png,2030,1715976473.617727,709.239502,140.495926,835.626343,763.923035,166.853943,796.222351,772.670654,117.341339,815.564575,703.72052,82.466553,830.076721,670.030029,63.804394,831.386292,635.510071,56.669815,841.412781,637.502625,126.95575,856.683228,608.383118,125.040993,852.971008,579.176697,118.547729,845.185547,46.512848,194.933884,761.638855,75.926247,195.767838,753.380066,98.081375,197.135223,748.069641,-23.504423,149.846924,756.95166,5.555834,137.856735,751.106079,37.011505,130.385101,744.193726,0.750899,207.417877,773.752014,-12.249946,237.903778,764.311096,-46.180908,210.537872,776.105225,-110.901405,186.585129,782.829285,185.979309,980.289124,1492.254272,239.175858,974.125916,1516.244019,290.304932,986.260742,1498.563721,324.536835,-506.227081,832.675476,277.85556,-511.503174,831.551392,270.863617,-446.867828,831.896179,332.693237,-453.041077,832.133118,270.784698,-514.306946,735.145813,269.60965,-437.666077,737.081665,334.841064,-444.560944,738.058533,331.737152,-512.691833,738.057739,253.321793,13.685142,846.886658,324.179718,9.902585,847.018677,325.463379,91.602364,847.398499,256.31897,92.461006,846.24353,249.930588,6.120939,741.539368,329.234955,3.834269,741.465271,330.14743,97.247826,740.489319,251.973663,96.982376,740.075745
00213_color_1715976473.656273.png,2034,1715976473.657727,704.423889,136.143967,830.910034,758.931763,162.132706,791.614929,767.44574,112.855919,811.322937,698.474915,78.193481,825.346008,664.634094,59.845963,826.5625,629.979309,52.772533,836.33728,632.530823,123.093651,851.962646,603.353149,121.453323,848.218384,574.135315,114.862785,840.052002,46.452881,194.968353,761.655701,75.844368,195.748413,753.379944,98.005196,197.097198,748.067932,-23.570963,149.880402,756.964233,5.37077,137.982376,751.129089,36.942024,130.428024,744.215149,0.774622,207.520874,773.881104,-12.303691,237.944397,764.323608,-46.23827,210.541779,776.095642,-110.970825,186.639404,782.838928,185.9655,980.348389,1492.275024,239.174744,974.128113,1516.24292,290.296997,986.255615,1498.559814,328.442627,-506.180298,832.725037,281.784698,-511.186584,831.589294,274.959137,-446.59848,831.988525,336.855652,-452.949371,832.140503,274.734833,-513.951721,735.208801,273.719147,-437.283295,737.193848,338.941711,-444.47467,738.152222,335.655151,-512.659912,738.114868,253.343796,13.686985,846.86322,324.170288,9.920963,847.00708,325.459473,91.610596,847.40332,256.309296,92.460083,846.241028,249.935165,6.109862,741.534973,329.221008,3.822883,741.472229,330.153595,97.257538,740.502625,251.96817,96.972855,740.059875
00214_color_1715976473.690902.png,2037,1715976473.687727,700.505371,132.924606,827.777039,754.89801,158.659851,788.755981,763.023865,109.190094,808.434143,693.947083,75.08165,822.130859,660.00769,56.854755,823.176086,625.178528,50.233467,832.944458,628.49292,120.566574,848.678406,599.277954,119.176903,844.797668,570.06012,112.774109,836.464478,46.419804,194.984833,761.692017,75.79631,195.73465,753.38623,97.95974,197.080841,748.05719,-23.606417,149.862854,756.95874,5.343369,137.97139,751.119629,36.946869,130.447571,744.222046,0.800826,207.584549,774.017029,-12.350024,237.903809,764.327454,-46.268543,210.478973,776.1026,-110.966873,186.509018,782.874023,185.978119,980.251587,1492.294678,239.181213,974.132263,1516.252563,290.309418,986.291382,1498.585815,333.270508,-506.079437,832.833618,286.582764,-511.017792,831.659851,280.093292,-446.35022,832.107422,341.912811,-453.041565,832.190063,279.536926,-513.70459,735.439636,278.784912,-436.881409,737.32373,344.126892,-444.592285,738.133972,340.418274,-512.658752,738.122192,253.322601,13.680915,846.885376,324.1698,9.921715,847.030579,325.634735,91.697136,847.489685,256.313904,92.424904,846.202942,249.915421,6.12952,741.548889,329.226807,3.830455,741.496887,330.148346,97.237083,740.480896,251.956619,96.976822,740.071594
00215_color_1715976473.727840.png,2041,1715976473.727727,694.991516,128.680923,824.333313,749.173218,153.693604,785.450317,756.672791,104.208183,805.411926,687.332764,70.942719,818.711853,652.984009,53.423794,819.634033,617.922668,47.67498,829.262695,622.670166,117.833939,845.013306,593.422729,116.832222,840.817566,564.255127,110.507217,831.799988,46.40266,194.986664,761.678833,75.773506,195.723724,753.385742,97.937241,197.087601,748.057739,-23.622738,149.852844,756.927185,5.369722,138.001892,751.145081,36.954666,130.435181,744.209778,0.557579,207.656387,774.002991,-12.357283,237.856079,764.306519,-46.294727,210.437103,776.098938,-110.967812,186.341751,782.875732,185.975662,980.382202,1492.289917,239.180588,974.126526,1516.242065,290.309753,986.271179,1498.577026,342.033173,-506.149902,832.974731,295.284882,-510.698975,831.800476,289.145508,-446.055695,832.210571,350.907013,-452.929108,832.456909,288.240173,-513.184814,735.362549,287.9375,-436.649506,737.414246,353.167816,-444.62265,738.356262,349.079529,-512.473267,738.321899,253.285141,13.692954,846.910522,324.173706,9.93834,847.03064,325.435699,91.613846,847.394348,256.301483,92.431953,846.211243,249.912491,6.131231,741.556274,329.202698,3.828918,741.486877,330.143646,97.24894,740.486389,251.95256,96.972977,740.05957
00216_color_1715976473.762474.png,2044,1715976473.757727,690.640076,125.696335,822.447571,744.759277,149.909531,783.604126,752.025635,100.913277,804.250244,681.995728,67.972412,816.872009,647.332397,51.095387,817.80011,612.011169,46.2701,827.266968,618.038208,115.946907,842.764526,588.85199,115.160858,838.242065,559.675476,109.125679,828.884521,46.43457,194.980301,761.700867,75.777817,195.722473,753.37915,97.948891,197.055191,748.045593,-23.564985,149.790268,756.875122,5.38221,137.971741,751.105774,36.991585,130.425049,744.176453,0.564951,207.637344,774.020447,-12.363915,237.840256,764.335754,-46.24194,210.358521,776.086548,-110.890862,186.137039,782.889893,185.995987,980.317871,1492.271118,239.174103,974.131531,1516.260132,290.299042,986.267395,1498.574585,350.754272,-506.105469,833.05127,304.082031,-510.797028,831.94574,297.707092,-446.111145,832.450439,359.551483,-452.849457,832.426147,297.03894,-513.258545,735.69342,296.159882,-436.541687,737.694397,361.536682,-444.442139,738.410706,357.822052,-512.319885,738.342346,253.339859,13.682745,846.874573,324.173035,9.899569,847.021851,325.623108,91.684692,847.477661,256.294586,92.450691,846.240417,249.909363,6.136085,741.555054,329.211426,3.822797,741.487488,330.137726,97.231049,740.49176,251.950409,96.963806,740.066589
00217_color_1715976473.796551.png,2048,1715976473.797727,685.00177,121.517006,820.753479,739.029053,144.765686,782.1073,745.620056,95.753632,803.113892,675.195312,63.95956,815.509277,640.078735,47.912109,816.339294,604.228882,43.926636,825.060974,612.177246,113.309196,840.874939,582.948242,113.11676,836.173523,553.733643,107.393166,826.462646,46.440887,194.963806,761.702576,75.812798,195.72084,753.39325,97.971558,197.053696,748.037537,-23.516138,149.775879,756.843445,5.40537,137.944229,751.064026,37.188263,130.476044,744.27301,0.566683,207.614944,774.031799,-12.362062,237.823669,764.354309,-46.217407,210.27951,776.085083,-110.803642,185.918152,782.901123,185.973984,980.364014,1492.27124,239.176132,974.138855,1516.259644,290.303925,986.264832,1498.578369,365.184265,-505.546997,833.25647,318.627289,-511.285767,832.141846,310.938599,-446.730988,832.608887,372.927826,-452.207977,832.643494,311.47171,-514.232849,735.972107,309.407715,-437.613037,737.776794,374.363922,-443.728455,738.598816,372.389832,-511.719635,738.506836,253.336456,13.697098,846.881104,324.160492,9.944245,847.034058,325.435455,91.594894,847.41095,256.292114,92.460251,846.260925,249.915344,6.12465,741.549927,329.216156,3.815692,741.49707,330.13736,97.254051,740.501038,251.952881,96.975121,740.085388
00218_color_1715976473.831055.png,2051,1715976473.827727,680.868896,118.067047,820.344604,734.879944,140.923737,781.816284,741.14978,91.827385,802.638855,670.421875,60.560017,814.759033,634.986389,44.872124,815.392029,599.047913,41.425999,824.072083,607.99585,110.666771,840.307617,578.769958,110.573204,835.425781,549.476685,105.328857,825.748657,46.470352,194.947937,761.702393,75.850075,195.731903,753.39563,97.993721,197.071442,748.027161,-23.44767,149.743561,756.785217,5.456746,137.916626,751.03595,37.432652,130.603348,744.505127,0.579843,207.587723,774.039368,-12.346202,237.82251,764.348816,-46.183681,210.257416,776.058228,-110.723503,185.773483,782.894775,185.963516,980.332886,1492.249146,239.177216,974.121155,1516.245605,290.295654,986.261658,1498.571289,377.470184,-505.16449,833.420898,330.994232,-511.67511,832.367798,322.298401,-447.35907,832.741272,384.299469,-451.898773,832.714294,323.707092,-514.904602,736.23877,320.555328,-438.351929,737.787842,385.57428,-443.310913,738.719727,384.848755,-511.493744,738.72998,253.366562,13.673152,846.832214,324.171234,9.907146,847.017883,325.440186,91.594902,847.398132,256.305969,92.448318,846.237732,249.922119,6.119272,741.552551,329.225098,3.830511,741.48407,330.138519,97.239029,740.492432,251.952286,96.966682,740.077087
00219_color_1715976473.865541.png,2055,1715976473.867727,675.398621,113.914337,820.618774,729.479797,136.382568,782.203918,735.362732,87.444214,803.156006,664.441101,56.407856,814.831665,628.796448,41.281368,815.413452,592.738037,38.049522,823.900208,602.31488,106.934486,840.174316,573.145203,107.162727,835.220581,543.912598,102.20295,825.389954,46.575802,195.003128,761.786194,75.910027,195.747864,753.409302,98.081909,197.090576,748.015137,-23.32906,149.767288,756.733276,5.528816,137.921082,751.03241,37.264797,130.660202,744.407166,0.62092,207.581192,774.065063,-12.318582,237.817749,764.368774,-46.123573,210.191467,776.031372,-110.56514,185.494186,782.885437,186.0289,983.301636,1491.451538,239.177948,974.123047,1516.251099,290.298584,986.255249,1498.569702,395.123077,-505.328644,833.675598,348.600067,-512.083923,832.584595,339.414215,-447.74762,832.968384,401.493195,-451.871643,832.940857,341.414795,-515.61377,736.587463,337.536316,-438.86203,738.049377,402.676544,-443.578827,738.801697,402.35614,-511.477173,738.997742,253.369781,13.664107,846.85022,324.174042,9.911657,847.030151,325.441101,91.587097,847.39679,256.296814,92.445229,846.247375,249.923172,6.095273,741.534912,329.212494,3.823956,741.473328,330.143188,97.235519,740.48877,251.956192,96.966774,740.070923
00220_color_1715976473.899727.png,2058,1715976473.897727,671.38031,111.310776,821.192322,725.603088,133.402542,782.753906,731.090881,84.373032,803.661926,660.121948,53.902164,815.497131,624.411072,38.931927,816.07959,588.308777,35.931496,824.551575,598.209473,104.693466,840.535156,569.041016,105.117836,835.49115,539.791931,100.181564,825.521545,46.653339,195.595154,762.436157,75.998497,195.809189,753.429565,98.155067,197.130707,748.019592,-23.230829,149.786316,756.724792,5.623943,137.935028,751.022461,37.353794,130.650055,744.383301,0.675217,207.633499,774.094116,-12.281033,237.847961,764.382507,-46.06424,210.166519,775.997559,-110.390648,185.226547,782.837952,185.964127,980.387085,1492.246826,239.174347,974.13385,1516.250732,290.30423,986.273376,1498.576538,409.139099,-505.395935,833.807617,362.641663,-512.310913,832.717041,353.420288,-447.963318,833.102417,415.485657,-451.947296,833.043274,355.430664,-515.644287,736.699768,351.467651,-439.124725,738.144226,416.5159,-443.653381,738.959106,416.175873,-511.665466,739.041931,253.321503,13.679895,846.869141,324.161591,9.924534,847.022095,325.442108,91.59565,847.393555,256.302734,92.457367,846.250854,249.916107,6.095505,741.540344,329.216156,3.824733,741.487427,330.136475,97.239693,740.496826,251.949692,96.965668,740.075195
00221_color_1715976473.934225.png,2062,1715976473.937727,666.65271,108.136497,822.401367,720.994995,129.898941,783.84491,726.306396,80.921234,804.945496,654.835938,50.934235,816.90686,619.080383,36.180077,817.518738,582.986877,33.501007,826.105652,593.343506,102.313988,841.91571,564.236938,102.787338,836.796387,534.907654,98.074638,826.750671,46.899799,195.228882,762.034058,76.221283,195.865997,753.479797,98.340729,197.15097,748.025146,-22.939754,149.732849,756.610168,5.859733,137.933319,750.984436,37.5998,130.623581,744.323486,0.821149,207.644409,774.125061,-12.161747,237.830292,764.362,-45.872166,210.04007,775.920715,-110.085556,184.802628,782.860474,185.964508,980.395203,1492.273193,239.176849,974.126831,1516.249634,290.306122,986.288391,1498.584351,427.792908,-505.900208,833.96344,381.181915,-512.50354,832.915039,372.542297,-447.999695,833.348877,434.60498,-452.422699,833.310181,373.991486,-515.617126,736.871887,370.56839,-439.08316,738.385193,435.683014,-444.228821,739.13623,434.60321,-512.18335,739.246948,253.346527,13.688014,846.867615,324.164795,9.926047,847.013977,325.437653,91.600311,847.398499,256.30777,92.432831,846.205139,249.918777,6.107668,741.525269,329.225861,3.816323,741.473145,330.136139,97.24337,740.490234,251.952255,96.979553,740.074097
00222_color_1715976473.968127.png,2065,1715976473.967727,663.736755,105.984062,823.553833,718.065491,127.421127,784.77063,723.077148,78.282814,805.711426,651.56134,48.835972,818.165649,615.714294,34.184277,818.940979,579.738159,31.755257,827.729797,590.444275,100.467743,843.371277,561.335449,101.416634,838.517151,531.998169,96.81749,828.559387,47.064457,195.271881,762.065002,76.447479,196.116623,753.802307,98.482582,197.194595,748.05365,-22.737856,149.686417,756.539673,6.034813,137.948898,750.983337,37.816921,130.656006,744.322205,1.079154,207.527802,773.996887,-12.049024,237.845688,764.368103,-45.723186,209.939346,775.862244,-109.839783,184.479187,782.894165,185.974747,980.385681,1492.287109,239.176437,974.134216,1516.257568,290.298279,986.252991,1498.561035,441.961029,-506.190308,834.193726,395.310181,-512.580322,833.098511,386.986237,-448.032074,833.452087,449.068207,-452.876831,833.413696,388.225677,-515.573975,736.956482,385.072876,-439.122314,738.478394,450.232178,-444.511322,739.363159,448.721161,-512.620361,739.449097,253.33876,13.681244,846.866394,324.177643,9.93204,847.029541,325.634888,91.679977,847.464722,256.310883,92.459145,846.228577,249.927124,6.150482,741.555542,329.226501,3.841469,741.478699,330.143188,97.252327,740.491333,251.953995,96.992477,740.080139
00223_color_1715976474.002584.png,2068,1715976473.997727,661.116272,103.978561,824.549744,715.435303,125.090614,785.433105,720.438416,75.976685,806.454224,648.809326,46.876244,819.379395,612.958862,32.30743,820.231689,576.937622,29.961657,829.105225,587.986938,98.846375,844.737244,558.810852,99.799004,839.995056,529.379761,95.336678,830.262878,47.220245,195.329712,762.111694,76.539986,196.221985,753.854126,98.664352,197.257034,748.108459,-22.55851,149.705719,756.516602,6.253164,137.951645,750.951416,38.043655,130.736115,744.342407,1.06056,207.719284,774.211548,-11.93474,237.89473,764.361389,-45.573811,209.905838,775.778198,-109.547455,184.176636,782.890991,185.972473,980.400696,1492.271973,239.16925,974.134949,1516.253296,290.298584,986.244324,1498.565308,456.218292,-506.503174,834.349792,409.529022,-512.733276,833.191528,401.474457,-448.065826,833.743347,463.504242,-453.217072,833.574341,402.266754,-515.486877,736.990051,399.585663,-439.21463,738.693848,464.675537,-444.975433,739.505676,462.697845,-512.810913,739.846924,253.34227,13.69465,846.874023,324.180145,9.936395,847.026245,325.635284,91.695724,847.48053,256.308533,92.465782,846.246216,249.936066,6.144971,741.555237,329.247559,3.835043,741.480896,330.147217,97.244255,740.486084,251.95694,96.968025,740.06958
00224_color_1715976474.036965.png,2072,1715976474.037727,658.127991,101.528229,825.290222,712.464905,122.336037,785.948486,717.353088,73.275482,807.08429,645.594604,44.410316,820.50354,609.826355,30.02467,821.583252,573.803711,27.570425,830.595398,584.988464,96.726173,845.779053,555.732849,97.631767,841.103882,526.296875,93.388054,831.64856,47.447811,195.535385,762.247681,76.703156,196.309372,753.90564,99.012199,197.745789,748.67572,-22.27606,149.731918,756.486511,6.560976,138.014633,750.934204,38.34631,130.868896,744.354309,1.337678,207.731949,774.149597,-11.823606,238.00061,764.366272,-45.362682,209.822662,775.663513,-109.153198,183.737167,782.87915,185.97583,980.325745,1492.290649,239.165604,974.132019,1516.262085,290.31076,986.275879,1498.584961,474.448608,-507.11203,834.495972,427.80954,-513.079285,833.371155,419.985687,-448.514313,833.902344,482.058258,-453.77771,833.76825,420.59491,-515.852844,737.204346,418.217377,-439.494446,738.850281,483.227081,-445.527588,739.64801,481.383636,-513.837097,739.884521,253.365875,13.692381,846.8526,324.173798,9.940095,847.017944,325.634491,91.692055,847.471252,256.315948,92.463089,846.243469,249.945343,6.121953,741.521973,329.234497,3.829144,741.484985,330.150818,97.248924,740.490845,251.957565,96.969368,740.059326
00225_color_1715976474.071324.png,2075,1715976474.067727,656.048523,99.709389,825.394165,710.4823,120.432037,786.042908,715.317017,71.265114,807.186035,643.59198,42.692619,820.93927,607.765625,28.228149,822.067749,571.863647,25.795033,831.189758,582.955933,95.012062,846.000366,553.669922,95.997223,841.443848,524.236633,91.642853,832.025635,47.530067,195.629501,762.317322,76.798264,196.390594,753.933655,98.911957,197.598053,748.32019,-22.116106,149.711395,756.447876,6.722684,138.059265,750.943848,38.559502,130.986099,744.388611,1.342492,207.98587,774.420898,-11.818509,238.078369,764.389465,-45.273582,209.811386,775.605286,-108.869423,183.37912,782.904358,185.961395,980.404114,1492.264282,239.171921,974.12439,1516.249146,290.310059,986.281433,1498.585083,487.715515,-507.846344,834.630676,441.027924,-513.637146,833.575989,433.312592,-449.181061,833.975708,495.271881,-454.477142,833.89209,433.650452,-516.384399,737.348938,431.539307,-440.111267,738.981628,496.637085,-446.321381,739.785461,494.440979,-514.01593,739.772888,253.371979,13.676028,846.846558,324.19696,9.934109,847.022705,325.44632,91.605347,847.391907,256.312714,92.441902,846.227905,249.945724,6.120533,741.5271,329.241302,3.836072,741.462158,330.15329,97.253212,740.491089,251.965042,96.971519,740.062683
00226_color_1715976474.105736.png,2079,1715976474.107727,653.859192,97.338249,825.22052,708.303894,117.778336,785.548462,713.158875,68.587074,806.790955,641.311157,40.244209,820.930481,605.493896,25.837711,822.296875,569.665894,23.331306,831.401855,580.784607,92.754662,846.074768,551.501526,93.778122,841.594849,522.044617,89.551926,832.355286,47.515179,195.61235,762.174377,76.822121,196.409302,753.880676,98.952271,197.608612,748.319092,-22.008959,149.618454,756.349854,6.808639,138.025711,750.903931,38.656742,130.993896,744.343079,1.268685,207.836792,774.237671,-11.790372,237.997665,764.340271,-45.133064,209.680878,775.565308,-108.603355,182.900345,783.060791,185.966949,980.318115,1492.26123,239.165359,974.127075,1516.254028,290.305084,986.250061,1498.565552,504.327881,-508.680756,834.753418,457.720795,-514.740906,833.801819,449.507111,-450.320892,834.235535,511.55658,-455.404602,833.952393,450.440887,-517.727417,737.559326,447.556702,-441.484192,739.0802,512.72168,-446.990143,739.921509,511.095642,-515.22052,740.094788,253.3508,13.676054,846.85022,324.175385,9.907057,847.006165,325.450104,91.601418,847.389771,256.320953,92.444908,846.224976,249.915085,6.115265,741.518494,329.249878,3.836483,741.458618,330.151184,97.250732,740.484436,251.969315,96.978432,740.060242
00227_color_1715976474.140050.png,2082,1715976474.137727,652.476746,95.595039,824.843933,707.024658,115.754532,785.016968,711.919861,66.611519,806.36792,639.937561,38.39209,820.705505,604.194763,24.079546,822.215881,568.305176,21.549866,831.439575,579.491028,91.078796,845.753784,550.151367,92.200905,841.363098,520.687256,87.975372,832.254089,47.479359,195.698151,762.081726,76.7939,196.46756,753.848267,98.952042,197.683273,748.306152,-22.022709,149.648407,756.397278,6.82084,138.054031,750.914185,38.694546,131.064865,744.367615,1.269753,207.893372,774.135742,-11.8085,238.049362,764.299988,-45.106224,209.698456,775.540894,-108.476974,182.690765,783.226929,185.959778,980.424866,1492.251953,239.15654,974.128723,1516.243896,290.299438,986.259949,1498.568115,515.675049,-509.522919,834.82019,469.117615,-515.955017,833.864624,460.392273,-451.666809,834.276245,522.384766,-455.989746,834.222473,461.878937,-518.857605,737.655762,458.447723,-442.592346,739.275635,523.632385,-447.788818,739.989563,522.565369,-515.777039,740.108826,253.287552,13.653569,846.913574,324.177979,9.932205,846.999634,325.629791,91.687355,847.466797,256.324799,92.449173,846.219421,249.911819,6.123842,741.530457,329.229645,3.836782,741.480408,330.156219,97.242783,740.471069,251.963135,96.977524,740.057983
00228_color_1715976474.174322.png,2086,1715976474.177727,651.323181,92.997032,824.142273,705.865662,112.843903,784.018188,710.55011,63.746819,805.494019,638.54248,35.906349,820.391785,602.76001,21.634073,821.848083,566.89917,19.494568,831.328796,578.346191,89.047539,845.326233,549.048035,90.139084,841.007996,519.470154,86.104103,832.012939,47.5019,195.712433,762.060486,76.820625,196.49527,753.832214,98.979156,197.724289,748.311584,-21.886097,149.52655,756.283508,6.967667,138.002151,750.862427,38.895027,131.056183,744.320435,1.300386,207.810455,774.076843,-11.802861,237.939163,764.296204,-44.981373,209.465073,775.524536,-108.209129,182.014359,783.345337,185.961838,980.359497,1492.295288,239.159561,974.125244,1516.252563,290.31308,986.293213,1498.591675,529.011047,-510.35202,834.95282,482.58783,-517.255981,833.951965,473.125397,-453.038055,834.440063,535.281738,-456.862213,834.277893,475.402252,-520.336792,737.815552,471.225403,-444.174072,739.268616,536.430237,-448.368713,740.301147,535.937439,-516.632629,740.331299,253.290863,13.681808,846.900818,324.185211,9.94325,847.002075,325.460571,91.61084,847.401245,256.328735,92.45034,846.2146,249.931412,6.113982,741.537292,329.239838,3.84449,741.46521,330.16568,97.243507,740.472595,251.973145,96.973152,740.052368
00229_color_1715976474.209021.png,2089,1715976474.207727,650.833801,91.122765,823.529236,705.314026,110.56189,783.167542,709.922241,61.531006,804.816833,637.731995,34.116653,819.988159,601.877258,19.941044,821.671204,566.047058,17.957319,831.165466,577.801514,87.617836,844.891602,548.545227,88.838219,840.545593,518.894836,84.718147,831.475769,47.602509,195.695404,762.082703,76.894821,196.514206,753.833435,99.061958,197.740158,748.293457,-21.661726,149.30072,756.145508,7.201532,137.944809,750.812927,39.184605,131.125534,744.289856,1.340836,207.674194,774.083313,-11.808326,237.767151,764.339478,-44.832294,209.120514,775.525024,-107.866898,181.134018,783.27655,185.965881,980.387939,1492.293579,239.1586,974.128662,1516.259399,290.314514,986.299072,1498.605713,537.656494,-511.07193,835.06604,491.219727,-518.277588,833.988159,481.448334,-454.125214,834.457825,543.541382,-457.555267,834.367859,484.018372,-521.2005,737.692017,479.559326,-445.182861,739.3302,544.813171,-449.009979,740.366882,544.817993,-517.263367,740.361023,253.321976,13.695476,846.90033,324.183655,9.933996,847.004028,325.646942,91.671463,847.452454,256.330414,92.451752,846.218933,249.935837,6.117919,741.529297,329.261139,3.851181,741.463013,330.159149,97.248512,740.469177,251.971985,96.970833,740.050598
00230_color_1715976474.243537.png,2093,1715976474.247727,650.247986,88.773361,822.517639,704.834839,107.450722,781.731506,709.278015,58.65015,803.900757,636.960632,31.788439,819.474365,600.955261,17.724562,821.221497,565.213257,15.902804,830.887817,577.237854,85.662285,843.884949,547.88678,86.97258,839.506104,518.323059,82.914383,830.453979,47.815365,195.844193,762.187256,77.079391,196.626617,753.850769,99.196548,197.828903,748.285889,-21.435461,149.304382,756.099243,7.583191,137.985352,750.778931,39.567608,131.280548,744.286865,1.587363,207.741852,774.230042,-11.71178,237.505798,764.104553,-44.694992,208.97496,775.525513,-107.463943,180.362778,783.247253,185.963974,980.315552,1492.314575,239.157944,974.130188,1516.259033,290.307465,986.29126,1498.589233,547.55249,-512.178345,835.081177,501.171875,-519.594299,834.109802,491.118164,-455.496948,834.495728,553.310181,-458.485229,834.49823,494.014679,-522.638123,737.844666,489.108856,-446.574066,739.344666,554.433167,-450.222046,740.258911,554.647217,-518.349426,740.399292,253.305466,13.660953,846.911194,324.204681,9.937035,846.997559,325.656372,91.678528,847.444275,256.334015,92.461159,846.221252,249.94371,6.121064,741.524536,329.253387,3.841574,741.473877,330.176636,97.255638,740.472046,251.978333,96.980637,740.041016
00231_color_1715976474.278053.png,2096,1715976474.2777271,650.083923,86.60775,821.598816,704.639038,104.901718,780.656128,708.987,56.136295,802.950562,636.530701,29.769356,818.884155,600.629211,15.797218,820.898621,564.868164,14.118306,830.664795,576.966125,83.9189,843.089294,547.685303,85.307549,838.795654,518.111938,81.259201,829.730408,47.991318,195.988205,762.3078,77.200066,196.700638,753.889343,99.314026,197.88887,748.271851,-21.308914,149.353394,756.084473,7.74725,138.069595,750.788025,39.745701,131.374695,744.295227,1.693616,207.820862,774.29895,-11.649068,237.553711,764.108826,-44.581436,208.971085,775.501038,-107.200302,180.114029,783.211304,185.949249,980.35144,1492.282593,239.154114,974.121277,1516.266357,290.307037,986.287231,1498.596436,553.653625,-513.075562,835.115417,507.256805,-520.443298,834.068176,497.210114,-456.262695,834.60553,559.28772,-459.434265,834.534424,500.188049,-523.498718,737.939209,495.248566,-447.429047,739.404297,560.485962,-451.01297,740.453491,560.75415,-518.97998,740.440308,253.367065,13.66847,846.852966,324.220978,9.909157,847.009033,325.660461,91.676956,847.452576,256.342224,92.449188,846.210876,249.976196,6.084922,741.504639,329.265228,3.833787,741.468323,330.183746,97.250175,740.469849,251.993423,96.957901,740.042603
00232_color_1715976474.312558.png,2099,1715976474.307727,650.165222,84.240898,820.923035,704.878906,102.146896,779.756775,709.015747,53.441856,802.128479,636.415955,27.248394,818.224915,600.440308,13.622587,820.395142,564.658752,12.105932,830.241699,577.186218,81.792107,842.50116,547.855896,83.350601,838.172852,518.291199,79.367966,829.066772,48.079372,196.052521,762.343689,77.299995,196.743683,753.886108,99.410423,197.919998,748.266968,-21.179989,149.409042,756.096741,7.872532,138.139267,750.787109,39.880676,131.441315,744.301453,1.779427,207.695221,774.142761,-11.599302,237.609665,764.11554,-44.503059,208.974457,775.492737,-107.043488,179.993225,783.178772,185.965012,980.342163,1492.235962,239.159927,974.123413,1516.253174,290.302612,986.274597,1498.582764,558.515991,-513.780457,835.218018,512.19696,-521.007324,834.131897,502.372925,-456.846405,834.625122,564.518799,-460.183411,834.519592,505.004333,-524.004761,737.906982,500.335083,-447.994995,739.348877,565.636536,-451.785431,740.445496,565.657654,-519.920898,740.488892,253.36412,13.658693,846.855286,324.227936,9.892401,846.994385,325.482605,91.591553,847.367432,256.354919,92.428307,846.196411,249.95787,6.100761,741.499084,329.279419,3.837762,741.429138,330.192047,97.239014,740.457642,251.999344,96.981636,740.045349
00233_color_1715976474.347463.png,2103,1715976474.347727,651.256042,80.754585,820.465881,705.797607,98.285378,778.989624,709.809875,49.489677,801.39093,637.03772,23.989464,818.022339,600.948792,10.456769,820.222534,565.252563,9.175021,830.243835,578.235901,78.826202,842.293396,548.860535,80.597046,838.008667,519.199768,76.707726,829.037354,48.166779,196.128815,762.397156,77.355919,196.817276,753.934937,99.484299,197.969742,748.27179,-21.088655,149.468369,756.114319,7.992097,138.237152,750.834595,39.988956,131.530899,744.325195,1.834339,207.780518,774.205139,-11.551693,237.658752,764.107483,-44.442364,208.997849,775.473999,-106.946663,179.937851,783.202026,185.993927,980.306396,1492.269653,239.1604,974.119568,1516.259888,290.304596,986.262268,1498.568481,563.289307,-514.497742,835.144287,516.803894,-521.485291,834.263062,507.337738,-457.23233,834.633362,569.418091,-460.869995,834.398682,509.492859,-524.488281,738.117737,505.200378,-448.416382,739.480957,570.472534,-452.718201,740.170471,570.101929,-520.75824,740.385254,253.372009,13.667456,846.850037,324.231293,9.914448,846.994446,325.486053,91.581192,847.349609,256.35672,92.440453,846.210022,249.978012,6.096024,741.509338,329.287842,3.835497,741.443848,330.211243,97.247955,740.457642,252.014786,96.968376,740.031067
00234_color_1715976474.382376.png,2106,1715976474.377727,652.822632,78.055756,820.401978,707.062012,95.18576,778.517029,710.972168,46.573853,801.113159,638.268616,21.318123,818.137085,602.142578,8.139562,820.792236,566.54718,7.156332,831.12915,579.952026,76.734055,842.776855,550.576294,78.466583,838.697449,520.912598,74.756325,829.894165,48.22683,196.139404,762.399048,77.415771,196.853424,753.933167,99.553261,198.003311,748.271545,-21.02137,149.475281,756.114441,8.074915,138.253036,750.84845,40.086197,131.567078,744.315491,1.878875,207.955109,774.421204,-11.521459,237.647644,764.103882,-44.409012,208.987793,775.494812,-106.861816,179.809006,783.189026,185.964569,980.33429,1492.25293,239.164917,974.132751,1516.258789,290.299866,986.264221,1498.567017,565.506775,-514.500305,835.128235,519.023499,-521.499512,834.323914,509.420807,-457.411377,834.658997,571.565918,-461.021271,834.396423,511.648651,-524.722534,738.160339,507.209961,-448.60672,739.523071,572.463623,-452.883911,740.139893,572.105713,-520.860291,740.376831,253.336075,13.659969,846.888306,324.232574,9.931401,846.991394,325.499878,91.591164,847.35614,256.352448,92.457779,846.211731,249.966949,6.09611,741.504883,329.276154,3.848417,741.434326,330.200287,97.242897,740.448547,252.013596,96.97818,740.035461
00235_color_1715976474.416731.png,2110,1715976474.417727,655.857361,74.460823,821.053406,709.774536,91.199112,778.710144,713.340149,42.437958,801.240784,640.724426,17.775894,818.910645,604.441101,5.07473,821.867188,568.922485,4.323094,832.542969,583.158875,73.679642,844.173157,553.808838,75.553917,840.232483,523.986023,72.080521,831.717102,48.351974,196.23912,762.441284,77.578583,196.888321,753.931213,99.711052,198.09462,748.302307,-20.851038,149.521439,756.128601,8.274107,138.254654,750.81543,40.288628,131.640076,744.317505,2.021507,207.84407,774.247498,-11.399923,237.674225,764.117126,-44.313171,208.9478,775.477539,-106.707672,179.659256,783.152649,185.975327,980.365723,1492.29126,239.16301,974.128906,1516.261475,290.302185,986.266663,1498.571045,566.874695,-514.554443,835.131042,520.47998,-521.781128,834.297363,510.612305,-457.526398,834.71106,572.728577,-460.888733,834.436523,512.980286,-524.805908,738.180847,508.408203,-448.837708,739.524414,573.688354,-452.82724,740.159058,573.698853,-520.74292,740.35022,253.353775,13.659763,846.872375,324.235474,9.909879,846.988831,325.503662,91.589386,847.360657,256.358521,92.451889,846.217041,249.971741,6.104001,741.510559,329.276184,3.85397,741.457214,330.200043,97.240623,740.451599,252.014908,96.956566,740.032776
00236_color_1715976474.451610.png,2113,1715976474.447727,658.443481,72.044785,821.816101,712.208496,88.33799,779.17511,715.473389,39.477524,801.703125,642.869263,15.479549,819.686951,606.531799,2.941792,822.822571,571.080322,2.581504,833.636353,585.779602,71.659554,845.176453,556.417603,73.819374,841.433289,526.527039,70.578857,833.052246,48.497746,196.350784,762.509033,77.738602,196.983597,753.956726,99.84552,198.138672,748.299622,-20.70129,149.601196,756.151428,8.439275,138.338913,750.836914,40.411892,131.711288,744.322388,2.143065,208.09877,774.4552,-11.301801,237.761871,764.085632,-44.214508,209.004532,775.460327,-106.593956,179.678223,783.124084,185.970093,980.331665,1492.277832,239.156586,974.129456,1516.264404,290.304352,986.290894,1498.589355,566.674561,-514.643677,835.219849,520.271606,-521.912781,834.229797,510.309387,-457.708588,834.686707,572.474792,-461.032715,834.588989,512.975281,-524.799316,738.07196,508.377625,-448.869263,739.507019,573.660583,-452.760681,740.344421,573.758362,-520.69281,740.422729,253.342606,13.661864,846.879578,324.228882,9.909818,847.004761,325.669098,91.682274,847.449341,256.35614,92.450081,846.218079,249.974045,6.115746,741.503601,329.277771,3.824577,741.471619,330.183746,97.226517,740.444702,251.999588,96.966003,740.0271
00237_color_1715976474.486768.png,2117,1715976474.487727,662.048523,69.15242,822.712585,715.797119,84.819588,779.792175,719.079895,36.375908,802.557495,645.959045,12.796896,820.789917,609.509583,0.553081,824.007446,574.058899,0.455237,834.952148,589.516235,69.660828,846.465698,560.11554,72.036171,842.803711,530.180481,69.0802,834.609192,48.613605,196.411911,762.524719,77.89463,197.051117,753.949036,99.954674,198.188568,748.300842,-20.5341,149.691589,756.19574,8.57382,138.421936,750.875366,40.52422,131.782639,744.33374,2.284164,208.170639,774.473572,-11.169702,238.097778,764.419861,-44.136162,209.076874,775.485229,-106.521713,179.758408,783.13031,185.963593,980.353943,1492.265259,239.163422,974.128235,1516.264771,290.302399,986.290771,1498.59668,565.600342,-515.183838,835.303162,519.10321,-521.850403,834.267456,509.833649,-457.70343,834.676208,571.964966,-461.669739,834.675781,512.114014,-524.761536,737.971741,508.179962,-448.81192,739.522644,573.41626,-453.476654,740.44873,572.704163,-521.54071,740.593689,253.348175,13.678205,846.869507,324.229797,9.913296,847.012878,325.668457,91.677612,847.452881,256.340942,92.442917,846.21283,249.973663,6.126664,741.516052,329.267242,3.83987,741.462585,330.174011,97.237602,740.466614,251.988403,96.985352,740.043335
00238_color_1715976474.521936.png,2120,1715976474.5177271,664.731506,67.094704,823.323242,718.715515,82.390907,780.431763,721.589111,33.930847,803.140503,648.292358,10.916051,821.3974,611.703796,-1.11629,824.602722,576.305481,-0.870849,835.549316,592.210815,68.051979,847.129761,562.899841,70.70546,843.51532,532.969055,68.058121,835.399963,48.647446,196.366852,762.523376,77.914787,197.018661,753.942871,99.982109,198.170044,748.301758,-20.538532,149.681381,756.190613,8.560619,138.408386,750.870117,40.516911,131.752533,744.325317,2.292327,208.002258,774.295166,-11.151771,238.082336,764.423889,-44.159012,209.071701,775.487671,-106.553642,179.783096,783.085754,185.970963,980.349792,1492.2854,239.160431,974.119019,1516.262329,290.301636,986.268677,1498.574585,563.3479,-516.125732,835.310425,516.800476,-522.252991,834.212524,508.695953,-457.846405,834.634888,570.687195,-462.766327,834.622742,509.63443,-524.688599,737.815918,506.969208,-448.724731,739.569519,572.080994,-454.463959,740.535767,570.345276,-522.102295,740.408569,253.393646,13.673285,846.825745,324.192352,9.890695,846.991211,325.472778,91.582626,847.372864,256.348083,92.422615,846.185669,249.970932,6.111223,741.50592,329.276031,3.81996,741.453918,330.180603,97.227119,740.465088,251.994904,96.965942,740.0448
00239_color_1715976474.556392.png,2124,1715976474.557727,668.245422,64.582809,824.080017,722.602051,79.262817,781.173157,724.863586,30.604452,803.708679,651.091492,8.491337,821.760437,614.366577,-3.230519,824.809204,578.939331,-2.645009,835.616333,595.581604,66.143875,847.451294,566.250732,69.092766,843.725647,536.262817,66.756485,835.477722,48.618561,196.354385,762.50293,77.876312,197.025894,753.957581,99.936272,198.18573,748.306396,-20.589466,149.715485,756.214294,8.536695,138.42569,750.88031,40.468296,131.775528,744.355164,2.26121,208.185867,774.486694,-11.174897,238.119431,764.403381,-44.205879,209.133728,775.483521,-106.645737,179.980743,783.074646,186.001266,980.338806,1492.262695,239.165268,974.124817,1516.264771,290.305115,986.277832,1498.585815,558.540955,-517.254578,835.07251,511.970154,-522.655457,834.165894,504.51474,-458.267334,834.59729,566.441956,-463.866791,834.594543,504.528473,-525.007263,737.687073,502.787598,-448.949554,739.619324,567.604553,-455.231354,740.505798,565.348328,-523.572205,740.444153,253.334259,13.665051,846.861084,324.193024,9.91285,847.002441,325.465881,91.599403,847.372131,256.335571,92.424248,846.18573,249.967255,6.098213,741.511169,329.259369,3.836422,741.453613,330.170959,97.240715,740.463318,251.982452,96.962761,740.046753
00240_color_1715976474.591301.png,2127,1715976474.587727,670.234497,62.772827,824.216003,725.264221,77.211693,781.606323,727.120667,28.634937,804.13501,652.81781,6.91754,821.838074,616.118225,-4.471647,824.612244,580.467041,-3.843886,835.047668,597.462097,64.888199,847.140686,568.12854,68.043961,843.303406,538.221863,65.92643,834.718689,48.596981,196.349442,762.495911,77.866135,197.027588,753.96167,99.936539,198.177689,748.315125,-20.600578,149.728546,756.237854,8.509078,138.46431,750.892456,40.454849,131.79451,744.368896,2.249142,208.072113,774.326538,-11.225074,237.835632,764.04718,-44.238331,209.177582,775.488831,-106.716553,180.183228,783.067566,186.004044,980.322205,1492.271729,239.167877,974.128113,1516.258057,290.298065,986.235168,1498.548706,554.025757,-517.507812,835.105164,507.317963,-523.093506,834.105164,499.809692,-458.686066,834.57666,561.787537,-464.132233,834.506592,500.119019,-525.570007,737.754028,498.050476,-449.439056,739.543945,563.180115,-455.73938,740.367859,560.840698,-523.736023,740.316528,253.330505,13.664514,846.871521,324.209229,9.910721,846.996948,325.462402,91.601173,847.387024,256.332672,92.45092,846.216003,249.953705,6.089199,741.515869,329.23877,3.807442,741.457642,330.169708,97.239662,740.47583,251.984024,96.968201,740.042847
00241_color_1715976474.626275.png,2131,1715976474.627727,671.901428,61.344696,823.9776,728.539917,74.973816,782.050415,729.746887,26.51631,804.815613,654.534241,5.512501,821.753052,617.708252,-5.739892,823.682068,581.895386,-5.054565,833.334106,598.565918,63.617355,845.308777,569.376465,66.759285,840.937073,539.674927,64.685127,832.006165,48.566963,196.282806,762.465088,77.813042,196.978668,753.927246,99.909401,198.173386,748.326111,-20.667494,149.693695,756.241882,8.457747,138.445496,750.881226,40.395115,131.791107,744.402832,2.227184,208.017975,774.279785,-11.207045,238.099854,764.387512,-44.281979,209.191986,775.502625,-106.882698,180.365829,783.023071,185.985092,980.289673,1492.281006,239.164261,974.126282,1516.255005,290.304932,986.2901,1498.592285,545.61145,-517.586548,835.110352,498.968719,-523.237915,833.970093,491.245056,-458.787903,834.518188,553.232666,-464.168915,834.423523,491.808044,-525.77948,737.64386,489.618988,-449.602539,739.375793,554.622803,-455.61554,740.404419,552.525757,-523.808899,740.469177,253.319763,13.66758,846.870667,324.185364,9.898604,846.995239,325.448608,91.584351,847.377808,256.328522,92.435768,846.218506,249.931259,6.078259,741.51532,329.239532,3.815683,741.466248,330.162689,97.230743,740.465088,251.97229,96.962303,740.053284
00242_color_1715976474.661320.png,2134,1715976474.657727,672.217163,60.916145,823.328125,730.796387,73.862114,782.190979,731.564941,25.630161,805.621765,655.315491,4.98933,821.255981,618.364807,-6.511959,822.243958,582.358032,-5.935366,830.755981,598.192871,62.790081,842.549194,569.102417,65.675667,837.429077,539.647095,63.185135,827.808105,48.520191,196.305222,762.455017,77.757195,197.00415,753.935364,99.870064,198.186401,748.344238,-20.723536,149.744537,756.309937,8.39831,138.494705,750.892944,40.354294,131.813995,744.420593,2.194354,208.218384,774.448059,-11.221304,238.128784,764.338196,-44.354931,209.276276,775.501404,-107.088638,180.721802,783.02887,185.978943,980.368103,1492.288086,239.157867,974.126465,1516.256958,290.314331,986.298157,1498.596558,537.676575,-517.36438,834.958374,491.045258,-523.160645,833.906006,483.276978,-458.647797,834.454529,545.251099,-463.977173,834.401978,483.789398,-525.608215,737.521118,481.549103,-449.585693,739.330627,546.602905,-455.468903,740.309814,544.565369,-523.410583,740.245056,253.302582,13.672278,846.907288,324.188049,9.938697,847.014709,325.452667,91.614433,847.377258,256.328796,92.433395,846.204407,249.941605,6.117007,741.529968,329.24826,3.839837,741.475281,330.164368,97.254616,740.471069,251.980362,96.963127,740.030762
00243_color_1715976474.696327.png,2138,1715976474.697727,671.915527,60.65004,821.908936,733.514648,72.357178,782.3396,733.597595,24.737225,806.838928,655.487244,4.520225,820.200439,618.56488,-7.239265,818.862976,582.027283,-6.876864,825.048706,596.808044,62.102596,836.985779,567.92865,64.612045,830.31897,539.025635,61.371033,819.117493,48.464825,196.259476,762.404968,77.719154,196.971512,753.940735,99.829933,198.183929,748.355408,-20.760536,149.708069,756.305603,8.339454,138.520279,750.912109,40.298046,131.848297,744.426392,2.18372,208.042007,774.225769,-11.277538,237.819611,763.997498,-44.429768,209.320877,775.530579,-107.33371,181.044495,782.979187,185.970642,980.357178,1492.263306,239.157654,974.13208,1516.25769,290.309357,986.293152,1498.587769,524.892578,-516.687378,834.849731,478.233978,-522.134399,833.820068,470.81015,-457.845978,834.277222,532.776245,-463.408508,834.279175,471.008942,-524.447876,737.417908,469.216278,-448.407623,739.349426,534.250549,-454.924744,740.214539,531.655762,-522.8255,740.111389,253.316849,13.664053,846.891541,324.198059,9.930635,847.007935,325.466461,91.592262,847.383118,256.3237,92.452843,846.213745,249.931625,6.127754,741.534851,329.240387,3.818367,741.477478,330.164856,97.247673,740.481384,251.980179,96.970474,740.054626
00244_color_1715976474.731131.png,2141,1715976474.727727,671.873413,59.223557,821.064331,735.718933,70.664185,782.995911,734.927551,22.804214,807.191956,655.017761,3.253977,817.750916,617.847229,-7.9734,813.734985,581.070801,-7.318477,817.620056,596.175659,60.915302,832.986206,567.620728,63.425587,825.284363,539.241089,60.48653,813.095154,48.413422,196.184662,762.343994,77.641945,196.901093,753.903015,99.776649,198.16069,748.373657,-20.860054,149.665436,756.303345,8.272317,138.440475,750.862122,40.218884,131.833023,744.420837,2.147601,207.975189,774.188049,-11.265962,237.76178,763.981323,-44.483143,209.32309,775.56366,-107.532425,181.28038,782.933777,185.969818,980.360657,1492.294922,239.15419,974.134888,1516.261353,290.299622,986.272766,1498.582153,513.786621,-515.867432,834.772766,467.114899,-521.383179,833.659912,459.631195,-456.866882,834.265381,521.617004,-462.398163,834.232544,459.924011,-523.728394,737.280151,458.028625,-447.643005,739.22406,523.02417,-453.946808,740.22644,520.648682,-521.923035,740.113464,253.343643,13.683582,846.887024,324.181,9.922914,847.01416,325.640961,91.674934,847.466736,256.32132,92.443092,846.213501,249.942581,6.11954,741.547241,329.244354,3.813073,741.473206,330.15979,97.235641,740.487671,251.967972,96.972588,740.061768
00245_color_1715976474.766165.png,2145,1715976474.7677271,673.506653,56.159706,820.335083,738.725586,67.443817,783.23175,736.89093,19.273054,806.794495,655.745789,0.699455,814.853638,618.455261,-9.497848,808.694824,581.766052,-8.379878,811.247498,597.667786,58.912521,830.265503,569.262207,61.911144,822.017334,541.025208,59.439808,809.139954,48.240734,196.114136,762.331116,77.434067,196.846146,753.906616,99.589836,198.095764,748.353394,-21.037989,149.659485,756.323303,8.075898,138.512314,750.893738,40.051052,131.930496,744.435608,2.004302,207.950806,774.15625,-11.363046,237.791046,763.968628,-44.67588,209.45755,775.595032,-107.925476,181.835892,782.906189,185.975464,980.336182,1492.275146,239.155716,974.134338,1516.258179,290.311737,986.278809,1498.582886,497.511047,-514.164246,834.628662,450.877228,-520.274231,833.513062,442.52005,-455.949524,834.036499,504.563385,-460.625885,834.058289,443.789856,-522.909363,737.259949,440.833038,-446.703552,738.98822,505.949188,-452.270294,739.953186,504.542938,-520.107666,739.976196,253.349991,13.670803,846.875061,324.182892,9.911164,847.013245,325.639771,91.653275,847.452576,256.311523,92.455765,846.236572,249.939835,6.137583,741.540588,329.244629,3.830444,741.485229,330.156433,97.237106,740.471619,251.964417,96.957466,740.058228
