mbdulkadiroglu/VisualAffordanceDataset/synchronized_frames_12.csv
RealSense_frame,Vicon_frame,Vicon_timestamp,RightHand1:Wrist1_X,RightHand1:Wrist1_Y,RightHand1:Wrist1_Z,RightHand1:Wrist2_X,RightHand1:Wrist2_Y,RightHand1:Wrist2_Z,RightHand1:Wrist3_X,RightHand1:Wrist3_Y,RightHand1:Wrist3_Z,RightHand1:Thumb1_X,RightHand1:Thumb1_Y,RightHand1:Thumb1_Z,RightHand1:Thumb2_X,RightHand1:Thumb2_Y,RightHand1:Thumb2_Z,RightHand1:Thumb3_X,RightHand1:Thumb3_Y,RightHand1:Thumb3_Z,RightHand1:IndexFinger1_X,RightHand1:IndexFinger1_Y,RightHand1:IndexFinger1_Z,RightHand1:IndexFinger2_X,RightHand1:IndexFinger2_Y,RightHand1:IndexFinger2_Z,RightHand1:IndexFinger3_X,RightHand1:IndexFinger3_Y,RightHand1:IndexFinger3_Z,LeftHand1:IndexFinger1_X,LeftHand1:IndexFinger1_Y,LeftHand1:IndexFinger1_Z,LeftHand1:IndexFinger2_X,LeftHand1:IndexFinger2_Y,LeftHand1:IndexFinger2_Z,LeftHand1:IndexFinger3_X,LeftHand1:IndexFinger3_Y,LeftHand1:IndexFinger3_Z,LeftHand1:Thumb1_X,LeftHand1:Thumb1_Y,LeftHand1:Thumb1_Z,LeftHand1:Thumb2_X,LeftHand1:Thumb2_Y,LeftHand1:Thumb2_Z,LeftHand1:Thumb3_X,LeftHand1:Thumb3_Y,LeftHand1:Thumb3_Z,LeftHand1:Wrist1_X,LeftHand1:Wrist1_Y,LeftHand1:Wrist1_Z,LeftHand1:Wrist2_X,LeftHand1:Wrist2_Y,LeftHand1:Wrist2_Z,LeftHand1:Wrist3_X,LeftHand1:Wrist3_Y,LeftHand1:Wrist3_Z,LeftHand1:Wrist4_X,LeftHand1:Wrist4_Y,LeftHand1:Wrist4_Z,Realsense:Camera1_X,Realsense:Camera1_Y,Realsense:Camera1_Z,Realsense:Camera2_X,Realsense:Camera2_Y,Realsense:Camera2_Z,Realsense:Camera3_X,Realsense:Camera3_Y,Realsense:Camera3_Z,Cup:Corner1_X,Cup:Corner1_Y,Cup:Corner1_Z,Cup:Corner2_X,Cup:Corner2_Y,Cup:Corner2_Z,Cup:Corner3_X,Cup:Corner3_Y,Cup:Corner3_Z,Cup:Corner4_X,Cup:Corner4_Y,Cup:Corner4_Z,Cup:Corner5_X,Cup:Corner5_Y,Cup:Corner5_Z,Cup:Corner6_X,Cup:Corner6_Y,Cup:Corner6_Z,Cup:Corner7_X,Cup:Corner7_Y,Cup:Corner7_Z,Cup:Corner8_X,Cup:Corner8_Y,Cup:Corner8_Z,Coffee:Corner1_X,Coffee:Corner1_Y,Coffee:Corner1_Z,Coffee:Corner2_X,Coffee:Corner2_Y,Coffee:Corner2_Z,Coffee:Corner3_X,Coffee:Corner3_Y,Coffee:Corner3_Z,Coffee:Corner4_X,Coffee:Corner4_Y,Coffee:Corner4_Z,Coffee:Corner5_X,Coffee:Corner5_Y,Coffee:Corner5_Z,Coffee:Corner6_X,Coffee:Corner6_Y,Coffee:Corner6_Z,Coffee:Corner7_X,Coffee:Corner7_Y,Coffee:Corner7_Z,Coffee:Corner8_X,Coffee:Corner8_Y,Coffee:Corner8_Z
00089_color_1715976377.967967.png,879,1715976377.9646509,645.425598,915.18457,1011.91864,648.698547,981.60907,1006.706482,681.404846,957.395325,1040.057251,697.687744,890.110107,1022.846191,707.011414,855.27533,1012.526733,701.552551,819.794373,1006.805542,629.30127,845.99939,1000.326782,619.679077,823.765381,987.18219,614.306519,797.06427,971.138367,7.080207,299.546265,756.493774,37.349396,301.320679,751.124268,59.80603,303.789825,747.647461,-64.463348,248.995956,754.544556,-35.21909,236.77475,750.384094,-3.934384,228.699875,745.661865,-38.390446,308.069458,767.240112,-53.854935,336.521606,760.584106,-82.097504,307.762817,772.678162,-134.520004,274.32196,795.01947,185.964844,980.188965,1492.341553,239.19133,974.143433,1516.288818,290.320984,986.277527,1498.579834,542.664673,-504.811523,835.161255,495.990479,-509.619171,834.370422,489.43161,-445.104645,834.612915,551.10083,-451.653046,834.365173,488.201599,-512.196411,738.011292,487.448303,-436.116547,739.770813,552.261658,-443.396423,740.240234,548.843933,-511.459595,740.387207,278.413025,-93.206787,847.545471,278.004333,-20.611916,847.514343,197.437256,-24.076088,845.579773,201.234985,-93.793571,844.379028,288.213135,-98.789375,742.754089,285.839935,-16.78511,741.983154,192.84903,-20.958595,739.223999,198.423706,-100.016914,739.095093
00090_color_1715976378.003766.png,883,1715976378.0046508,649.663025,897.079285,1024.487671,654.422241,963.394226,1017.563965,687.133423,939.149292,1051.055298,701.648254,870.928711,1035.515259,710.123169,835.586426,1025.994141,703.434143,800.736633,1021.065857,631.819885,827.698914,1014.351746,621.571777,804.501404,1001.791504,616.570496,777.875427,987.565125,7.079051,299.420044,756.406311,37.322495,301.32135,751.13269,59.777744,303.815552,747.683899,-64.460342,248.922974,754.520264,-35.181091,236.692978,750.309021,-3.882603,228.724503,745.64679,-38.392014,307.956696,767.201355,-53.803558,336.795349,761.0354,-81.99234,307.615387,772.687988,-134.277771,274.103424,795.114929,185.97406,980.235718,1492.338013,239.195953,974.134827,1516.284302,290.325043,986.27124,1498.580933,542.640503,-504.835175,835.154297,495.968964,-509.614105,834.354736,489.415588,-445.10376,834.616211,551.084412,-451.680206,834.368835,488.241577,-512.224243,738.023254,487.4505,-436.114349,739.775879,552.253845,-443.412415,740.243347,548.849609,-511.476166,740.385681,278.411377,-93.20108,847.547607,277.990265,-20.609051,847.515625,197.425903,-24.085764,845.575439,201.225662,-93.788612,844.403503,288.215851,-98.80011,742.754028,285.820282,-16.783422,741.989136,192.832214,-20.964005,739.21405,198.412125,-100.0858,739.029114
00091_color_1715976378.038981.png,886,1715976378.0346508,652.694153,885.228882,1031.839722,659.06897,951.294373,1023.664001,691.267639,926.905884,1057.53479,704.124512,858.192871,1043.281616,711.821777,822.336548,1034.325562,704.002319,786.561279,1029.326782,633.48468,816.151428,1022.983459,623.073486,791.680115,1011.752014,617.610352,765.962036,996.843994,7.100599,299.432739,756.431519,37.355995,301.276703,751.111084,59.812199,303.760956,747.630554,-64.457947,248.917328,754.505737,-35.140247,236.652069,750.292542,-3.877457,228.697449,745.645325,-38.376827,307.968323,767.220947,-53.822979,336.893433,761.151062,-81.9496,307.623138,772.678711,-134.17601,274.0784,795.145691,185.952423,980.238953,1492.30957,239.193817,974.126892,1516.286865,290.317444,986.249084,1498.569458,542.676147,-504.857117,835.153992,496.009003,-509.75592,834.335876,489.35556,-445.225098,834.599182,551.042114,-451.704437,834.38562,488.344574,-512.318237,737.979492,487.435425,-436.19223,739.784241,552.25293,-443.407715,740.284607,548.961426,-511.450531,740.378723,278.417206,-93.231438,847.548157,277.988861,-20.639709,847.505554,197.429153,-24.076715,845.598083,201.287292,-93.782768,844.323853,288.234009,-98.267487,743.19104,285.826965,-16.79072,741.983582,192.843597,-20.979549,739.216125,198.438354,-100.146812,738.952942
00092_color_1715976378.074315.png,890,1715976378.074651,656.948547,871.339539,1038.347412,665.252747,937.342773,1029.294067,697.100403,912.223022,1063.019165,707.588379,842.85022,1049.68335,714.040649,806.674377,1041.208252,705.122131,771.138,1036.576294,636.061584,802.958679,1031.300415,624.624084,779.525146,1019.319885,618.429626,752.605774,1005.240784,7.10429,299.314484,756.331909,37.341721,301.276855,751.12146,59.799599,303.750702,747.638123,-64.44873,248.896912,754.48761,-35.135479,236.655243,750.275757,-3.866976,228.716217,745.644714,-38.380352,307.944122,767.211182,-53.825012,336.924957,761.205627,-81.917793,307.597107,772.662598,-134.111191,274.039185,795.166382,185.953613,980.219482,1492.307739,239.194443,974.134094,1516.28418,290.324677,986.270508,1498.586304,542.69812,-504.944672,835.178894,496.067078,-510.113586,834.270386,489.029266,-445.662109,834.570557,550.783264,-451.803467,834.446472,488.571228,-512.669678,737.926758,487.298279,-436.489319,739.725586,552.119202,-443.355499,740.374451,549.197205,-511.374481,740.384338,278.416656,-93.237114,847.549377,277.996796,-20.634474,847.499878,197.429962,-24.070883,845.593018,201.274628,-93.806427,844.338257,288.229004,-98.838043,742.739197,285.825317,-16.811817,741.976868,192.841583,-20.984221,739.209106,198.425537,-100.169739,738.931458
00093_color_1715976378.109636.png,893,1715976378.104651,660.205627,862.689575,1040.74353,670.265625,928.411377,1031.103638,701.822144,902.709778,1064.704834,710.237305,832.828064,1051.52478,715.453125,796.695801,1043.278198,705.718506,761.941895,1039.240479,637.625977,795.376038,1034.968994,625.422913,771.52832,1022.640808,618.208191,744.805298,1008.708618,7.090571,299.324188,756.349121,37.338165,301.263367,751.076721,59.807323,303.737976,747.603394,-64.429146,248.89798,754.48114,-35.112736,236.669083,750.250549,-3.799336,228.778854,745.639587,-38.383789,307.956268,767.210388,-53.806282,336.554596,760.812134,-81.906776,307.586151,772.656372,-134.102264,274.011475,795.164612,185.977066,980.223877,1492.305054,239.200089,974.139465,1516.27832,290.326935,986.268372,1498.570679,542.419495,-504.97348,835.212891,495.789032,-510.365601,834.210266,488.464233,-445.937317,834.586792,550.254028,-451.74884,834.536194,488.517151,-512.940918,737.861633,486.804016,-436.776184,739.663269,551.722229,-443.220703,740.469849,549.135925,-511.279175,740.436768,278.393829,-93.256569,847.528809,277.979004,-20.619713,847.494812,197.413864,-24.058012,845.596802,201.235641,-93.80761,844.354797,288.078644,-98.213112,743.054626,285.817688,-16.809223,741.966797,192.833771,-20.974209,739.219238,198.415955,-100.178833,738.915588
00094_color_1715976378.144651.png,897,1715976378.144651,664.618225,853.42981,1040.700073,677.74176,918.750977,1030.775024,708.545654,891.498901,1063.894775,713.349304,821.389893,1050.737793,716.836243,786.430298,1043.479614,705.206238,750.631104,1038.291992,638.374817,785.609375,1034.330078,625.555481,763.976196,1023.116943,616.912842,737.579834,1009.235718,7.102428,299.760284,756.765076,37.329659,301.236816,751.088074,59.800854,303.736084,747.63324,-64.453255,248.899536,754.490479,-35.126232,236.675552,750.252136,-3.813266,228.77597,745.628418,-38.38023,307.933258,767.214417,-53.778172,336.576324,760.853088,-81.926392,307.597382,772.659912,-134.170624,274.074219,795.106079,185.96167,980.326904,1492.300781,239.20433,974.136902,1516.280762,290.324768,986.260498,1498.570435,541.210999,-504.737213,835.257263,494.571167,-510.50293,834.190063,486.651215,-446.111694,834.618164,548.479736,-451.365784,834.72821,487.478516,-513.123047,737.768799,485.0737,-437.118774,739.53894,550.148071,-442.906982,740.552368,548.090942,-511.131989,740.509583,278.391663,-93.247131,847.544739,277.979004,-20.629759,847.491943,197.419586,-24.070518,845.592163,201.222916,-93.801689,844.373718,288.026703,-98.247299,742.979614,285.823944,-16.813705,741.9823,192.865402,-21.046593,739.204285,198.419159,-100.178764,738.930603
00095_color_1715976378.180038.png,901,1715976378.184651,669.688538,846.715332,1037.710205,686.552124,911.117859,1028.048584,716.166199,882.050171,1060.748779,716.762939,811.7677,1046.653076,717.851746,774.005188,1036.785889,704.619263,741.682922,1033.240601,640.114929,781.097046,1031.07019,625.745117,759.710205,1019.075256,615.838013,733.887634,1004.822266,7.090092,299.731659,756.781372,37.306717,301.231506,751.092224,59.771603,303.750427,747.653503,-64.468552,248.871323,754.47406,-35.153984,236.660156,750.249512,-3.850634,228.796051,745.646851,-38.408024,307.883942,767.190308,-53.798473,336.782104,761.104553,-81.999329,307.575867,772.652649,-134.317307,274.124908,795.040588,185.961807,980.269775,1492.318115,239.200424,974.135864,1516.281006,290.324097,986.262268,1498.57019,538.940979,-504.405731,835.25354,492.442871,-510.912292,834.15741,483.694336,-446.596771,834.580383,545.579956,-450.998657,834.700195,485.36795,-513.61908,737.790466,482.007629,-437.460815,739.499451,547.141541,-442.524261,740.527344,545.952637,-510.496307,740.509277,278.379791,-93.26226,847.53833,277.986481,-20.700935,847.526001,197.493179,-24.326159,845.518188,201.200607,-93.830963,844.37738,287.938568,-98.251793,742.940186,285.978577,-17.09753,741.852539,192.656845,-20.656145,739.662781,198.407547,-100.16835,738.927979
00096_color_1715976378.215053.png,904,1715976378.2146509,674.635315,843.196838,1034.344482,694.74292,907.088623,1025.652832,722.874146,875.967468,1057.69519,719.694885,805.891113,1042.600708,718.947083,768.138855,1032.17749,704.148682,738.475952,1029.201294,641.451599,779.602295,1027.217285,625.913452,759.019714,1014.960022,614.511841,734.153137,1000.166199,7.062986,299.756805,756.822327,37.292877,301.237549,751.114685,59.770695,303.751404,747.68158,-64.486984,248.885056,754.476501,-35.172466,236.691254,750.273499,-3.853516,228.791916,745.655518,-38.415146,307.891541,767.210632,-53.799973,336.657318,760.964539,-82.067947,307.603546,772.680054,-134.493073,274.243652,795.012512,185.953796,980.26239,1492.326904,239.196793,974.1427,1516.285156,290.325714,986.282227,1498.579102,536.686401,-504.120514,835.253357,490.240936,-511.039246,834.150208,480.820892,-446.892426,834.589417,542.780029,-450.780151,834.65564,483.187012,-514.135986,737.84967,479.035248,-438.038116,739.390137,544.208496,-442.201752,740.502563,543.717346,-510.310883,740.527039,278.434082,-93.421532,847.561096,277.945709,-20.623028,847.590393,197.496017,-24.326746,845.503113,201.158707,-93.808708,844.421692,287.885071,-98.208824,742.881348,285.958954,-17.078262,741.859314,192.652451,-20.66621,739.638916,198.37825,-100.131607,738.966553
00097_color_1715976378.250106.png,908,1715976378.2546508,682.449646,841.075317,1030.195068,707.780212,903.391785,1022.607666,733.291992,869.389832,1053.90564,724.244629,800.048889,1038.212036,720.36261,762.87085,1027.561646,702.656555,732.254211,1022.694458,644.106628,780.577209,1022.189148,626.692871,761.480591,1009.649902,613.661316,737.782837,994.699463,7.039767,299.397186,756.538269,37.253372,301.218018,751.123413,59.715668,303.762848,747.69812,-64.526802,248.849106,754.436707,-35.22636,236.690338,750.271179,-3.89878,228.783295,745.650757,-38.461494,307.889435,767.22644,-53.829079,336.394775,760.67865,-82.201103,307.569,772.640686,-134.806992,274.415558,794.831116,185.949448,980.296875,1492.296143,239.20166,974.142883,1516.280884,290.325928,986.27832,1498.581665,532.629578,-504.206787,835.175354,486.185852,-511.25412,834.092224,476.732025,-447.056732,834.504517,538.670471,-450.812561,834.576111,479.034607,-514.330566,737.848999,474.901764,-438.033539,739.39801,540.010071,-442.272583,740.473511,539.621033,-510.278809,740.450989,278.640594,-94.189926,847.558289,277.933655,-20.630074,847.591614,197.474426,-24.33532,845.500061,201.147491,-93.816513,844.430298,287.829346,-98.292511,742.781921,285.932587,-17.077522,741.856506,192.628723,-20.665277,739.635254,198.357239,-100.124794,738.966614
00098_color_1715976378.285083.png,911,1715976378.2846508,690.003845,840.374756,1027.126953,719.355408,901.087769,1020.541565,742.593018,865.024841,1051.287231,729.000183,796.602295,1034.731689,722.673523,759.663452,1023.762329,703.020935,730.919067,1018.731934,647.695618,782.261719,1018.320068,629.315063,764.885376,1005.779846,614.466858,742.300598,990.455017,7.021052,299.350098,756.560852,37.221165,301.174713,751.15332,59.69083,303.705933,747.702209,-64.567924,248.794739,754.437195,-35.235641,236.62294,750.224426,-3.922279,228.730682,745.641663,-38.51355,307.825043,767.240295,-53.846149,336.58728,760.961182,-82.337074,307.493073,772.632019,-135.114777,274.426636,794.633911,185.964294,980.236145,1492.308594,239.19603,974.127258,1516.285522,290.313477,986.217651,1498.552979,528.689392,-504.410431,835.104553,482.216003,-510.979187,834.100647,473.441193,-446.659912,834.489075,535.349976,-451.066803,834.437073,474.792694,-513.841003,737.946411,471.507019,-437.622589,739.436584,536.572754,-442.597656,740.342651,535.452515,-510.571167,740.389893,278.627502,-94.22995,847.552856,277.917084,-20.654701,847.608276,197.446838,-24.352058,845.520142,201.207382,-93.821335,844.356995,287.805725,-98.511162,742.647766,285.911743,-17.094193,741.862976,192.605957,-20.644997,739.679016,198.375946,-100.180717,738.954285
00099_color_1715976378.320219.png,915,1715976378.324651,702.603821,840.162048,1024.237549,737.56311,898.037231,1019.208435,757.093201,859.574097,1049.340698,737.300354,792.874207,1030.591553,727.825195,756.857117,1018.463867,705.445923,730.383606,1012.656555,654.966736,786.253479,1013.51001,634.888794,771.675293,1000.938538,618.208435,750.997009,985.067017,7.012683,299.277527,756.565125,37.213802,301.101959,751.121887,59.668861,303.693207,747.719604,-64.613091,248.763977,754.42981,-35.228886,236.554779,750.191895,-3.931866,228.724533,745.639771,-38.541943,307.751282,767.226379,-53.941231,336.66272,761.078064,-82.52726,307.453674,772.58429,-135.683945,274.686371,794.337524,185.973251,980.256104,1492.303833,239.1931,974.133545,1516.279297,290.312408,986.234497,1498.568237,522.162109,-505.049774,835.084229,475.450012,-510.474457,834.002625,468.16394,-445.927979,834.487427,529.911133,-451.805634,834.533386,468.325775,-512.878845,737.648132,466.638397,-436.709442,739.509094,531.61615,-443.3367,740.453796,528.96051,-511.355988,740.371704,278.621674,-94.201241,847.571167,277.926392,-20.655388,847.592651,197.447952,-24.33993,845.515442,201.160126,-93.82225,844.388367,287.755798,-98.600899,742.498901,285.913177,-17.085852,741.873962,192.798798,-20.81213,739.635376,198.352936,-100.162224,738.968384
00100_color_1715976378.357666.png,918,1715976378.354651,713.715881,840.656982,1023.707642,753.290222,895.426025,1019.441101,769.397217,855.032043,1049.667603,744.313416,790.546997,1030.158203,732.083984,755.298279,1017.622009,707.680237,731.026123,1011.346558,662.101013,791.552979,1012.699097,641.042969,777.742981,999.110352,622.771606,758.874878,982.702698,7.031322,299.201508,756.551819,37.192432,301.052612,751.125732,59.673553,303.665802,747.722595,-64.593384,248.732452,754.426636,-35.226467,236.543701,750.184692,-3.928295,228.689301,745.632751,-38.565426,307.735199,767.244263,-53.924782,336.64444,761.034912,-82.714279,307.396973,772.534729,-136.038086,274.876373,794.081604,185.968277,980.254272,1492.284668,239.201477,974.12738,1516.279541,290.313904,986.237183,1498.557983,516.378357,-505.325958,834.952087,469.7276,-509.972046,834.003845,463.329926,-445.404877,834.438538,525.018311,-452.239197,834.382996,462.451111,-512.262329,737.539917,461.838989,-436.213715,739.498413,526.754211,-443.493164,740.40033,523.063965,-511.559296,740.231873,278.619476,-94.233528,847.548828,277.906982,-20.663118,847.598572,197.460754,-24.37063,845.524841,201.193008,-93.842682,844.351135,287.757721,-98.623215,742.470581,285.926483,-17.143301,741.850891,192.563782,-20.787205,739.515564,198.379471,-100.205986,738.944641
00101_color_1715976378.392706.png,922,1715976378.394651,730.564636,840.588684,1024.421021,775.757507,890.59198,1020.382507,786.904846,849.125061,1051.092896,755.011719,787.795532,1032.529541,739.621338,754.102722,1020.03241,712.373169,731.335999,1012.900085,674.009216,796.383301,1011.856567,651.609131,785.000977,998.247375,631.987671,768.880676,982.32196,7.040316,299.114746,756.536316,37.208866,301.044617,751.154541,59.672119,303.650879,747.716431,-64.612793,248.687653,754.431213,-35.217751,236.490646,750.166138,-3.918815,228.669907,745.635498,-38.567429,307.705475,767.275391,-53.893265,336.487946,760.871582,-82.93737,307.313141,772.481262,-136.58403,275.134338,793.796692,185.937668,980.271667,1492.286011,239.211212,974.120972,1516.281006,290.32962,986.219177,1498.555542,507.724945,-505.435059,834.83313,460.841461,-509.533936,833.769226,455.406769,-444.80127,834.371094,517.017883,-452.35675,834.420288,453.694,-511.551605,737.29364,454.032196,-435.382904,739.401367,518.872437,-443.667725,740.407715,514.349854,-511.773956,740.146301,278.628967,-94.229538,847.558655,277.927338,-20.673052,847.587952,197.466278,-24.359613,845.532715,201.200958,-93.843758,844.358337,287.762451,-98.616829,742.475647,285.932556,-17.123999,741.864746,192.746338,-21.36739,738.996094,198.375885,-100.21846,738.932007
00102_color_1715976378.430041.png,926,1715976378.434651,748.88208,837.952332,1025.389771,797.471741,884.430786,1021.816711,805.417542,842.468201,1052.706421,769.416016,783.325562,1033.907959,751.48584,751.051697,1021.432617,722.933716,731.429688,1014.666931,689.291016,799.033447,1013.52356,666.223816,788.023804,998.401367,645.724182,773.326233,982.294434,7.032281,299.098846,756.561768,37.194653,301.025055,751.164246,59.662613,303.648193,747.731873,-64.620918,248.703979,754.471313,-35.210869,236.473633,750.154785,-3.937484,228.666031,745.628357,-38.599716,307.920197,767.498901,-54.154472,336.325653,760.518799,-83.360451,307.66095,772.655273,-137.903992,276.602203,793.965149,185.982819,980.263,1492.292358,239.223572,974.110596,1516.277344,290.332581,986.204712,1498.550415,497.652161,-505.018341,834.825073,450.692535,-508.899078,833.708374,445.766632,-444.172272,834.224426,507.317291,-452.190552,834.274292,443.562622,-510.888458,737.244324,444.410309,-434.708282,739.446228,509.243195,-443.70694,740.102173,504.219543,-511.481628,740.110474,278.631592,-94.224762,847.554199,277.934937,-20.674644,847.586243,197.467194,-24.373102,845.527283,201.2285,-93.831482,844.348938,287.760986,-98.616699,742.480774,285.937256,-17.136133,741.861511,192.78064,-21.694927,738.672363,198.388992,-100.198936,738.937134
00103_color_1715976378.464936.png,929,1715976378.4646509,762.922302,834.452332,1025.955322,812.878723,879.718384,1022.960693,819.738037,836.945679,1053.160156,782.072083,779.281494,1033.717773,763.238159,747.544922,1020.856018,734.034485,728.64917,1013.770935,702.306641,797.184143,1013.631592,679.238037,787.370667,998.80835,657.968506,771.867371,981.985229,7.026364,299.121613,756.581726,37.180183,301.074188,751.19873,59.649822,303.659393,747.740112,-64.62397,248.718948,754.510986,-35.25415,236.534546,750.217407,-3.959441,228.680542,745.628784,-38.628857,307.7677,767.251587,-53.980965,336.766663,760.985291,-83.537216,307.627808,772.622131,-138.444199,277.01297,793.705322,185.976532,980.24115,1492.29541,239.224503,974.11322,1516.276489,290.327179,986.203796,1498.547974,489.350739,-504.604584,834.719604,442.451935,-508.594025,833.618774,437.378601,-443.769104,834.151917,498.907776,-451.697601,834.182495,435.356476,-510.59967,737.204346,435.831696,-433.999847,739.465454,500.740692,-443.104584,740.114075,495.966187,-511.045349,740.036804,278.629791,-94.216087,847.548218,277.928192,-20.650387,847.589294,197.475113,-24.350203,845.529236,201.201752,-93.810814,844.384827,287.763306,-98.593636,742.466675,285.966125,-17.121567,741.839539,192.774139,-21.757751,738.559998,198.475433,-100.206505,739.078674
00104_color_1715976378.499573.png,932,1715976378.4946508,777.20575,830.959717,1026.799438,828.066711,875.303345,1024.288574,834.173584,831.703979,1053.598999,795.332397,775.254028,1033.018677,775.86377,744.140381,1019.554016,746.332642,725.98938,1012.174255,715.908447,795.40033,1014.274353,692.330322,786.197144,999.50116,670.720398,771.457947,981.980225,6.775985,299.595978,756.930542,37.180393,301.058624,751.224731,59.635696,303.658508,747.748291,-64.774826,248.89743,754.693726,-35.277885,236.459824,750.200928,-3.976777,228.664444,745.624695,-38.620262,307.604187,767.180847,-53.97551,336.845886,761.127441,-83.716736,307.632355,772.65155,-138.974716,277.31076,793.48407,185.980301,980.204712,1492.316406,239.219055,974.128113,1516.275024,290.327454,986.228333,1498.550537,480.517761,-503.674042,834.619446,433.723297,-508.454681,833.526306,427.598541,-443.764374,833.986572,489.203766,-450.526062,834.051819,426.44162,-510.657379,737.213379,425.764282,-434.076538,739.38446,490.883179,-442.054901,739.966064,487.163116,-510.215942,739.904724,278.638367,-94.204391,847.54425,277.936615,-20.646639,847.588867,197.479004,-24.353004,845.506104,201.153412,-93.818878,844.42334,287.766876,-98.594894,742.467529,285.948242,-17.111061,741.851379,192.772415,-21.791843,738.520813,198.154831,-100.021507,738.823181
00105_color_1715976378.534623.png,936,1715976378.5346508,795.601868,827.514404,1027.974243,848.115112,870.031006,1026.577026,852.384399,825.736267,1055.20752,811.711426,771.090332,1033.094727,791.207031,740.998596,1018.938904,760.970764,724.050354,1011.089111,733.109314,794.469971,1014.702209,709.357544,786.273499,999.515076,687.180237,772.920837,981.778809,6.899665,299.26236,756.783997,37.012138,301.304932,751.431458,59.419537,303.999146,747.999268,-64.804543,248.856644,754.728577,-35.902111,237.211044,750.683289,-4.029247,228.63588,745.619202,-38.686584,307.59903,767.175354,-54.028984,336.907074,761.127441,-84.048782,307.741119,772.684204,-139.812134,277.804718,793.16748,185.977478,980.204407,1492.313477,239.213821,974.130005,1516.277466,290.333679,986.258484,1498.567505,467.522247,-502.179871,834.539978,420.941254,-508.601654,833.432861,412.956573,-443.906921,833.76947,474.848053,-449.005554,833.730896,413.659302,-511.303772,737.321411,410.84613,-434.582428,739.017761,476.273407,-440.656891,739.737549,474.199249,-508.648468,739.870178,278.622681,-94.186256,847.554688,277.933105,-20.641327,847.595337,197.479065,-24.359755,845.513,201.186844,-93.823051,844.403992,287.777893,-98.580887,742.479187,285.943268,-17.108492,741.854309,192.766068,-21.781626,738.538147,198.10675,-100.011353,738.77887
00106_color_1715976378.569596.png,939,1715976378.5646508,808.452271,826.048157,1029.010986,862.611206,866.517944,1028.345093,864.690979,821.820862,1056.966309,822.014343,768.874207,1034.38269,800.426208,740.806763,1020.944702,769.534424,724.238586,1012.12738,744.697449,795.785339,1014.980225,721.131042,787.711914,998.480469,698.543518,775.880432,981.194824,6.860826,299.258209,756.824463,36.988102,301.279694,751.459717,59.472691,303.796906,747.914368,-64.844261,248.860001,754.763977,-35.924786,237.190445,750.661987,-4.200602,228.900589,745.80719,-38.729088,307.593781,767.221008,-54.234932,336.706726,760.90155,-84.297462,307.792816,772.694458,-140.351974,278.173065,792.869202,185.957916,980.242981,1492.298096,239.213852,974.12085,1516.280151,290.322296,986.22406,1498.569214,456.914062,-501.351654,834.418945,410.33609,-508.262939,833.297852,401.378052,-443.750519,833.646973,463.291351,-447.923431,833.61615,403.225494,-511.361176,737.352112,399.138702,-434.636108,738.773193,464.431091,-439.60672,739.601013,464.213715,-508.338043,739.839417,278.637421,-94.212181,847.555908,277.931793,-20.652962,847.600281,197.476685,-24.358761,845.521484,201.204636,-93.820732,844.387085,287.774719,-98.595711,742.483215,285.931763,-17.14535,741.84314,192.763763,-21.797228,738.540955,198.085846,-99.98465,738.74762
00107_color_1715976378.604638.png,943,1715976378.604651,823.393066,824.371582,1030.064087,880.140686,860.952026,1029.939087,878.925842,816.741333,1059.016235,833.598083,766.208069,1036.116089,810.65802,739.302734,1022.403687,778.78363,724.116699,1012.827637,758.39093,797.652527,1014.821899,734.710693,792.280029,999.20575,711.954529,780.234863,980.209717,6.771544,299.21875,756.889832,36.878979,301.275787,751.5448,59.368717,303.778137,747.94342,-64.93895,248.828659,754.762024,-36.055336,237.277344,750.714539,-4.261384,228.845169,745.787964,-38.831161,307.578888,767.259827,-54.264656,336.588898,760.76062,-84.623207,307.808136,772.652283,-141.119659,278.802979,792.54657,185.973755,980.20929,1492.303467,239.212311,974.121826,1516.281006,290.316864,986.213501,1498.557495,441.235748,-500.454834,834.199158,394.672455,-507.836517,833.163879,385.014801,-443.397827,833.456055,447.03772,-446.911285,833.466187,387.408875,-511.095154,737.200989,382.853577,-434.496155,738.542236,448.175262,-438.695862,739.416443,448.307465,-506.934479,739.635498,278.63916,-94.218193,847.544983,277.927124,-20.668653,847.592712,197.470245,-24.347214,845.525269,201.206284,-93.834892,844.375854,287.765472,-98.590836,742.474548,285.949463,-17.130985,741.842346,192.76474,-21.790022,738.551147,198.068726,-100.001778,738.715454
00108_color_1715976378.639403.png,946,1715976378.634651,832.894653,821.883484,1029.802979,890.692322,856.561035,1030.257324,887.508545,812.551636,1059.442383,841.088806,763.523499,1036.102295,817.394775,737.176086,1021.756775,785.210449,722.422852,1011.547791,767.468262,796.886108,1013.216614,743.66626,792.528259,997.645508,720.688538,781.200195,978.260193,6.689815,299.127106,756.923157,36.791458,301.248413,751.609924,59.270649,303.728699,747.946533,-65.031906,248.767624,754.758911,-36.18026,237.218597,750.667542,-4.358868,228.80542,745.770813,-38.94648,307.254425,766.969666,-54.292004,337.0271,761.357239,-84.883949,307.777588,772.62915,-141.624725,279.054993,792.254578,185.963638,980.259338,1492.273804,239.214188,974.123474,1516.282837,290.321564,986.239258,1498.567383,428.674133,-500.127625,834.088806,382.159088,-507.695557,833.059265,372.321228,-443.426392,833.330566,434.342316,-446.663849,833.27771,374.770264,-510.95517,736.989075,370.179535,-434.663635,738.273499,435.338531,-438.233521,739.284485,435.88916,-506.582275,739.447632,278.635071,-94.224121,847.549072,277.931793,-20.697903,847.582031,197.467331,-24.332088,845.546753,201.21106,-93.831062,844.36908,287.768097,-98.615196,742.477295,285.938568,-17.12742,741.861084,192.763428,-21.784271,738.548462,198.063736,-100.006767,738.720337
00109_color_1715976378.675000.png,950,1715976378.674651,842.167053,816.602051,1028.034058,900.725037,850.002502,1029.579346,896.343811,805.964233,1058.438599,849.182434,757.749756,1033.486328,825.10199,732.453857,1018.953064,792.678467,718.391602,1008.091675,776.274841,793.375305,1010.734192,753.13324,789.065063,993.820557,730.003784,778.960022,974.736877,6.550257,299.087646,756.971924,36.68969,301.193298,751.638184,59.290562,303.751343,748.125122,-65.130936,248.723267,754.774475,-36.268875,237.249329,750.704834,-4.490098,228.815262,745.769836,-39.063374,307.278503,767.040771,-54.37682,337.011597,761.314453,-85.183998,307.868744,772.642273,-142.376587,279.699402,791.97052,185.979294,980.267273,1492.275513,239.214005,974.124451,1516.278564,290.322418,986.218628,1498.552124,411.946136,-499.816956,833.886292,365.539337,-507.600952,832.878296,355.059204,-443.528748,833.144226,417.115356,-446.176514,833.176575,358.223022,-511.200897,736.810242,352.924957,-434.717926,738.028931,418.157623,-437.685028,739.237915,419.520905,-506.367096,739.481628,278.635773,-94.226532,847.541321,277.930328,-20.683567,847.587891,197.472351,-24.352894,845.52356,201.189819,-93.842506,844.372559,287.773529,-98.62561,742.477966,285.950928,-17.142769,741.844116,192.763123,-21.800669,738.546448,198.065231,-99.995651,738.719604
00110_color_1715976378.709965.png,954,1715976378.7146509,847.314575,809.460876,1025.771973,906.155823,842.507568,1028.327637,901.079529,798.258728,1056.729614,853.920654,750.660461,1030.771484,830.015808,725.454895,1015.527222,797.746216,712.529785,1004.606506,781.547424,786.957825,1007.2547,758.231384,783.241394,990.859131,735.650391,773.062744,970.755188,6.479349,299.015045,757.012146,36.624466,301.127625,751.654114,59.202015,303.595886,747.967102,-65.197685,248.667099,754.743652,-36.318283,237.215622,750.672546,-4.533926,228.822235,745.781799,-39.15036,307.242737,767.075867,-54.433567,336.986481,761.317383,-85.452599,307.902679,772.665588,-142.90332,280.090485,791.607483,185.958038,980.206848,1492.26416,239.218445,974.121704,1516.284424,290.316132,986.202637,1498.53772,394.27243,-499.680603,833.649963,347.818604,-507.38089,832.670532,337.494507,-443.2034,832.896179,399.516663,-446.118134,832.956421,340.477051,-510.816589,736.594482,335.352722,-434.371063,737.94458,400.590485,-437.690186,738.948181,401.895935,-506.21463,739.163574,278.637939,-94.227417,847.533386,277.930695,-20.666708,847.588684,197.473297,-24.385212,845.513489,201.205368,-93.852951,844.385681,287.779877,-98.603722,742.461914,285.971375,-17.141727,741.839294,192.765015,-21.782339,738.541016,198.063278,-100.013184,738.719177
00111_color_1715976378.745404.png,957,1715976378.7446508,848.419556,803.269714,1024.65979,907.111267,836.507446,1027.707397,902.123596,791.939392,1055.726929,855.140564,744.464722,1029.483887,831.406738,719.658691,1013.977661,799.217224,706.648254,1002.905518,782.86499,780.580933,1005.573242,759.623962,777.039612,989.078857,737.154663,766.848511,968.794495,6.405703,298.900116,756.973083,36.554104,301.066162,751.663757,59.097637,303.427032,747.792419,-65.249847,248.580612,754.708557,-36.351711,237.170898,750.664001,-4.561456,228.799774,745.768433,-39.216209,307.147705,767.042786,-54.493908,336.904816,761.312744,-85.609497,307.869843,772.674683,-143.310303,280.331573,791.486877,185.962372,980.238342,1492.30835,239.211853,974.124573,1516.279419,290.328064,986.24054,1498.56311,380.571686,-499.715332,833.465271,334.166443,-507.131531,832.515198,324.230774,-442.882904,832.785522,386.202606,-446.276917,832.723206,326.665741,-510.458099,736.450317,322.13031,-433.94519,737.830627,387.402557,-437.848755,738.731689,388.281464,-506.504303,739.135681,278.629547,-94.202423,847.548828,277.935669,-20.651354,847.590942,197.471085,-24.351519,845.507874,201.168442,-93.835098,844.40686,287.767822,-98.598984,742.476074,285.937988,-17.115772,741.865967,192.76915,-21.783983,738.537292,198.051605,-99.985741,738.732483
00112_color_1715976378.780007.png,961,1715976378.7846508,846.360596,794.234375,1024.437012,904.775635,828.063965,1027.706543,900.143494,783.329346,1055.672363,853.671265,735.460083,1029.021851,830.079163,709.137878,1012.955078,798.12323,697.38324,1002.543335,781.043945,770.872375,1005.507324,757.975342,768.311584,989.386597,735.318542,756.604492,968.710449,6.322039,298.799713,757.01593,36.501919,300.993286,751.696838,59.007309,303.302277,747.677612,-65.334915,248.423523,754.657715,-36.402897,237.053497,750.614319,-4.596875,228.739105,745.734741,-39.282413,307.019989,767.043152,-54.565205,336.822083,761.345459,-85.828461,307.779755,772.686279,-143.827911,280.549927,791.277405,185.962296,980.257263,1492.305176,239.21109,974.124451,1516.27771,290.320953,986.229736,1498.539917,363.157745,-499.723511,833.342834,316.695038,-506.527374,832.236145,307.566162,-442.213287,832.51825,369.484039,-446.351166,832.668579,309.53775,-509.700531,736.071167,305.755005,-432.85965,737.780151,371.026794,-437.530426,738.958313,371.146454,-506.471863,738.916504,278.639069,-94.161598,847.5495,277.940613,-20.672016,847.594421,197.466721,-24.342432,845.519287,201.147217,-93.83564,844.427673,287.776062,-98.589943,742.481934,285.947571,-17.136217,741.846985,192.761414,-21.792322,738.53772,198.057495,-99.998405,738.724426
00113_color_1715976378.815049.png,964,1715976378.8146508,842.414917,787.332275,1025.036621,900.467407,821.796814,1028.097168,896.394653,777.008362,1056.071777,850.36438,728.758545,1029.68335,826.919617,702.242737,1013.628601,795.020569,690.222168,1003.402954,777.356812,763.305237,1006.355286,753.980103,758.553711,989.119812,731.69342,749.499756,969.952026,6.290107,298.726135,757.055298,36.522514,300.930786,751.730957,58.982586,303.268127,747.690063,-65.371948,248.367813,754.667236,-36.433807,237.02388,750.619995,-4.62344,228.707748,745.738953,-39.332527,306.983917,767.083435,-54.608768,336.775909,761.36615,-85.986298,307.758392,772.697632,-144.130341,280.758698,791.16272,185.959732,980.274109,1492.296875,239.201736,974.135071,1516.292603,290.316803,986.233276,1498.557617,350.601959,-499.688416,833.1745,304.067078,-506.082642,832.08313,295.363678,-441.727325,832.320068,357.29248,-446.221039,832.533936,296.908356,-509.174286,735.792664,293.566803,-432.387482,737.48407,358.779236,-437.553101,738.671509,358.5047,-506.312256,738.750427,278.643616,-94.170517,847.557068,277.926971,-20.622395,847.617859,197.471527,-24.349813,845.520996,201.122711,-93.833298,844.449219,287.761658,-98.579636,742.487,285.932159,-17.095535,741.875854,192.757278,-21.784782,738.546265,198.056244,-99.982018,738.744141
00114_color_1715976378.850170.png,968,1715976378.854651,834.478577,778.399597,1026.03894,892.022339,813.701782,1028.70166,888.832886,768.947388,1056.704102,843.479248,720.019592,1030.608276,820.25177,693.632751,1015.175232,788.588074,681.045959,1004.927185,769.525452,752.911621,1007.513306,746.400818,747.852966,990.479065,723.984131,738.523987,971.821533,6.220213,298.640045,757.055969,36.401272,300.718353,751.577087,58.921307,303.227692,747.696716,-65.419685,248.24704,754.64624,-36.486649,236.902588,750.574219,-4.641208,228.660995,745.714661,-39.39658,306.908936,767.118042,-54.662796,336.6828,761.36261,-86.118553,307.700714,772.741455,-144.442627,280.937653,791.033386,185.965195,980.238831,1492.299561,239.203354,974.123657,1516.283691,290.321289,986.262451,1498.578369,334.879242,-498.771973,832.973206,288.43515,-505.648682,831.832336,279.266266,-441.318237,832.067383,341.206787,-445.353912,832.317383,281.359711,-508.965179,735.641357,277.45755,-432.10791,737.199036,342.742462,-436.65979,738.434875,342.783173,-505.401917,738.518738,278.618042,-94.206436,847.559387,277.936493,-20.644291,847.61084,197.451324,-24.342392,845.538757,201.1604,-93.841713,844.421692,287.761719,-98.593689,742.504333,285.934448,-17.133509,741.859131,192.752243,-21.784868,738.547546,198.061722,-100.002464,738.743958
00115_color_1715976378.885012.png,971,1715976378.884651,826.994446,772.081848,1026.87146,884.105469,807.974548,1029.20874,881.550903,763.192505,1057.200806,836.712097,714.508972,1031.725098,813.702881,687.186279,1016.181824,781.975952,673.240295,1005.586121,762.21582,745.840393,1008.75592,739.327698,741.362,992.292419,716.943848,730.751404,973.037354,6.155047,298.540436,757.080566,36.351643,300.614319,751.553223,58.883343,303.165924,747.695007,-65.471748,248.129929,754.611328,-36.502636,236.813919,750.545959,-4.664841,228.60994,745.70752,-39.466461,306.867371,767.228882,-54.715153,336.358948,761.098145,-86.212387,307.613586,772.778503,-144.644974,280.998474,790.933228,185.928894,980.259216,1492.286011,239.211136,974.124695,1516.282471,290.315125,986.220398,1498.55481,325.047211,-497.942017,832.822327,278.630859,-505.32962,831.693542,268.593506,-441.122742,831.923401,330.619537,-444.410034,832.176819,271.425476,-508.935394,735.532471,266.839935,-432.042908,737.076172,332.06366,-435.933167,738.201599,333.14975,-504.623779,738.525574,278.635925,-94.229218,847.568481,277.931335,-20.668026,847.609253,197.456985,-24.345673,845.556641,201.196167,-93.845413,844.409363,287.770233,-98.61808,742.493652,285.923431,-17.116896,741.888916,192.757324,-21.804678,738.562012,198.069946,-100.009171,738.741211
00116_color_1715976378.920021.png,975,1715976378.924651,815.404724,763.783691,1028.105957,871.844299,800.805908,1029.955566,870.391968,755.94458,1057.94043,826.073975,704.459717,1031.99646,803.627502,678.84491,1017.829285,772.188416,664.362488,1007.640503,751.114685,736.349304,1010.407776,727.937378,728.626892,991.926819,705.803772,720.416687,975.13562,6.076869,298.459076,757.078552,36.260544,300.559967,751.554749,58.819412,303.106476,747.692627,-65.571205,248.074142,754.607849,-36.597218,236.724533,750.494873,-4.735191,228.539398,745.671875,-39.589428,306.789154,767.205322,-54.784119,336.316925,761.109558,-86.369545,307.590302,772.805725,-144.908829,281.130341,790.764832,185.966812,980.262512,1492.292725,239.203461,974.127197,1516.285889,290.317657,986.219971,1498.553467,314.466187,-496.591705,832.712585,268.309814,-505.133759,831.507812,256.838013,-441.19519,831.68158,318.833466,-443.080566,832.013184,261.172333,-508.898193,735.340332,254.839417,-431.103119,737.70282,320.253235,-434.534454,738.03479,322.750336,-503.350372,738.369141,278.606476,-94.259285,847.56012,277.911224,-20.687498,847.611877,197.438065,-24.372105,845.545471,201.151627,-93.850845,844.420532,287.752625,-98.632568,742.509155,285.902344,-17.136364,741.884827,192.738007,-21.803497,738.568848,198.057449,-100.019035,738.739136
00117_color_1715976378.955012.png,978,1715976378.9546509,805.866882,757.766968,1029.22937,861.61322,795.872253,1030.671753,861.249451,750.85321,1058.611816,817.565125,698.671997,1033.174438,795.556335,672.583191,1019.089111,764.233093,657.595825,1009.184814,741.939575,729.328125,1012.292358,719.037659,722.98175,995.70105,696.781311,712.41217,977.321045,6.061579,298.439056,757.085876,36.246918,300.544128,751.545349,58.803616,303.100769,747.697876,-65.580505,248.039948,754.593628,-36.613941,236.666626,750.48877,-4.747734,228.505722,745.641785,-39.627113,306.791656,767.2724,-54.792831,336.280701,761.095398,-86.438324,307.541656,772.790771,-145.030624,281.174347,790.704712,185.97377,980.196533,1492.317993,239.212555,974.122375,1516.277344,290.326904,986.251038,1498.572021,308.545837,-495.896118,832.613525,262.557465,-505.102325,831.457336,249.908066,-441.409698,831.63678,311.954224,-442.182251,832.022339,255.857849,-507.785675,734.690002,248.314514,-432.703552,736.562988,313.3172,-433.439728,737.984985,317.009216,-502.33548,738.206482,278.604523,-94.239838,847.570068,277.893707,-20.674513,847.622314,197.434265,-24.365938,845.554443,201.162659,-93.887192,844.406616,287.735504,-98.624832,742.503418,285.905792,-17.115017,741.888611,192.740723,-21.79739,738.558289,198.043701,-100.041611,738.726746
00118_color_1715976378.989915.png,982,1715976378.9946508,792.188538,750.656311,1030.913696,847.066895,789.94635,1031.625488,848.200867,744.905762,1059.467773,805.614441,692.653931,1034.969604,783.918945,664.845459,1020.514038,752.99115,649.457642,1011.131531,728.676697,720.266541,1014.427917,705.307007,714.203003,999.023254,683.593201,702.315491,980.337524,6.056116,298.416046,757.091614,36.253078,300.532623,751.541504,58.808407,303.082458,747.681885,-65.581825,247.991882,754.576172,-36.607182,236.631424,750.476013,-4.73691,228.480469,745.627136,-39.560696,306.960693,767.518982,-54.881462,336.23877,761.119812,-86.461037,307.495239,772.803345,-145.074677,281.155823,790.644958,185.97641,980.227539,1492.302124,239.204178,974.133301,1516.276245,290.31897,986.260193,1498.570557,304.171753,-494.947937,832.518127,258.382812,-505.08075,831.366638,244.581192,-441.537292,831.503235,306.644806,-441.251526,831.938416,251.572845,-509.134949,735.192749,242.880753,-433.283905,736.231567,307.905182,-432.590393,737.894958,312.607574,-501.199127,738.146912,278.591217,-94.246101,847.572693,277.88092,-20.695887,847.614014,197.416687,-24.363041,845.554993,201.141037,-93.859291,844.409851,287.743622,-98.63694,742.493103,285.890747,-17.133894,741.875061,192.726288,-21.805525,738.558594,198.034134,-100.026657,738.745972
00119_color_1715976379.024378.png,985,1715976379.0246508,781.355042,746.054932,1031.988281,835.999634,786.254517,1032.412598,838.025574,741.01355,1059.995239,795.887634,688.281555,1035.967896,774.396423,660.381897,1021.648438,743.498413,644.388733,1012.648682,718.482483,714.974426,1016.676331,694.90863,708.600891,1001.422546,673.429077,695.854553,982.61792,6.080703,298.416565,757.082947,36.256454,300.546753,751.550232,58.81517,303.103485,747.688965,-65.578888,247.997391,754.599548,-36.612984,236.625946,750.486511,-4.736312,228.483826,745.625122,-39.59972,306.809753,767.340942,-54.793449,336.482635,761.402466,-86.431351,307.520386,772.818359,-145.068695,281.172943,790.678345,185.958038,980.309814,1492.322754,239.199432,974.139709,1516.286743,290.321198,986.267883,1498.568115,302.94809,-494.613312,832.586365,257.196045,-505.072662,831.32019,242.946777,-441.651154,831.465515,305.041656,-440.919342,831.931335,250.528091,-507.685242,734.486084,241.42131,-433.426331,736.050903,306.289825,-432.278687,737.91571,311.43988,-500.754425,738.125793,278.594147,-94.220932,847.576843,277.891937,-20.66419,847.631958,197.433701,-24.350521,845.554199,201.090088,-93.857567,844.45105,287.734589,-98.578102,742.511597,285.885284,-17.114227,741.880981,192.740768,-21.783588,738.56604,198.01918,-100.002739,738.755432
00120_color_1715976379.059322.png,988,1715976379.0546508,770.725952,742.759583,1033.429077,825.081177,782.991516,1033.218384,827.601318,737.899414,1060.881104,785.522888,684.989563,1037.288452,764.071899,656.789978,1023.106079,733.133423,640.810913,1014.58728,707.841309,711.111328,1018.537415,684.160645,704.553833,1003.437256,662.5177,691.685242,984.910156,6.095475,298.407318,757.092651,36.266796,300.534851,751.539978,58.823265,303.106232,747.694092,-65.559631,247.99176,754.600586,-36.5891,236.609375,750.489258,-4.713935,228.487167,745.628418,-39.53104,306.943665,767.504761,-54.787975,336.21582,761.107117,-86.388298,307.484589,772.837158,-145.005112,281.15097,790.758667,185.956253,980.235046,1492.323975,239.194748,974.130127,1516.284912,290.32019,986.253723,1498.56958,303.26532,-494.477173,832.551575,257.448425,-504.901459,831.425232,243.311447,-441.495178,831.53479,305.435181,-440.769928,831.804016,250.225967,-509.059143,735.226868,241.619781,-433.781464,735.733582,306.387939,-432.260315,737.782104,311.522156,-500.748566,738.092163,278.60733,-94.229729,847.597229,277.909149,-20.678173,847.626343,197.439606,-24.369415,845.544189,201.163147,-93.842255,844.401611,287.759247,-98.608368,742.50824,285.89621,-17.097265,741.898438,192.733536,-21.803102,738.552673,198.053604,-100.000443,738.754333
00121_color_1715976379.094337.png,992,1715976379.094651,756.61908,739.083069,1034.672241,811.222046,779.233459,1033.836792,813.866577,734.591553,1061.991577,771.501465,681.826904,1039.273926,749.741821,653.367493,1025.608521,718.684692,637.148438,1017.227417,693.610596,707.620911,1020.591736,670.110046,700.736206,1005.329468,647.755981,688.796814,987.588745,6.105064,298.432648,757.07843,36.292988,300.556427,751.534363,58.838177,303.125702,747.690857,-65.530602,247.998474,754.59668,-36.554867,236.641312,750.488281,-4.669366,228.504181,745.632324,-39.530273,306.830078,767.356567,-54.772324,336.215698,761.103516,-86.290001,307.482819,772.868774,-144.853928,281.063873,790.915222,185.938263,980.291016,1492.325439,239.196472,974.131104,1516.285278,290.315308,986.263367,1498.572144,305.517303,-494.313751,832.569214,259.755981,-504.660004,831.498474,245.542374,-441.250702,831.60907,307.632416,-440.590912,831.88562,252.884842,-507.671661,734.849426,243.588943,-433.687927,735.690369,308.593018,-432.132324,737.776794,313.752075,-500.643616,738.11731,278.626282,-94.207184,847.583313,277.914032,-20.651051,847.624817,197.448685,-24.356724,845.534973,201.161667,-93.839172,844.438599,287.749786,-98.589752,742.518494,285.895813,-17.077267,741.899414,192.747879,-21.767511,738.575745,198.054443,-99.983124,738.762451
00122_color_1715976379.129272.png,995,1715976379.124651,746.68927,736.944397,1035.863281,801.2724,776.936646,1034.347778,804.083252,732.89447,1062.859253,761.141418,678.373901,1039.809204,739.468933,651.131165,1027.197754,708.276855,634.972717,1019.155518,683.488525,705.416077,1021.911499,659.818481,698.539978,1006.83667,637.717285,686.194702,989.093933,6.099521,298.422211,757.0625,36.294415,300.521667,751.523865,58.832512,303.108917,747.685364,-65.524414,247.958939,754.570862,-36.529716,236.610703,750.468323,-4.671855,228.472961,745.612488,-39.559742,306.776886,767.328369,-54.776459,336.437103,761.447571,-86.228539,307.413696,772.84845,-144.723572,280.893677,791.015869,185.948517,980.261414,1492.285156,239.200241,974.129578,1516.285645,290.307648,986.251709,1498.570679,309.217194,-494.002258,832.629761,263.453033,-504.408173,831.507629,249.268982,-441.001312,831.658386,311.31601,-440.330658,831.867065,256.543732,-507.346863,734.694519,247.259644,-432.960999,736.141663,312.353638,-431.761902,737.851685,317.563141,-500.408356,738.192078,278.63147,-94.251404,847.573547,277.916351,-20.693235,847.617798,197.456757,-24.367216,845.548767,201.194824,-93.879646,844.396667,287.760956,-98.628685,742.500977,285.919617,-17.126673,741.884888,192.750153,-21.775909,738.587708,198.066772,-100.016769,738.738953
00123_color_1715976379.163664.png,999,1715976379.164651,734.221375,734.591187,1036.927612,788.798767,774.429321,1034.7323,791.61377,728.685059,1062.426514,748.848389,676.457092,1041.440063,726.964478,648.618164,1028.6604,695.734985,632.392334,1020.920166,670.983826,702.853149,1023.407837,647.054932,695.988831,1008.708008,624.866577,683.360107,991.02179,6.082006,298.408539,757.028625,36.276123,300.546234,751.516968,58.833515,303.107056,747.67688,-65.498901,247.933044,754.551941,-36.517189,236.598648,750.460999,-4.626557,228.481079,745.59613,-39.505875,306.758484,767.341675,-54.776543,336.424042,761.485535,-86.149818,307.301056,772.87085,-144.511917,280.639954,791.200684,185.930817,980.255493,1492.272461,239.200912,974.138367,1516.289795,290.310913,986.251587,1498.573242,316.354645,-493.442566,832.745422,270.587128,-503.747406,831.616577,256.513519,-440.308777,831.766235,318.598358,-439.68045,832.033203,263.800018,-506.792603,734.984558,254.514908,-432.317963,736.336975,319.50351,-431.096191,737.970459,324.594208,-499.816956,738.340942,278.641907,-94.221489,847.578796,277.937866,-20.688597,847.609253,197.470367,-24.367256,845.553955,201.182465,-93.842735,844.405334,287.775116,-98.611176,742.501892,285.927765,-17.105787,741.891907,192.771484,-21.794287,738.570435,198.061859,-99.999428,738.74353
00124_color_1715976379.198533.png,1002,1715976379.194651,725.624451,733.240051,1037.217407,780.114258,773.114746,1034.744019,783.087463,727.311279,1062.497192,740.296509,675.147278,1041.910645,718.367737,647.18811,1029.272949,687.201782,630.926819,1021.645325,662.345703,701.439087,1023.876648,638.522095,694.242188,1009.15979,616.214722,681.62915,991.736084,6.101843,298.438995,757.047607,36.285133,300.55545,751.521545,58.838936,303.115417,747.669006,-65.487885,247.930283,754.544189,-36.486641,236.579025,750.441772,-4.604884,228.494766,745.587036,-39.469967,306.915497,767.51532,-54.865986,336.167084,761.199646,-86.115555,307.249908,772.85968,-144.341049,280.463104,791.282104,185.939575,980.304077,1492.286133,239.19899,974.133484,1516.279297,290.312927,986.267822,1498.568359,323.127594,-493.061218,832.778748,277.357452,-503.331421,831.726013,263.269653,-439.94455,831.858887,325.400879,-439.278259,832.161072,270.450897,-506.233154,734.985718,261.566833,-432.323944,736.065918,326.372467,-430.693115,738.145081,331.42392,-499.316467,738.385681,278.646484,-94.218071,847.542908,277.941315,-20.665607,847.613037,197.469604,-24.359585,845.54071,201.169037,-93.870949,844.414673,287.770477,-98.614166,742.476501,285.943573,-17.135506,741.85376,192.769318,-21.784212,738.569275,198.079391,-100.027451,738.726624
00125_color_1715976379.233446.png,1006,1715976379.2346509,715.496521,731.116272,1036.269897,769.281982,771.907654,1034.027222,772.456238,725.173889,1061.536987,729.975464,673.772766,1041.428711,708.300781,645.547119,1028.786011,677.199524,629.020142,1021.263245,651.885498,699.468933,1023.379333,628.136475,692.372864,1008.807068,605.914246,679.269714,990.945007,6.11489,298.472504,757.050781,36.312054,300.553772,751.484863,58.853371,303.136627,747.669739,-65.447487,247.935226,754.533142,-36.46381,236.626877,750.481934,-4.581724,228.520294,745.582214,-39.473637,306.798004,767.370178,-54.836399,336.172974,761.205078,-86.005203,307.199066,772.863953,-144.10553,280.225647,791.454346,185.938278,980.269104,1492.293335,239.196503,974.131897,1516.279663,290.310486,986.247375,1498.55249,334.421143,-492.452698,833.006287,288.666199,-502.924316,831.919861,274.367188,-439.493988,832.083923,336.456238,-438.702515,832.289307,281.85849,-505.827606,735.29895,272.567017,-432.045319,736.297974,337.332397,-430.076477,738.200928,342.680084,-498.573517,738.616516,278.644836,-94.216827,847.552979,277.94928,-20.703793,847.583923,197.482407,-24.370937,845.522766,201.16864,-93.847466,844.441895,287.780365,-98.605568,742.49231,285.949738,-17.123793,741.859985,192.78331,-21.771257,738.570068,198.069244,-100.00235,738.734375
00126_color_1715976379.267905.png,1009,1715976379.2646508,708.016907,729.994324,1035.101318,761.449036,771.604431,1033.270508,765.012329,725.632629,1061.113159,722.919922,672.869568,1040.317627,701.534058,644.433105,1027.543213,670.626404,627.680237,1019.917969,644.836792,697.756897,1021.709656,621.154114,690.572815,1007.029175,599.000488,677.610291,989.50354,6.135529,298.513062,757.07428,36.422844,300.625397,751.618835,58.865582,303.163452,747.671265,-65.42952,247.942947,754.527954,-36.436386,236.645462,750.485107,-4.555101,228.561447,745.598755,-39.474945,306.731476,767.294556,-54.774303,336.427277,761.528381,-85.923965,307.172394,772.863403,-143.856171,280.016754,791.583374,185.945297,980.291687,1492.304688,239.197784,974.135559,1516.280518,290.306183,986.277344,1498.583374,344.358398,-491.855804,833.120667,298.649017,-502.570862,832.109863,284.060852,-439.171265,832.290955,346.175201,-438.315338,832.351074,291.333313,-507.065369,736.171692,281.908905,-431.233948,736.799622,346.975189,-429.787415,738.350586,352.559875,-498.233795,738.692078,278.63797,-94.199188,847.551331,277.929016,-20.650787,847.618958,197.473663,-24.364685,845.513794,201.172073,-93.839462,844.432312,287.771729,-98.588371,742.482239,285.94632,-17.130589,741.852173,192.785019,-21.774082,738.565186,198.070709,-99.998459,738.746338
00127_color_1715976379.302703.png,1013,1715976379.3046508,698.433655,728.3573,1033.015381,751.419739,771.924561,1032.285034,755.477356,726.09198,1060.154053,714.161194,672.023865,1038.515137,693.172974,643.2948,1025.524536,662.485657,626.201538,1017.869934,635.759277,696.024048,1019.820435,612.348877,688.035278,1004.763611,590.346558,675.154358,987.13446,6.155438,298.540649,757.083008,36.375343,300.823944,751.788574,58.885891,303.184052,747.663513,-65.392784,247.995651,754.558838,-36.417812,236.700165,750.508545,-4.562469,228.640396,745.642212,-39.442894,306.719421,767.229614,-54.758289,336.486725,761.546631,-85.787544,307.184814,772.846252,-143.504227,279.817566,791.756165,185.949829,980.228333,1492.30127,239.199005,974.141174,1516.289917,290.304443,986.265137,1498.574219,359.14447,-491.428314,833.297668,313.419891,-502.286072,832.342529,298.650085,-438.933075,832.559937,360.761658,-437.672028,832.590454,306.290222,-505.104706,735.533752,296.380463,-431.198975,736.887512,361.358246,-429.198029,738.546387,367.189758,-497.84491,738.871948,278.642944,-94.210213,847.549255,277.941345,-20.666019,847.612732,197.481949,-24.370321,845.531799,201.147675,-93.841827,844.444214,287.775208,-98.587776,742.482117,285.942932,-17.088511,741.87677,192.781082,-21.778074,738.566406,198.065125,-99.999413,738.742371
00128_color_1715976379.337240.png,1016,1715976379.334651,691.367126,728.340027,1032.195312,743.736572,772.246704,1031.261597,748.35614,726.374817,1059.185303,707.623474,671.952148,1037.440186,687.116943,642.865784,1024.230225,656.5896,625.497681,1016.46283,629.036255,694.919739,1018.505127,605.508179,687.184082,1003.537292,583.873108,673.722107,985.760193,6.185243,298.571747,757.10675,36.371193,300.869293,751.800476,58.909386,303.189087,747.679871,-65.369812,248.04483,754.565796,-36.392769,236.725021,750.510132,-4.609264,228.798355,745.730286,-39.429268,306.724823,767.207947,-54.75053,336.509827,761.545776,-85.651558,307.209534,772.844116,-143.197891,279.688782,792.006104,185.95961,980.274109,1492.301636,239.19606,974.13092,1516.285278,290.311188,986.266052,1498.580811,371.267212,-491.094269,833.475586,325.611755,-502.288757,832.450378,310.595093,-439.051208,832.61261,372.710297,-437.477051,832.712769,318.520538,-505.246765,735.797607,308.37027,-431.49118,736.814575,373.268188,-428.766174,738.776306,379.439941,-497.425964,739.065186,278.653259,-94.204941,847.538635,277.951996,-20.668192,847.603333,197.48262,-24.367891,845.527283,201.185379,-93.84465,844.423645,287.792389,-98.58847,742.478149,285.954559,-17.119606,741.861389,192.771072,-21.783737,738.564514,198.074661,-99.992577,738.740662
00129_color_1715976379.371812.png,1020,1715976379.374651,681.655212,728.30896,1030.887695,733.49884,772.967163,1030.325439,738.800537,727.119202,1058.002197,698.813293,671.990112,1035.685059,678.709839,642.813843,1022.338013,648.518616,624.987122,1014.530273,619.973206,694.030151,1016.846313,596.231628,686.439087,1002.028442,575.148621,672.122192,983.848938,6.213727,298.642822,757.132263,36.417927,300.862335,751.787292,58.977158,303.389618,747.858948,-65.342735,248.110809,754.585083,-36.3596,236.802887,750.559753,-4.339426,228.282425,745.41571,-39.386356,306.836761,767.262939,-54.74369,336.578522,761.572327,-85.453148,307.300964,772.844055,-142.708435,279.555847,792.413025,185.940445,980.276489,1492.309082,239.1996,974.138428,1516.289062,290.306641,986.255432,1498.571655,388.432465,-491.142151,833.699219,342.747986,-502.148987,832.663208,327.850067,-438.864746,832.890625,389.885742,-437.466492,832.908203,335.294891,-506.455414,736.747742,325.618469,-431.325073,737.164856,390.486969,-429.047882,738.760498,396.543365,-497.298431,739.2276,278.663239,-94.208855,847.549927,277.954468,-20.650564,847.614258,197.492661,-24.360847,845.523865,201.205704,-93.826851,844.403625,287.793152,-98.595627,742.475464,285.959747,-17.103226,741.87085,192.779892,-21.771143,738.564087,198.078598,-99.986595,738.740479
00130_color_1715976379.406686.png,1023,1715976379.404651,674.146484,728.528076,1030.059326,726.01416,771.76355,1028.805786,731.386597,727.715576,1057.253296,691.867859,672.277039,1034.658569,671.88147,643.11554,1021.474854,641.966919,624.971924,1013.593567,612.726685,693.732056,1015.925659,589.577393,685.508301,1000.842346,568.189697,671.514954,982.777588,6.231334,298.696716,757.151367,36.405537,300.974091,751.84613,59.37138,303.094147,747.764587,-65.314491,248.146942,754.566467,-36.331894,236.845367,750.52179,-4.326312,228.313782,745.418945,-39.365192,306.886749,767.308228,-54.756092,336.338684,761.264893,-85.276405,307.29538,772.816589,-142.321243,279.367157,792.705688,185.946075,980.298462,1492.277222,239.197876,974.137573,1516.27356,290.30542,986.255188,1498.572876,401.874359,-491.357971,833.902771,356.202545,-502.300812,832.827698,341.526703,-438.833984,833.063965,403.558289,-437.686401,833.093628,348.796509,-506.945496,736.95459,338.650269,-429.145844,738.914124,404.13147,-429.172699,739.025085,409.97287,-497.825806,739.444458,278.667267,-94.210556,847.551086,277.974518,-20.690376,847.575928,197.489899,-24.362318,845.526794,201.201874,-93.84507,844.397888,287.793915,-98.593643,742.480164,285.967865,-17.120182,741.867432,192.787903,-21.76511,738.571167,198.080368,-100.000999,738.717407
00131_color_1715976379.441979.png,1027,1715976379.444651,664.073914,728.726929,1028.992065,715.337646,772.824463,1027.877441,721.384949,728.65564,1056.04541,682.338501,672.845337,1033.676147,662.560669,643.266052,1020.36438,632.731323,624.885315,1012.574341,602.984436,693.268188,1014.9375,579.664978,684.950012,1000.164124,558.410767,670.70697,982.106445,6.279449,298.712219,757.13208,36.390018,301.074646,751.852051,59.12748,303.217285,747.698181,-65.295471,248.207153,754.563049,-37.061035,238.03511,751.014038,-4.299216,228.365952,745.43103,-39.334293,306.89035,767.281738,-54.730888,336.361328,761.300171,-85.009048,307.295654,772.852051,-141.769379,279.037811,793.000305,185.967636,980.325684,1492.271484,239.200867,974.139832,1516.280151,290.31308,986.269958,1498.572632,420.248535,-492.061218,834.039062,374.388,-502.66217,833.053467,360.355255,-439.134796,833.325134,422.505768,-438.373413,833.247437,367.098297,-507.004608,737.246582,357.961151,-431.028625,738.069519,423.018158,-430.119446,739.146545,428.131775,-498.191803,739.542053,278.674255,-94.195137,847.547546,277.960419,-20.669325,847.587585,197.491135,-24.360035,845.528625,201.218597,-93.831795,844.395691,287.803497,-98.590553,742.469116,285.980835,-17.113104,741.855774,192.792877,-21.779747,738.554871,198.091858,-100.002121,738.722595
00132_color_1715976379.477028.png,1030,1715976379.4746509,656.492004,728.624023,1028.174561,707.523376,772.184204,1025.760254,714.014099,728.997253,1054.835693,675.223206,672.937256,1032.505249,655.865601,643.190674,1019.258606,626.080078,624.483154,1011.580322,595.524902,692.807678,1014.559021,572.465088,684.005737,999.497803,551.144287,669.939819,981.883057,6.293917,298.845917,757.217468,36.662659,300.535461,751.536743,59.13689,303.229706,747.696533,-65.278931,248.277786,754.555908,-35.599808,236.068481,749.982056,-4.270323,228.398407,745.441772,-39.310551,306.89502,767.25061,-54.71312,336.631958,761.642761,-84.823959,307.294128,772.848083,-141.262772,278.6745,793.258789,185.972717,980.25293,1492.303955,239.201324,974.142517,1516.279785,290.309143,986.257324,1498.56604,434.070129,-492.676025,834.246277,388.184998,-502.965698,833.183716,374.508606,-439.505188,833.402649,436.538147,-439.106781,833.476807,380.792694,-507.231476,737.299316,372.185516,-431.304291,738.172424,437.210144,-430.6138,739.436768,441.943146,-498.832062,739.72522,278.66394,-94.181808,847.543396,277.96167,-20.649721,847.583984,197.504181,-24.348152,845.526489,201.195648,-93.809761,844.403259,287.800568,-98.589607,742.469971,285.977203,-17.096859,741.868958,192.786514,-21.775763,738.544434,198.087311,-99.981331,738.728027
00133_color_1715976379.511883.png,1034,1715976379.5146508,646.674316,728.219849,1026.766357,696.91626,772.765625,1025.050293,704.143555,727.973022,1052.34021,666.073303,672.84845,1030.737183,646.995605,642.811157,1017.322083,617.41095,624.072876,1010.146851,585.996826,691.705261,1013.493164,562.913757,682.837219,998.741638,541.529968,668.491333,981.166931,6.366941,298.933044,757.276245,36.705807,300.598755,751.588867,59.17625,303.243103,747.692078,-65.22998,248.399384,754.554382,-35.505852,236.137939,749.963379,-4.186251,228.534256,745.474487,-39.278152,306.941711,767.312683,-54.710697,336.689575,761.687073,-84.557961,307.317749,772.870911,-140.548157,278.1427,793.601746,185.973877,980.319702,1492.296875,239.201965,974.140259,1516.28186,290.310486,986.239807,1498.557129,452.80011,-493.620636,834.450317,406.946289,-503.992859,833.360596,393.139374,-440.48291,833.60498,455.100769,-439.900024,833.676941,399.693726,-508.326172,737.567871,390.877686,-432.354645,738.324036,455.9021,-431.616638,739.535278,460.704895,-499.550079,739.850403,278.674591,-94.18219,847.53717,277.977417,-20.65785,847.586487,197.498825,-24.348135,845.516846,201.200134,-93.827171,844.408813,287.792511,-98.577362,742.470642,285.976807,-17.102356,741.861877,192.785919,-21.787125,738.540588,198.08519,-99.982323,738.735657
00134_color_1715976379.546452.png,1037,1715976379.5446508,639.726013,727.785095,1026.037231,689.912109,773.430603,1024.619995,697.470337,728.377014,1051.701294,659.564758,672.435974,1029.799561,640.576477,642.441895,1016.523499,611.245544,623.23468,1009.1922,579.458801,690.976562,1012.881165,556.049988,682.069153,998.341858,534.751282,667.545715,980.797791,6.568842,298.655823,757.184326,36.761505,300.663361,751.622375,59.209072,303.285583,747.699341,-65.169334,248.584732,754.623352,-35.436394,236.24382,749.97876,-4.085376,228.679672,745.519409,-39.244831,307.290955,767.718811,-54.748009,336.378235,761.280823,-84.370995,307.363464,772.902344,-140.008896,277.834351,793.858276,185.954193,980.33606,1492.308594,239.201523,974.143982,1516.286987,290.318146,986.27124,1498.579712,466.558228,-494.294281,834.590515,420.871704,-505.047394,833.513306,406.613098,-442.18158,833.821594,468.38559,-440.634369,833.91571,413.702942,-509.577881,737.654846,404.211365,-433.857269,738.333191,469.132202,-432.139893,739.826904,474.52774,-500.135376,740.075378,278.676788,-94.17112,847.560669,277.969788,-20.646982,847.586182,197.509003,-24.345909,845.516479,201.195938,-93.811081,844.430359,287.815857,-98.594925,742.500793,285.979004,-17.090517,741.863281,192.799759,-21.773849,738.550232,198.09848,-99.980576,738.747131
00135_color_1715976379.581565.png,1041,1715976379.584651,631.341858,726.568726,1025.570068,681.298584,772.75885,1024.055786,689.124207,727.680176,1051.122681,651.414368,671.307617,1029.494629,632.595337,641.134216,1016.40918,603.242371,621.900879,1009.51825,571.039368,689.4021,1012.884277,547.723389,680.244812,998.419678,526.414856,665.726379,981.073486,6.630145,298.782257,757.229065,36.823509,300.74884,751.640808,59.255756,303.311737,747.668579,-64.850578,248.237488,754.301208,-35.324287,236.301346,749.972717,-3.940708,228.825226,745.50946,-39.217354,307.38031,767.761414,-54.74548,336.392822,761.238159,-84.071533,307.383942,772.902649,-139.261215,277.445923,794.165833,185.957993,980.25,1492.297852,239.194839,974.14032,1516.286255,290.318176,986.283325,1498.584229,484.269623,-495.772736,834.765259,438.797882,-507.03598,833.716492,423.403168,-444.052673,833.983887,485.358124,-442.035828,834.039856,431.478516,-511.818115,737.663574,421.195038,-436.224121,738.442139,486.069794,-433.534119,740.001404,492.403809,-501.433685,740.141785,278.684174,-94.169189,847.548645,277.976227,-20.63081,847.590759,197.52623,-24.357365,845.502075,201.205154,-93.802399,844.413391,287.815063,-98.566803,742.481201,285.980865,-17.085417,741.872009,192.808212,-21.754484,738.550903,198.107544,-99.976326,738.732422
00136_color_1715976379.616209.png,1044,1715976379.614651,625.706604,724.700867,1025.604614,675.378174,771.543396,1024.044556,683.634766,726.537598,1051.12561,646.133911,669.543762,1029.481567,627.533508,639.264709,1016.703003,598.193848,619.81958,1010.124451,565.555847,687.099976,1013.257751,542.252136,677.912476,999.046814,520.928101,663.03009,981.733154,6.692281,298.813782,757.249451,36.869991,300.776367,751.653687,59.296135,303.305298,747.654297,-64.765602,248.248932,754.277405,-35.2187,236.324066,749.951721,-3.788375,228.947922,745.515076,-39.19949,307.402496,767.779846,-54.625519,336.648987,761.574829,-83.872025,307.348389,772.903625,-138.700333,276.929749,794.409912,185.956772,980.2547,1492.31543,239.185898,974.124329,1516.283325,290.315308,986.274414,1498.578369,496.710632,-497.451569,834.803589,451.121735,-508.731964,833.834961,435.646393,-445.801392,834.162415,497.644928,-443.65451,834.175232,443.833679,-513.491394,737.935852,433.263092,-437.899536,738.646729,498.166809,-435.142426,740.031311,504.689758,-502.974579,740.249268,278.694824,-94.19696,847.552368,277.999695,-20.667656,847.577698,197.528946,-24.359985,845.509644,201.242935,-93.807396,844.375,287.829498,-98.599129,742.48291,285.982239,-17.105574,741.855286,192.818771,-21.768476,738.552063,198.110672,-99.975655,738.735718
00137_color_1715976379.651224.png,1048,1715976379.654651,619.084167,720.896179,1025.936523,668.115051,767.674622,1023.490662,677.188049,723.405212,1050.976318,640.303894,666.02063,1029.69397,621.962158,635.489319,1016.916138,593.018555,615.517639,1010.57312,559.316101,682.521606,1013.978577,536.130737,673.062012,999.978271,514.769653,657.916992,982.827576,6.727201,298.947357,757.341492,36.928295,300.866333,751.692017,59.350708,303.326538,747.638062,-64.615852,248.28421,754.254395,-35.053173,236.386078,749.935303,-3.586892,229.111099,745.507935,-39.169731,307.317261,767.661865,-54.71965,336.864838,761.884399,-83.657265,307.310211,772.892761,-137.981735,276.299927,794.655334,185.946533,980.254822,1492.288696,239.180603,974.116577,1516.286133,290.310028,986.262878,1498.569702,511.713989,-500.100922,834.91803,466.115112,-511.214386,833.953186,450.838531,-448.093781,834.312012,512.914062,-446.296875,834.222107,458.798737,-515.681641,737.998535,447.922363,-438.300293,740.157959,513.376343,-437.815552,740.177368,519.47229,-505.569153,740.326355,278.69928,-94.196945,847.544434,277.993317,-20.671734,847.564941,197.530731,-24.352503,845.522034,201.274292,-93.81147,844.355896,287.838287,-98.605835,742.47229,286.010651,-17.113846,741.845459,192.816757,-21.787447,738.524963,198.117096,-99.992065,738.729553
00138_color_1715976379.687874.png,1051,1715976379.684651,614.705566,717.214844,1026.147095,663.29657,764.014221,1023.169067,672.796753,720.360168,1051.081299,636.371765,662.525146,1029.832031,618.287415,631.841736,1017.304077,589.517578,611.510132,1010.948914,555.294495,678.382996,1014.472839,531.919556,668.604309,1000.538696,510.708344,653.263489,983.434265,6.784814,299.014648,757.367615,36.990799,300.935272,751.717041,59.384228,303.368317,747.64209,-64.50087,248.342255,754.254822,-34.935566,236.439529,749.950562,-3.433969,229.258514,745.509827,-39.16153,307.572662,767.944946,-54.734943,336.658875,761.610657,-83.474548,307.312653,772.928894,-137.440201,275.876678,794.802612,185.937683,980.256897,1492.311035,239.182495,974.11853,1516.272583,290.312988,986.26239,1498.569336,521.949951,-502.176514,835.001587,476.329987,-512.946899,834.100464,461.466614,-449.773621,834.405334,523.497803,-448.410614,834.363159,468.997009,-516.110229,737.455078,458.99231,-441.587036,739.185608,524.055908,-439.885773,740.218628,529.731384,-507.715698,740.384033,278.703278,-94.197433,847.525818,278.024109,-20.683504,847.563416,197.536118,-24.357029,845.51416,201.236893,-93.8134,844.394531,287.847168,-98.574738,742.47113,286.023407,-17.108822,741.840332,192.828796,-21.777655,738.543762,198.340744,-99.943344,739.194946
00139_color_1715976379.722926.png,1055,1715976379.7246509,609.267517,711.596558,1026.144165,657.721985,759.135559,1023.171204,667.432373,715.171265,1051.02356,631.349182,657.02887,1030.287109,613.572449,626.115295,1018.150452,585.05835,605.35498,1012.010681,550.108582,672.198364,1014.62854,526.95105,662.084412,1000.762085,505.79422,646.61438,984.056213,6.866971,299.12619,757.403809,37.088863,301.080688,751.768005,59.491508,303.456299,747.647278,-64.304787,248.398407,754.281189,-34.695778,236.543884,749.96405,-3.155139,229.510208,745.514771,-39.083889,307.515991,767.800537,-54.711807,336.956329,761.966492,-83.199554,307.295868,772.952759,-136.775909,275.397736,795.092468,185.952698,980.287292,1492.31604,239.178757,974.11499,1516.279663,290.312561,986.269958,1498.57251,533.875977,-504.814911,835.069519,488.023743,-514.907959,834.18689,474.075287,-451.566589,834.524109,536.099426,-451.095367,834.315247,480.57428,-519.222961,738.288879,471.577057,-443.324768,739.283997,536.612732,-442.577301,740.260986,541.273865,-510.471832,740.390076,278.701508,-94.184715,847.524536,278.00238,-20.660145,847.55072,197.542145,-24.350657,845.504822,201.24086,-93.841835,844.398682,287.849609,-98.578201,742.455688,286.034149,-17.121246,741.83728,192.831711,-21.747078,738.567322,198.437057,-100.185051,738.952881
00140_color_1715976379.757746.png,1058,1715976379.7546508,605.471252,706.845276,1025.887817,653.869995,754.61969,1022.787109,663.652588,710.824585,1050.806763,627.782104,652.381409,1030.52063,610.264221,621.263306,1018.63623,581.856873,600.292664,1012.68396,546.593323,666.977295,1014.458984,523.440369,656.808289,1000.768066,502.451965,641.111694,984.121948,6.936322,299.191376,757.448303,37.161095,301.195099,751.826965,59.568714,303.518188,747.664124,-64.162575,248.462143,754.322266,-34.553841,236.648514,749.987671,-2.991109,229.614563,745.497498,-39.055355,307.711761,768.049255,-54.6772,336.722961,761.657288,-82.981628,307.284515,773.001587,-136.247131,275.046326,795.276367,185.940903,980.320679,1492.316895,239.183304,974.126831,1516.2854,290.314453,986.268311,1498.574463,541.492798,-506.620514,835.061523,495.505035,-516.32782,834.201721,482.41156,-452.734222,834.524597,544.473816,-452.957794,834.430786,487.995178,-520.240417,738.122681,479.90094,-444.269257,739.323364,545.066345,-444.49704,740.290955,548.513123,-512.595581,740.40625,278.702148,-94.16851,847.537598,278.00708,-20.659792,847.569702,197.55687,-24.362492,845.48877,201.2323,-93.81575,844.408386,287.83783,-98.558807,742.470337,286.027557,-17.107849,741.835266,192.832687,-21.301119,739.044067,198.434952,-100.153893,738.967896
00141_color_1715976379.792827.png,1062,1715976379.7946508,601.09137,699.827271,1024.652466,649.18396,747.929138,1021.366455,659.142517,704.414978,1049.858154,623.706909,645.66571,1030.0,606.450317,614.412903,1018.394104,578.116516,593.106567,1012.614502,542.451538,659.643677,1013.529175,519.448975,648.910645,999.611694,498.612,632.941162,983.022278,6.982008,299.280914,757.473999,37.225506,301.273926,751.874268,59.627087,303.525208,747.636108,-64.079506,248.477249,754.317749,-34.449352,236.70134,750.020264,-2.871631,229.699997,745.500427,-39.00721,307.608887,767.901306,-54.684834,336.72467,761.67511,-82.739967,307.357422,773.074158,-135.602386,274.802429,795.521545,185.949432,980.280701,1492.31604,239.19223,974.139709,1516.291138,290.316681,986.271667,1498.578369,550.147156,-508.812256,835.196167,504.027435,-517.928589,834.259949,491.568665,-454.228119,834.597046,553.606567,-455.107941,834.446716,496.564453,-521.806946,738.106323,489.104553,-445.82959,739.299255,554.291748,-446.251556,740.671875,557.086609,-514.697083,740.409424,278.717712,-94.160645,847.543518,278.012024,-20.640516,847.568298,197.55777,-24.35603,845.485718,201.23645,-93.804543,844.404175,287.854065,-98.564133,742.473083,286.025116,-17.094215,741.841614,192.87941,-20.68581,739.755554,198.440369,-100.165474,738.966125
00142_color_1715976379.827785.png,1065,1715976379.824651,598.265564,694.421143,1023.236023,646.142639,742.89325,1019.982483,656.222412,699.452393,1048.568237,621.207825,640.638428,1029.155518,604.142944,608.96582,1017.287964,575.985168,587.51062,1011.364197,539.958801,653.787354,1012.050659,516.921936,643.115112,998.249817,496.377655,626.85083,981.534241,7.017074,299.363068,757.506104,37.264877,301.346924,751.863098,59.673836,303.588745,747.64563,-63.98637,248.50708,754.316345,-34.287392,236.766968,749.996826,-2.72706,229.797333,745.486755,-38.996109,307.814392,768.117371,-54.761543,336.559967,761.520935,-82.553612,307.35556,773.116272,-135.191559,274.56601,795.630371,185.928024,980.363708,1492.310181,239.184891,974.130798,1516.293457,290.311523,986.27948,1498.582764,554.966919,-510.129517,835.130493,508.885498,-518.957581,834.29303,496.715942,-455.219513,834.698303,558.836731,-456.400391,834.44928,501.352722,-522.837769,738.197632,494.204193,-446.671478,739.514099,559.40625,-447.861176,740.405212,561.76178,-516.113464,740.335999,278.720123,-94.173416,847.533936,278.024292,-20.662518,847.567749,197.55336,-24.361555,845.507385,201.262619,-93.801971,844.397095,287.855103,-98.580429,742.47052,286.027283,-17.08069,741.858215,192.691528,-20.647066,739.680115,198.460831,-100.161949,738.968323
00143_color_1715976379.862996.png,1069,1715976379.864651,595.223755,687.353882,1020.889282,642.743347,735.856262,1017.425659,652.872192,692.895752,1046.55542,618.437622,633.768188,1027.157349,601.891052,601.492676,1015.050049,573.9021,580.071716,1009.094238,537.262756,646.127014,1009.34729,514.436829,635.028503,995.426392,494.163605,618.696167,978.630554,7.093015,299.453827,757.526611,37.334652,301.401123,751.885315,59.73896,303.649994,747.664856,-63.88866,248.518951,754.298584,-34.134365,236.798706,750.00885,-2.572585,229.908554,745.485962,-38.949539,307.821136,768.094604,-54.689571,336.748138,761.732239,-82.368767,307.336426,773.113525,-134.749481,274.296112,795.746277,185.954346,980.269348,1492.314575,239.181381,974.131592,1516.295044,290.313538,986.272888,1498.583374,559.541992,-511.704559,835.240662,513.368896,-520.241882,834.269226,501.660156,-456.500336,834.692444,563.712158,-458.071045,834.60907,506.057098,-523.846191,738.195923,499.430786,-447.792328,739.374023,564.578247,-449.465668,740.596008,566.451477,-517.655029,740.47406,278.719147,-94.176155,847.548584,278.017792,-20.648195,847.574829,197.552811,-24.342548,845.49646,201.243591,-93.789551,844.406494,287.854065,-98.582954,742.474548,286.040222,-17.105577,741.839722,192.69725,-20.665968,739.6604,198.444138,-100.153023,738.953491
00144_color_1715976379.898132.png,1072,1715976379.894651,593.151733,682.015991,1018.865234,640.331909,730.977295,1015.686279,650.648315,687.938782,1044.775757,616.761536,628.31543,1025.025757,600.268677,596.491272,1013.426514,572.58252,574.502625,1007.309326,535.530457,640.327515,1007.083679,512.827393,629.174194,993.118652,492.752655,612.427063,976.106018,7.11518,299.480316,757.512939,37.354614,301.399017,751.837769,59.791477,303.624176,747.595764,-63.804665,248.525711,754.270447,-34.043617,236.822632,749.96283,-2.434183,230.022598,745.511475,-38.898148,307.652374,767.881287,-54.681919,336.755737,761.768311,-82.29525,307.297119,773.109131,-134.536758,274.152252,795.786682,185.938049,980.299072,1492.283936,239.186127,974.131287,1516.284912,290.308746,986.261963,1498.571167,561.531189,-512.654541,835.22113,515.369385,-520.911438,834.271057,504.110687,-456.943115,834.648743,566.119202,-459.086731,834.515747,508.068329,-524.407104,738.152649,501.884705,-448.292542,739.392456,567.04071,-450.422302,740.548157,568.510498,-518.429016,740.470764,278.72583,-94.182175,847.526367,278.012817,-20.671413,847.547241,197.551575,-24.363253,845.493164,201.259415,-93.819679,844.375793,287.866913,-98.60051,742.440247,286.049133,-17.124865,741.821899,192.694595,-20.649036,739.66333,198.469986,-100.181244,738.933594
00145_color_1715976379.933388.png,1076,1715976379.934651,590.573608,674.834412,1015.717163,637.554321,724.158752,1012.581848,647.926514,681.317139,1041.939575,614.678711,621.471436,1022.102844,598.386963,589.684509,1010.451172,570.94165,567.486328,1004.076355,533.433228,632.840088,1003.818176,510.93869,621.239868,989.455811,491.049377,604.512085,972.569946,7.124511,299.52771,757.534851,37.362728,301.40451,751.853027,59.793518,303.636261,747.605774,-63.760029,248.517029,754.255371,-33.987915,236.827789,749.960144,-2.363034,230.100189,745.515564,-38.892319,307.770355,768.06543,-54.693478,336.789978,761.818604,-82.254967,307.266205,773.096069,-134.428284,274.054626,795.803101,185.948029,980.307373,1492.302246,239.192368,974.135193,1516.285645,290.313477,986.270752,1498.578491,562.458191,-513.051758,835.262207,516.219238,-521.35675,834.241821,504.987183,-457.461151,834.651917,566.968567,-459.411316,834.630981,509.05835,-524.672913,738.133118,502.825012,-448.690155,739.427368,567.994263,-450.735992,740.62616,569.556213,-518.862915,740.540344,278.7164,-94.191879,847.532776,278.022064,-20.658895,847.568848,197.546829,-24.341331,845.504211,201.274399,-93.813171,844.375,287.871429,-98.586029,742.46228,286.031189,-17.106892,741.841675,192.692154,-20.666,739.658997,198.463303,-100.170944,738.938599
00146_color_1715976379.968606.png,1079,1715976379.9646509,588.735107,669.65332,1012.985352,635.336121,719.176147,1010.243652,645.890198,676.313293,1039.465576,612.972778,616.306458,1019.35968,597.018555,584.505371,1007.536438,569.494141,562.220154,1001.190674,531.748169,627.226135,1000.784302,509.503021,615.601624,986.330017,489.786316,598.754272,969.283447,7.118834,299.50354,757.519592,37.351398,301.416077,751.847839,59.785221,303.65155,747.612671,-63.765415,248.511932,754.235046,-34.004803,236.850815,749.958618,-2.362481,230.103348,745.505737,-38.895042,307.727325,768.032166,-54.706032,336.820923,761.820679,-82.275124,307.278687,773.080139,-134.486755,274.085846,795.783081,185.965118,980.312378,1492.275391,239.190109,974.132751,1516.289185,290.312347,986.271851,1498.573364,562.044678,-513.157959,835.321472,515.860046,-521.352112,834.26239,504.7323,-457.464539,834.628235,566.698181,-459.566559,834.65918,508.761871,-524.699036,738.111572,502.659393,-448.673126,739.417542,567.811707,-450.884064,740.665344,569.236755,-518.963013,740.564575,278.70517,-94.194016,847.528076,278.000702,-20.65037,847.56134,197.531052,-24.349771,845.487488,201.239502,-93.8153,844.36676,287.842133,-98.584496,742.453247,286.014465,-17.108229,741.823547,192.675064,-20.652176,739.647888,198.43222,-100.173363,738.938782
00147_color_1715976380.004088.png,1083,1715976380.0046508,586.010132,662.675232,1008.816467,632.83197,712.368042,1006.560425,643.117859,669.454651,1035.839722,610.202026,609.494385,1015.585205,594.162964,577.902893,1003.6427,566.738831,555.428406,997.096924,529.143982,620.474487,996.302979,506.979706,608.947754,981.815552,487.374969,591.967896,964.495972,7.10929,299.491425,757.521179,37.350075,301.417542,751.867126,59.787472,303.643097,747.598145,-63.779793,248.510635,754.24054,-34.00396,236.858871,749.968323,-2.374116,230.106003,745.512329,-38.877792,307.71994,768.014282,-54.702122,336.811127,761.827698,-82.312813,307.283813,773.058838,-134.602051,274.177704,795.716309,185.953644,980.247864,1492.303711,239.188675,974.138367,1516.28418,290.312469,986.261902,1498.565308,559.396545,-513.755432,835.26947,513.070312,-521.439087,834.196472,502.650848,-457.316071,834.661194,564.720886,-460.202576,834.670288,505.905792,-524.445923,738.060303,500.663879,-448.535736,739.363037,565.921814,-451.551239,740.558777,566.425964,-519.668701,740.498535,278.698792,-94.19194,847.528442,277.998291,-20.646643,847.573669,197.534134,-24.375336,845.476318,201.227844,-93.809639,844.385437,287.833832,-98.583237,742.462036,286.004364,-17.097305,741.847412,192.677734,-20.660997,739.659851,198.438751,-100.170364,738.941833
00148_color_1715976380.039025.png,1086,1715976380.0346508,584.033691,657.817749,1005.921143,631.100708,707.033264,1003.674255,640.916382,664.077026,1033.066162,607.752991,604.269348,1012.752991,591.68042,572.24585,1000.677368,564.139404,550.228455,993.916992,526.860107,615.840454,993.063599,504.746185,604.329834,978.339417,485.090179,587.680847,961.117249,7.110853,299.495331,757.514954,37.337841,301.414154,751.874634,59.772678,303.661346,747.620361,-63.800873,248.553986,754.279968,-34.033951,236.831268,749.954956,-2.401989,230.107147,745.523376,-38.877594,307.510895,767.759888,-54.706097,336.813599,761.78363,-82.377594,307.352997,773.077637,-134.797073,274.307861,795.615479,185.92984,980.293762,1492.31311,239.188202,974.143005,1516.28772,290.308441,986.275024,1498.576172,555.720337,-514.251099,835.184509,509.393585,-521.528503,834.155273,499.38443,-457.368164,834.665466,561.417297,-460.563751,834.682373,502.09082,-524.427246,738.012817,497.441193,-448.56778,739.45105,562.623291,-452.010406,740.564514,562.668884,-520.178955,740.57135,278.687744,-94.193832,847.542725,277.992889,-20.655853,847.56543,197.52681,-24.342911,845.489319,201.215714,-93.812981,844.403076,287.823883,-98.57489,742.471252,285.999023,-17.079166,741.86438,192.676025,-20.643013,739.662903,198.421829,-100.169334,738.945923
00149_color_1715976380.074232.png,1090,1715976380.074651,581.145752,650.536865,1001.67749,628.878967,699.120178,999.826538,637.861267,656.13855,1029.36853,604.070862,596.721191,1008.825928,587.373535,565.005859,996.753784,559.509277,543.552002,989.920349,523.492859,609.316467,988.473145,501.270294,598.035645,973.587097,481.691772,581.608337,956.276245,7.07854,299.45639,757.485535,37.319481,301.406799,751.854919,59.759586,303.655701,747.642944,-64.001846,248.965454,754.565979,-34.055866,236.834229,749.966187,-2.436322,230.076309,745.511414,-38.914696,307.703918,767.971069,-54.704201,336.795959,761.743347,-82.515503,307.347382,773.03656,-135.153915,274.59314,795.498108,185.9496,980.290649,1492.301636,239.186386,974.140198,1516.283936,290.309479,986.272766,1498.575806,549.2052,-513.984558,835.048462,502.840942,-521.38208,834.210571,492.740509,-457.26123,834.605469,554.751587,-460.372345,834.379944,495.247406,-524.576233,738.144165,490.523407,-448.640442,739.407043,555.588135,-451.993317,740.299927,555.79895,-520.041138,740.325867,278.674225,-94.186806,847.541992,277.991577,-20.652014,847.575562,197.530762,-24.348774,845.495239,201.209732,-93.799568,844.402283,287.817078,-98.586449,742.46283,286.000305,-17.104691,741.840454,192.968231,-20.936754,739.570862,198.426865,-100.171814,738.959167
00150_color_1715976380.109038.png,1093,1715976380.104651,578.933716,644.677917,998.657776,627.28418,692.550171,996.945557,635.536133,649.594177,1026.669189,601.054382,590.563782,1006.146179,584.053894,558.786621,993.80603,555.575806,538.280518,987.056396,520.799255,604.12146,985.174316,498.530701,593.114075,970.186707,478.886505,576.842285,952.654785,6.928397,299.687714,757.61145,37.322147,301.411163,751.870239,59.741119,303.617859,747.619202,-63.981018,248.781586,754.476318,-34.078285,236.781723,749.951416,-2.461974,230.044174,745.50769,-38.897572,307.453766,767.656433,-54.7075,336.781006,761.724548,-82.648521,307.330383,773.014893,-135.510056,274.791687,795.378723,185.948257,980.219116,1492.316528,239.187256,974.137756,1516.283569,290.304565,986.264587,1498.568481,542.330017,-513.667603,835.01709,495.957581,-521.00946,834.236145,485.790833,-457.015625,834.575684,547.792847,-460.038239,834.372742,488.596558,-524.456787,738.144226,483.618164,-448.727448,739.318542,548.704529,-451.631989,740.214783,548.923279,-519.873962,740.282532,278.679626,-94.195374,847.552795,277.975677,-20.643089,847.591431,197.506485,-24.342709,845.515747,201.228058,-93.821014,844.387634,287.812531,-98.569298,742.466919,285.980682,-17.101303,741.856384,192.809067,-20.944199,739.463318,198.424957,-100.174927,738.954529
00151_color_1715976380.143999.png,1097,1715976380.144651,575.892029,635.809021,994.649536,625.253235,682.656616,993.085999,632.390564,639.79126,1023.212891,596.900818,581.333984,1002.777466,579.271484,550.267029,990.446106,550.616699,529.954773,983.46106,517.15332,596.154541,980.684875,494.82666,585.716431,965.713135,474.847778,569.727661,948.054749,6.922094,299.647217,757.58075,37.283066,301.371796,751.851135,59.692806,303.639618,747.666382,-64.011223,248.778412,754.512085,-34.114265,236.765015,749.945496,-2.511238,230.026321,745.504333,-38.954208,307.680847,767.933594,-54.70808,336.765167,761.660339,-82.897568,307.348114,772.967285,-136.179596,275.106964,795.056763,185.951141,980.287842,1492.308472,239.184967,974.142212,1516.29248,290.305542,986.269104,1498.574585,530.658142,-513.07605,835.000916,484.318054,-520.840576,833.90979,473.773804,-456.801636,834.399597,535.738281,-459.513031,834.496643,477.231293,-523.204224,737.26062,471.887085,-447.972717,739.222046,537.036255,-450.824768,740.405762,537.78363,-518.793091,740.285583,278.663391,-94.191116,847.546936,277.973511,-20.667738,847.578308,197.511948,-24.356647,845.498657,201.205841,-93.805481,844.398926,287.798248,-98.588005,742.47168,285.975586,-17.095854,741.861511,192.803757,-21.534561,738.804688,198.519043,-100.079468,739.267517
00152_color_1715976380.178620.png,1100,1715976380.174651,573.536011,628.361389,991.770813,623.351135,674.765259,990.404907,629.940613,631.628418,1020.456543,593.795044,573.59906,999.95697,575.83728,542.58783,987.72522,547.074585,522.725708,980.761841,514.322266,589.526123,977.780701,491.891479,579.275391,962.750977,471.824799,563.448608,944.944031,6.889904,299.614777,757.567566,37.132851,301.632477,752.016785,59.682449,303.624725,747.664185,-64.048729,248.790924,754.544922,-34.69799,237.518951,750.400757,-2.541142,230.028564,745.51593,-38.967297,307.661438,767.898987,-54.704475,336.786774,761.641357,-83.129524,307.312653,772.898499,-136.743103,275.514771,794.793335,185.962921,980.195496,1492.311279,239.191162,974.141663,1516.286621,290.307861,986.262817,1498.564697,519.474915,-512.406128,834.89624,473.251404,-520.397278,833.850647,462.260498,-456.446228,834.380127,524.231689,-458.744415,834.396179,466.526947,-524.152222,738.083069,460.498352,-447.552795,739.214478,525.669067,-450.512543,740.386841,526.685852,-518.096008,740.166992,278.666779,-94.204956,847.553711,277.972931,-20.666378,847.584412,197.511505,-24.352905,845.520203,201.209198,-93.815979,844.404907,287.802887,-98.596878,742.472473,285.979462,-17.104399,741.858398,192.815155,-21.635828,738.700012,198.177338,-99.92408,738.9646
00153_color_1715976380.213101.png,1104,1715976380.2146509,570.257446,617.062134,986.891907,620.89447,662.774231,985.47229,626.512695,619.816101,1015.919556,589.805603,562.060242,995.181946,571.48822,531.414734,983.037842,542.475342,511.773651,976.063965,510.511566,579.210022,973.005127,488.134521,569.094849,957.70282,467.712891,553.459717,939.937378,6.869976,299.600342,757.565125,37.137871,301.571198,751.988892,59.482826,303.945312,747.915039,-64.081367,248.751923,754.54834,-34.736977,237.490952,750.357788,-2.561401,229.967163,745.471741,-38.966961,307.432129,767.650024,-54.706799,336.972443,761.901184,-83.423882,307.276093,772.853882,-137.466003,275.84787,794.368774,185.946884,980.266235,1492.292725,239.186462,974.146179,1516.283325,290.317169,986.268799,1498.569946,501.526123,-511.257416,834.763245,455.315094,-519.805908,833.669922,443.842621,-456.503357,834.250305,505.742981,-457.575867,834.225525,448.396942,-523.412415,737.697083,441.898987,-447.459747,738.89917,506.918671,-448.960175,740.148315,508.898499,-516.887756,740.081177,278.672272,-94.20948,847.549377,277.975342,-20.662493,847.580933,197.50563,-24.34746,845.522949,201.252716,-93.819321,844.356812,287.816864,-98.615967,742.475098,285.983154,-17.133589,741.850769,192.798279,-21.74704,738.582825,198.165741,-100.008644,738.786072
00154_color_1715976380.247403.png,1107,1715976380.2446508,567.627869,607.816406,982.15387,618.458374,653.109497,981.120972,623.971313,609.932922,1011.237854,586.646545,552.583984,990.303589,568.246948,522.104431,978.031006,539.058105,502.445099,970.733398,507.598389,570.293762,967.880981,485.088165,560.567322,952.613098,464.73407,545.227539,934.855286,6.850095,299.567505,757.575928,37.098362,301.57196,752.015991,59.5354,303.799286,747.860535,-64.113266,248.731705,754.56366,-34.820118,237.560501,750.426636,-2.786013,230.349838,745.702209,-39.000847,307.460144,767.673767,-54.686104,336.749878,761.557495,-83.698776,307.315674,772.836487,-138.096176,276.337646,794.110596,185.937103,980.30896,1492.302124,239.188278,974.137573,1516.283569,290.317932,986.284302,1498.574707,486.405762,-510.004517,834.659546,440.344604,-519.260376,833.455994,427.942261,-455.629089,833.831787,489.968811,-456.323822,834.072205,433.304504,-523.182983,737.573608,426.04007,-447.373627,738.511597,491.144379,-447.90506,739.903625,494.026642,-515.818115,740.008789,278.669281,-94.194557,847.559021,277.967285,-20.680599,847.573303,197.512802,-24.354113,845.515259,201.219391,-93.824821,844.388489,287.810455,-98.578476,742.488342,285.983307,-17.105011,741.863037,192.786163,-21.768248,738.551331,198.118317,-99.998871,738.770325
00155_color_1715976380.281571.png,1111,1715976380.2846508,563.495911,594.09967,974.060669,614.901733,638.996582,973.692383,619.784241,595.264404,1003.460876,582.008301,538.496582,981.77124,563.279724,508.108368,969.122314,533.941589,489.062469,961.710327,503.250824,557.324463,958.841797,480.667267,548.081726,943.585449,460.166107,533.090027,925.474426,6.82157,299.532104,757.523193,37.052021,301.582428,752.026062,59.494236,303.791931,747.88501,-64.147774,248.718475,754.596497,-34.936958,237.574127,750.453674,-2.800352,230.170242,745.60791,-39.016937,307.4328,767.595276,-54.671185,336.73996,761.497375,-84.025436,307.368256,772.811951,-139.118927,277.030823,793.57019,185.953476,980.148071,1492.347656,239.190536,974.144287,1516.282837,290.309448,986.255615,1498.568237,463.310577,-508.613647,834.444824,417.265106,-518.353638,833.2276,404.32077,-454.841675,833.570923,466.453308,-454.972168,833.794739,410.268799,-522.277649,737.412781,402.799255,-447.142151,737.813538,467.43924,-446.395355,739.678772,471.541962,-514.783142,739.968567,278.6651,-94.19416,847.554016,277.967438,-20.674004,847.57782,197.503662,-24.32267,845.532043,201.177917,-93.813057,844.427734,287.807281,-98.6035,742.48822,285.980469,-17.098017,741.870422,192.789246,-21.774164,738.552246,198.089188,-99.97464,738.735779
00156_color_1715976380.315689.png,1114,1715976380.3146508,559.998596,582.74115,967.076965,611.925354,626.965759,967.165344,616.059021,582.911499,996.771179,577.63562,526.724915,974.288879,558.697205,496.845551,961.598206,529.265625,478.271088,954.032043,499.342529,546.993958,951.370789,476.698212,538.160461,935.93634,456.081085,523.512512,917.554077,6.791867,299.477173,757.497375,36.993393,301.547363,752.004761,59.428741,303.803009,747.922729,-64.217911,248.678482,754.587891,-34.987019,237.518204,750.402466,-2.885287,230.188431,745.624512,-39.095989,307.579865,767.794434,-54.642426,336.774902,761.518066,-84.292435,307.377808,772.806824,-139.821655,277.424744,793.227905,185.975021,980.235962,1492.32312,239.197433,974.136475,1516.288818,290.308899,986.275574,1498.570923,444.594757,-507.423584,834.325012,398.75885,-517.79071,833.054138,384.89624,-454.244446,833.387024,446.975037,-453.805206,833.469788,391.890045,-520.551392,736.523682,382.331299,-444.286346,739.334534,447.792206,-445.079865,739.63562,453.002106,-513.61676,739.828247,278.653076,-94.196693,847.5625,277.973541,-20.671175,847.587891,197.493195,-24.3328,845.538391,201.192032,-93.821472,844.424194,287.784454,-98.574928,742.484985,285.947815,-17.096272,741.87854,192.786438,-21.767281,738.564392,198.069229,-99.985481,738.744324
00157_color_1715976380.349761.png,1118,1715976380.354651,554.160217,566.247864,957.582031,607.082397,609.601135,959.071899,609.972412,564.799683,987.502014,570.59198,509.77182,964.143188,551.240906,480.441803,950.972534,521.420349,462.297119,942.99408,492.792938,531.957703,941.157654,470.075012,523.651978,925.531006,449.319794,510.104706,906.947266,6.757909,299.411499,757.48822,36.948837,301.466949,751.969604,59.379662,303.78653,747.939331,-64.257607,248.611542,754.578918,-35.056774,237.42601,750.358948,-2.961413,230.166534,745.625977,-39.094582,307.310913,767.502869,-54.704559,336.883575,761.707458,-84.60006,307.307861,772.76178,-140.567749,277.758057,792.780151,185.953461,980.186279,1492.355591,239.194626,974.138794,1516.286743,290.306915,986.270203,1498.574097,418.191223,-506.101837,834.02594,372.409882,-517.131836,832.663086,357.60257,-453.837677,833.067566,419.728851,-452.444489,833.408325,365.517609,-521.282471,736.701416,355.265381,-443.882599,738.950073,420.791138,-443.614441,739.443176,426.784332,-512.182861,739.680725,278.649689,-94.20031,847.569031,277.934235,-20.641623,847.61676,197.47821,-24.331409,845.533691,201.142853,-93.844208,844.453796,287.776398,-98.576607,742.485291,285.943939,-17.09062,741.890625,192.785538,-21.776611,738.55011,198.062943,-99.984909,738.740723
00158_color_1715976380.386004.png,1121,1715976380.384651,548.748291,553.498352,951.119751,602.861206,594.981445,952.584717,604.886902,550.058716,980.778992,564.320374,496.334656,956.945679,544.360718,467.433014,943.491394,514.279053,450.159637,935.462097,486.972229,520.255127,934.205811,464.0242,512.540283,918.146423,443.056396,499.612823,899.640442,6.715136,299.34375,757.442383,36.885948,301.401154,751.948486,59.341988,303.751587,747.932434,-64.328056,248.550049,754.569519,-35.131664,237.365082,750.325256,-3.040416,230.134964,745.608765,-39.13205,307.274017,767.457642,-54.705025,336.847198,761.664368,-84.824455,307.325836,772.736572,-141.169571,278.255035,792.455383,185.964294,980.235352,1492.322876,239.194443,974.139832,1516.288208,290.304565,986.270203,1498.566284,397.639648,-505.693726,833.806091,351.932526,-516.574585,832.498901,337.106293,-453.266174,832.84552,399.22229,-451.861908,833.230896,345.400269,-519.331299,735.90155,334.995148,-443.619446,738.33252,400.260559,-443.032776,739.287292,406.238159,-511.403442,739.422058,278.641327,-94.201302,847.572876,277.939575,-20.653687,847.604675,197.471481,-24.353807,845.524841,201.15863,-93.812881,844.4245,287.780273,-98.581169,742.499695,285.936707,-17.094795,741.895447,192.765991,-21.767372,738.56073,198.059937,-99.996086,738.743347
00159_color_1715976380.419810.png,1125,1715976380.424651,541.520447,535.248535,943.299194,596.918213,574.961121,945.046387,597.229187,529.827454,972.822205,554.982178,477.937592,948.468262,534.040283,449.806854,934.657471,503.337372,433.385834,926.305542,478.358368,504.829834,926.437195,455.117859,498.303101,910.730042,433.448212,486.010498,891.845947,6.68584,299.257324,757.392273,36.846561,301.315582,751.896667,59.278427,303.707764,747.936584,-64.388268,248.47023,754.581848,-35.202362,237.299652,750.314087,-3.101602,230.070969,745.588806,-39.178661,307.454987,767.669678,-54.706184,336.49704,761.235596,-85.092766,307.388489,772.717896,-141.886261,278.887543,792.166626,185.939957,980.238159,1492.310547,239.183426,974.110901,1516.276489,290.282562,986.222229,1498.546143,371.18576,-504.774261,833.437317,325.573303,-515.837708,832.150574,310.410034,-452.65979,832.506592,372.499023,-451.116486,832.839539,318.94873,-518.643127,735.325317,308.446747,-443.413849,737.922241,373.598511,-442.338501,738.818176,379.883881,-510.688538,738.991882,278.638184,-94.21637,847.560852,277.950012,-20.689396,847.595337,197.46814,-24.344301,845.534424,201.192062,-93.840797,844.421326,287.766632,-98.591255,742.495911,285.947968,-17.116961,741.87146,192.770554,-21.748674,738.574768,198.069839,-99.996674,738.756165
00160_color_1715976380.453599.png,1128,1715976380.4546509,535.903931,521.925964,938.128357,592.509338,559.828308,940.030579,591.403198,514.423462,967.404419,547.497437,464.101471,942.777039,525.52417,436.937073,928.942322,494.271027,421.538513,920.565247,471.681885,493.742126,921.355469,448.344513,488.055878,905.519897,426.071594,476.569336,886.914368,6.647275,299.179535,757.333984,36.809666,301.277679,751.878662,59.254208,303.689575,747.941528,-64.458054,248.409958,754.577332,-35.262253,237.236862,750.2771,-3.168933,230.037445,745.571106,-39.194241,307.426392,767.619263,-54.696198,336.396179,761.118591,-85.251465,307.427032,772.719666,-142.42009,279.428467,791.931885,185.934036,980.230469,1492.298828,239.194672,974.134399,1516.27417,290.367615,986.423401,1498.783447,352.218658,-504.523804,833.189575,306.579285,-515.576294,831.914001,291.483887,-452.4086,832.174683,353.495148,-450.885986,832.626038,300.064606,-518.15625,735.065247,289.203522,-442.289459,738.136902,354.608368,-441.798492,738.602295,360.92215,-510.408936,738.791138,278.649231,-94.231331,847.562378,277.939575,-20.672997,847.595947,197.473175,-24.344608,845.535767,201.164001,-93.84845,844.428345,287.777313,-98.612511,742.485413,285.956085,-17.117184,741.862061,192.775879,-21.770555,738.561646,198.070007,-100.004341,738.740479
00161_color_1715976380.487447.png,1131,1715976380.4846509,530.600586,508.968048,933.365173,588.426208,544.728088,935.401367,585.625549,499.205536,962.492615,540.039429,450.639526,937.502197,517.135742,424.492615,923.684631,485.270325,410.387756,915.32019,465.390991,483.403229,916.688965,441.785736,478.785553,900.626221,419.129059,468.24173,882.038696,6.635253,299.147888,757.309326,36.791351,301.232208,751.852356,59.25919,303.534027,747.768127,-64.482819,248.36087,754.564026,-35.298435,237.180023,750.265625,-3.202596,229.976059,745.554443,-39.223003,307.115906,767.237915,-54.681217,336.739227,761.529297,-85.410889,307.46048,772.711914,-142.877853,279.865936,791.662842,185.9599,980.223083,1492.279663,239.179962,974.110474,1516.224976,290.370026,986.447327,1498.800293,335.517517,-504.002502,832.940735,289.907288,-515.028625,831.69104,274.919952,-451.693207,831.901001,336.990753,-450.493195,832.239502,283.270386,-517.962341,735.018005,272.579559,-441.885834,737.78363,338.120697,-441.707275,738.143555,344.082916,-510.054474,738.528137,278.635162,-94.215897,847.561157,277.946075,-20.681561,847.588013,197.472641,-24.356541,845.538452,201.177856,-93.855797,844.40741,287.766907,-98.592598,742.488403,285.949097,-17.111179,741.876465,192.763901,-21.783888,738.54303,198.070221,-99.99839,738.741089
00162_color_1715976380.521321.png,1135,1715976380.5246508,524.518677,492.031525,927.96283,583.686218,525.110718,930.219238,578.926331,479.58493,956.95282,531.240234,433.341522,931.522217,507.145294,408.211121,917.264465,474.738281,395.775848,908.872986,458.156158,469.571625,910.947144,434.403168,466.118683,894.816589,411.15033,456.96402,876.285889,6.633022,299.087189,757.265381,36.805878,301.212555,751.83728,59.24612,303.466797,747.692993,-64.489731,248.323563,754.59436,-35.294685,237.156509,750.243469,-3.200037,229.954559,745.542236,-39.197853,307.06665,767.174683,-54.656769,336.698944,761.485229,-85.530785,307.511749,772.706665,-143.31636,280.337372,791.413086,185.956741,980.204407,1492.331909,239.212234,974.192688,1516.380493,290.363312,986.448975,1498.797119,317.0784,-503.351562,832.610046,271.406799,-514.423523,831.465088,256.426392,-451.172058,831.624512,318.494263,-449.702881,831.910767,264.712982,-517.429321,734.796631,253.965561,-441.335297,737.638245,319.401611,-441.06662,737.933167,325.210175,-508.830902,738.070801,278.647095,-94.211365,847.558655,277.949585,-20.66593,847.596252,197.469574,-24.341282,845.533752,201.165359,-93.866241,844.427429,287.773865,-98.599159,742.489502,285.94931,-17.122656,741.855469,192.770737,-21.77342,738.567017,198.067154,-99.994987,738.737488
