mbdulkadiroglu/VisualAffordanceDataset/synchronized_frames_5.csv
RealSense_frame,Vicon_frame,Vicon_timestamp,RightHand1:Wrist1_X,RightHand1:Wrist1_Y,RightHand1:Wrist1_Z,RightHand1:Wrist2_X,RightHand1:Wrist2_Y,RightHand1:Wrist2_Z,RightHand1:Wrist3_X,RightHand1:Wrist3_Y,RightHand1:Wrist3_Z,RightHand1:Thumb1_X,RightHand1:Thumb1_Y,RightHand1:Thumb1_Z,RightHand1:Thumb2_X,RightHand1:Thumb2_Y,RightHand1:Thumb2_Z,RightHand1:Thumb3_X,RightHand1:Thumb3_Y,RightHand1:Thumb3_Z,RightHand1:IndexFinger1_X,RightHand1:IndexFinger1_Y,RightHand1:IndexFinger1_Z,RightHand1:IndexFinger2_X,RightHand1:IndexFinger2_Y,RightHand1:IndexFinger2_Z,RightHand1:IndexFinger3_X,RightHand1:IndexFinger3_Y,RightHand1:IndexFinger3_Z,Realsense:Camera1_X,Realsense:Camera1_Y,Realsense:Camera1_Z,Realsense:Camera2_X,Realsense:Camera2_Y,Realsense:Camera2_Z,Realsense:Camera3_X,Realsense:Camera3_Y,Realsense:Camera3_Z,LeftHand1:IndexFinger1_X,LeftHand1:IndexFinger1_Y,LeftHand1:IndexFinger1_Z,LeftHand1:IndexFinger2_X,LeftHand1:IndexFinger2_Y,LeftHand1:IndexFinger2_Z,LeftHand1:IndexFinger3_X,LeftHand1:IndexFinger3_Y,LeftHand1:IndexFinger3_Z,LeftHand1:Thumb1_X,LeftHand1:Thumb1_Y,LeftHand1:Thumb1_Z,LeftHand1:Thumb2_X,LeftHand1:Thumb2_Y,LeftHand1:Thumb2_Z,LeftHand1:Thumb3_X,LeftHand1:Thumb3_Y,LeftHand1:Thumb3_Z,LeftHand1:Wrist1_X,LeftHand1:Wrist1_Y,LeftHand1:Wrist1_Z,LeftHand1:Wrist2_X,LeftHand1:Wrist2_Y,LeftHand1:Wrist2_Z,LeftHand1:Wrist3_X,LeftHand1:Wrist3_Y,LeftHand1:Wrist3_Z,LeftHand1:Wrist4_X,LeftHand1:Wrist4_Y,LeftHand1:Wrist4_Z,Cup:Corner1_X,Cup:Corner1_Y,Cup:Corner1_Z,Cup:Corner2_X,Cup:Corner2_Y,Cup:Corner2_Z,Cup:Corner3_X,Cup:Corner3_Y,Cup:Corner3_Z,Cup:Corner4_X,Cup:Corner4_Y,Cup:Corner4_Z,Cup:Corner5_X,Cup:Corner5_Y,Cup:Corner5_Z,Cup:Corner6_X,Cup:Corner6_Y,Cup:Corner6_Z,Cup:Corner7_X,Cup:Corner7_Y,Cup:Corner7_Z,Cup:Corner8_X,Cup:Corner8_Y,Cup:Corner8_Z
00056_color_1715716979.700361.png,837,1715716979.704095,599.717712,1242.289917,1047.186279,541.340637,1279.8396,1032.256714,584.634277,1300.141846,1063.072998,647.417786,1269.922729,1051.331299,678.772583,1246.868408,1047.966797,697.873718,1215.000244,1047.401489,644.547119,1185.278809,1050.797607,655.422363,1159.277466,1044.876953,669.830688,1134.357544,1034.937012,302.660858,936.476685,1497.250854,248.506744,929.200012,1512.36792,198.232437,945.40509,1491.703613,161.088715,238.574799,761.741516,189.462265,250.607758,755.984253,209.619965,260.256683,751.970337,109.942863,171.646362,762.786438,142.461197,169.190689,757.159119,175.316559,172.65387,751.283203,115.118896,232.994156,772.529907,92.63446,256.079895,763.683472,68.556725,225.401413,774.569275,11.146708,197.605759,789.564514,493.9776,-406.257599,833.959961,484.744324,-347.437561,833.836731,542.977173,-345.751282,835.048035,542.582214,-403.427216,833.345947,480.68576,-333.262299,738.740601,551.814758,-338.350037,738.328125,546.914612,-405.714478,737.587769,482.700104,-408.028137,738.513855
00057_color_1715716979.734418.png,840,1715716979.7340949,609.611145,1232.171997,1041.649902,553.335449,1273.114258,1028.0448,597.657776,1291.087402,1058.486816,658.919495,1257.070801,1044.981567,688.85675,1232.24231,1040.803223,706.135132,1199.322998,1039.648926,651.440857,1172.678345,1043.972656,660.789062,1146.217529,1037.641846,673.49408,1120.707153,1027.22583,302.655823,936.482483,1497.252563,248.51088,929.186218,1512.36145,198.237717,945.405334,1491.69165,161.223831,238.611893,761.731445,189.604034,250.654495,756.02417,209.772049,260.294678,751.954712,110.089256,171.392899,762.378418,142.617981,169.221344,757.139465,175.472168,172.721313,751.279236,115.259659,232.961563,772.418274,92.767265,256.115509,763.667175,68.686157,225.388092,774.568176,11.270598,197.539154,789.559875,493.981049,-406.244568,833.963379,484.754211,-347.435944,833.83844,542.987366,-345.735443,835.05365,542.58606,-403.413666,833.346924,480.675079,-333.247833,738.742798,551.81958,-338.355865,738.319275,546.921143,-405.70816,737.600098,482.720062,-408.02124,738.517883
00058_color_1715716979.768227.png,843,1715716979.7640948,618.86969,1223.302734,1037.819824,564.668884,1267.841431,1025.994019,610.503235,1282.661011,1055.816406,669.549194,1245.075806,1040.222778,697.880737,1218.573853,1034.841309,713.185608,1184.814453,1032.682983,657.197327,1161.52832,1038.372192,664.860779,1134.633911,1031.414062,675.822632,1108.59436,1020.411499,302.653076,936.503662,1497.257324,248.503891,929.21344,1512.36145,198.224899,945.422302,1491.692871,161.422226,238.845581,761.862,189.762207,250.766968,756.052124,209.983948,260.411469,751.945679,110.287949,171.476196,762.336548,142.84111,169.309723,757.07782,175.701462,172.86319,751.295044,115.44873,233.1082,772.492493,92.939438,256.163208,763.648193,68.858856,225.403229,774.547058,11.502367,197.426117,789.539734,493.985168,-406.242615,833.947754,484.75174,-347.434631,833.832764,542.998962,-345.739746,835.044617,542.59198,-403.42868,833.344604,480.681915,-333.238739,738.742065,551.828674,-338.33252,738.305359,546.927124,-405.714783,737.598083,482.735107,-408.018341,738.493774
00059_color_1715716979.802516.png,847,1715716979.8040948,629.500183,1213.341431,1036.382935,579.636169,1262.761841,1025.015381,625.821899,1273.044067,1055.878662,681.875,1230.66333,1039.974976,707.931763,1201.919434,1034.019287,720.085999,1167.035522,1030.988159,662.509766,1148.51709,1035.097534,668.115662,1121.457275,1027.177856,677.131348,1094.979858,1015.210388,302.65271,936.526123,1497.248413,248.504944,929.230408,1512.361816,198.214127,945.446777,1491.69751,161.636444,238.80394,761.732666,189.95166,250.895233,756.092651,210.198471,260.527893,751.935852,110.547691,171.481537,762.244629,143.092865,169.309235,757.002441,175.992737,172.971024,751.258484,115.720757,233.03508,772.418518,93.157349,256.161255,763.630066,69.066261,225.321396,774.539307,11.812537,197.167816,789.501404,493.98584,-406.25177,833.951111,484.765991,-347.434692,833.837402,543.0,-345.737091,835.043579,542.60498,-403.427765,833.3302,480.694397,-333.23877,738.755859,551.831848,-338.33786,738.313171,546.942383,-405.690735,737.579041,482.740906,-408.012421,738.51416
00060_color_1715716979.836765.png,850,1715716979.834095,637.364502,1207.352417,1037.24939,590.346741,1259.602661,1025.719971,636.573853,1267.199219,1057.302612,690.368591,1221.978516,1042.298218,714.967102,1192.047974,1036.782349,725.240051,1156.635864,1033.728271,667.135681,1140.834351,1035.854858,671.70105,1113.706421,1027.435181,679.688049,1087.105103,1015.019287,302.641632,936.522461,1497.243652,248.487534,929.234924,1512.348633,198.220062,945.436035,1491.680054,161.754105,238.837296,761.720337,190.049942,250.947083,756.081543,210.328171,260.55722,751.909363,110.690392,171.445602,762.179199,143.224564,169.334442,756.958374,176.138153,173.022537,751.239746,115.854713,233.152771,772.543701,93.267372,256.185211,763.635559,69.187492,225.268188,774.522461,11.92153,197.061569,789.510559,493.995361,-406.260681,833.929016,484.76532,-347.447083,833.822083,542.997131,-345.753876,835.032776,542.597412,-403.435944,833.318176,480.688019,-333.251251,738.733582,551.828979,-338.368073,738.303101,546.929688,-405.726654,737.58313,482.751007,-408.026428,738.492615
00061_color_1715716979.871487.png,854,1715716979.874095,648.295593,1200.642334,1038.951172,603.390442,1254.899292,1027.552734,650.604736,1260.474731,1058.325562,702.03186,1213.44751,1043.13147,725.383301,1182.586426,1037.573242,734.439941,1146.759399,1034.473022,676.194519,1133.122803,1037.834229,680.005859,1105.732056,1029.27417,687.648132,1079.05481,1016.494873,302.635834,936.486145,1497.244385,248.496429,929.190125,1512.366455,198.211655,945.409973,1491.695068,161.813889,238.815247,761.712708,190.093384,250.981247,756.099854,210.377686,260.583923,751.927612,110.782921,171.385284,762.12915,143.296631,169.29715,756.923706,176.205658,173.039932,751.234131,115.906334,233.15448,772.570496,93.332466,256.125244,763.626953,69.245232,225.174667,774.520203,12.028362,196.898239,789.489929,493.992004,-406.267395,833.935913,484.754669,-347.457733,833.822754,542.999634,-345.768707,835.029297,542.601624,-403.432373,833.325928,480.689697,-333.262451,738.748291,551.81665,-338.365814,738.29895,546.953796,-405.709686,737.588013,482.740204,-408.026001,738.502441
00062_color_1715716979.905991.png,857,1715716979.904095,655.689575,1195.61499,1039.923828,611.857483,1251.501831,1029.314087,659.868469,1255.631714,1059.131348,709.894287,1207.059204,1042.631348,732.406616,1175.55481,1036.402588,740.514954,1139.525757,1033.250977,682.028076,1127.273315,1038.332764,685.35553,1099.887695,1029.493286,692.357056,1073.119385,1016.55603,302.635834,936.475281,1497.239502,248.76561,928.665405,1512.024048,198.238693,945.387512,1491.667358,161.800201,238.799881,761.690308,190.090057,250.969437,756.106995,210.36792,260.580719,751.911194,110.769684,171.365005,762.102417,143.295639,169.286987,756.92157,176.200546,173.028717,751.226685,115.831436,233.074158,772.503967,93.311859,256.132202,763.630737,69.212082,225.16275,774.516174,12.023921,196.871033,789.464661,493.996338,-406.271545,833.927063,484.748138,-347.463989,833.816589,542.996399,-345.772858,835.018005,542.590881,-403.445221,833.312744,480.69281,-333.275269,738.736816,551.828796,-338.375793,738.294678,546.93811,-405.738403,737.58429,482.748932,-408.057709,738.495667
00063_color_1715716979.940359.png,861,1715716979.944095,662.444153,1188.415283,1041.602051,622.352234,1247.521484,1031.428955,670.557861,1248.22522,1061.318604,717.166138,1196.338257,1044.426514,737.718689,1163.573486,1037.88501,743.78363,1127.194092,1034.411987,684.68335,1118.492676,1039.081909,686.347778,1091.122925,1029.806519,691.796631,1064.218628,1016.404846,302.487579,934.898743,1496.495361,248.669022,928.886292,1512.150513,198.227448,945.401489,1491.686157,161.806534,238.820953,761.713562,190.109161,250.982132,756.103088,210.367981,260.604095,751.912292,110.792534,171.380829,762.107422,143.317108,169.304413,756.914124,176.224655,173.051773,751.233582,115.842026,233.02713,772.404419,93.313065,256.126282,763.62384,69.207939,225.148895,774.501831,12.046561,196.80777,789.439514,493.989258,-406.268188,833.929382,484.765411,-347.454254,833.815125,543.002686,-345.763489,835.029358,542.608826,-403.432465,833.323242,480.695648,-333.282257,738.717407,551.823303,-338.367889,738.29425,546.939087,-405.722229,737.581116,482.735291,-408.024963,738.498657
00064_color_1715716979.974673.png,864,1715716979.9740949,666.457825,1182.432983,1042.598022,629.932495,1244.278687,1032.369019,677.605469,1241.973389,1062.958374,721.000977,1187.346558,1046.973389,739.700195,1153.387573,1040.743652,743.352722,1116.668213,1037.185059,683.773621,1111.499512,1040.441162,683.959045,1084.187378,1031.039429,688.14801,1057.176636,1017.312622,302.486725,934.9021,1496.481934,248.66835,928.886108,1512.143921,198.229584,945.397705,1491.672852,161.803467,238.81456,761.705017,190.1008,250.98703,756.097717,210.355667,260.597046,751.913574,110.805885,171.325867,762.067322,143.330673,169.284363,756.901672,176.241608,173.046387,751.220703,115.795509,233.009033,772.439758,93.311081,256.095459,763.617981,69.200645,225.089081,774.513855,12.076551,196.681458,789.438538,493.990265,-406.257721,833.930542,484.761566,-347.442902,833.815247,543.000244,-345.759918,835.023987,542.600647,-403.435944,833.315613,480.683563,-333.31073,738.686646,551.826904,-338.371216,738.30188,546.925903,-405.726654,737.585815,482.731781,-408.026855,738.489441
00065_color_1715716980.009011.png,867,1715716980.0040948,669.996948,1175.92627,1042.576416,636.945679,1239.723145,1032.470947,684.203003,1234.690796,1063.204712,724.580383,1177.474365,1047.59375,741.289001,1142.673218,1041.516235,742.871887,1105.875244,1038.139893,682.988953,1104.081543,1040.832764,682.013794,1076.636353,1031.052246,685.029358,1049.626831,1017.007202,302.491791,934.888306,1496.492798,248.666412,928.883667,1512.154175,198.235031,945.393616,1491.681396,161.811127,238.820511,761.717896,190.106079,250.991501,756.103943,210.367188,260.605652,751.909058,110.847,171.266983,762.025879,143.351212,169.260544,756.875488,176.273834,173.062515,751.218445,115.861443,233.074966,772.509583,93.310364,256.057922,763.610535,69.20137,225.015381,774.509338,12.114318,196.550995,789.419189,493.988434,-406.248505,833.939575,484.773468,-347.440399,833.819336,543.006531,-345.756836,835.027588,542.608643,-403.439148,833.329651,480.687836,-333.309845,738.676819,551.817932,-338.359894,738.300781,546.934998,-405.716431,737.594177,482.739532,-408.021881,738.487854
00066_color_1715716980.043599.png,871,1715716980.0440948,674.084839,1165.139771,1039.539429,645.540039,1230.980225,1029.529907,692.825256,1222.567505,1059.846313,729.522766,1162.904053,1043.646484,743.71521,1127.219238,1037.561035,742.939514,1090.283691,1033.773193,683.260254,1092.196777,1036.756592,680.561096,1064.955444,1026.651855,682.294312,1037.99646,1012.270813,302.485352,934.8797,1496.483154,248.67189,928.875732,1512.143311,198.230484,945.381409,1491.686401,161.811569,238.830154,761.715027,190.092377,251.00386,756.101257,210.366974,260.6091,751.909546,110.857574,171.237503,762.001709,143.366425,169.25563,756.863647,176.283859,173.084564,751.216858,115.82196,233.019867,772.492004,93.310394,256.035431,763.609375,69.187859,224.940536,774.508606,12.125769,196.414413,789.420532,493.993439,-406.258972,833.929688,484.762878,-347.436157,833.809998,543.008972,-345.751862,835.026428,542.602295,-403.430206,833.326416,480.687317,-333.327576,738.673035,551.832581,-338.356384,738.300171,546.936829,-405.725311,737.581238,482.729614,-408.020264,738.487549
00067_color_1715716980.078048.png,874,1715716980.0740948,677.278687,1154.974976,1033.972656,652.018616,1222.225708,1024.619629,699.069153,1211.157471,1054.612915,732.789551,1150.051636,1037.748535,745.629639,1113.463623,1031.061279,742.953247,1076.960571,1026.967163,683.907776,1081.214478,1029.709473,679.422119,1054.621704,1019.624023,679.572632,1027.852783,1005.017639,302.488129,934.890503,1496.503052,248.670914,928.881775,1512.160156,198.222275,945.405701,1491.696655,161.782211,238.7966,761.725159,190.075378,250.978851,756.107544,210.339905,260.616669,751.915161,110.858681,171.240921,761.998779,143.364471,169.255234,756.860046,176.296478,173.070938,751.224548,115.843597,232.946121,772.406555,93.297241,256.012177,763.611023,69.176918,224.877121,774.514648,12.141218,196.322479,789.404114,493.989624,-406.261993,833.937988,484.764069,-347.452576,833.829041,543.003601,-345.764618,835.042297,542.601257,-403.431458,833.329712,480.700439,-333.338623,738.670715,551.823975,-338.369232,738.310608,546.933838,-405.705017,737.584534,482.72464,-408.016388,738.493958
00068_color_1715716980.112131.png,878,1715716980.114095,682.156311,1137.915161,1022.708801,660.620361,1206.838867,1015.121338,706.742737,1192.582397,1045.066162,736.705933,1129.703369,1026.939331,747.422485,1092.649048,1019.564392,742.62323,1056.171143,1014.772644,682.808411,1064.430298,1017.974365,678.218445,1038.01062,1006.350891,676.786804,1011.794556,990.961365,302.487915,934.895508,1496.497803,248.672195,928.880066,1512.148071,198.236694,945.405457,1491.687378,161.790314,238.845963,761.749695,190.095108,251.014679,756.110474,210.346161,260.642426,751.916931,110.878738,171.248901,761.977478,143.386292,169.264511,756.844299,176.315216,173.120392,751.225037,115.801353,232.997025,772.491394,93.27951,256.020325,763.606873,69.172432,224.901123,774.499329,12.17545,196.261047,789.377197,494.003113,-406.267334,833.924011,484.769226,-347.443359,833.821411,543.006409,-345.75705,835.030151,542.602417,-403.435913,833.322632,480.709137,-333.315399,738.689087,551.827454,-338.36676,738.297668,546.940247,-405.706085,737.572998,482.740814,-408.048218,738.480713
00069_color_1715716980.146239.png,881,1715716980.144095,685.240723,1122.323364,1013.9245,666.800049,1192.262451,1006.757385,712.246826,1175.843262,1036.530396,739.620667,1112.277222,1017.676331,749.158569,1074.723633,1009.698853,742.833496,1038.704834,1004.350647,684.798767,1048.675781,1007.153137,677.566406,1023.155823,995.821716,675.206665,997.19519,979.879395,302.498657,934.917297,1496.516602,248.136932,926.88092,1511.704224,198.206238,945.428955,1491.703125,161.783615,238.859711,761.762878,190.096405,251.03656,756.115723,210.345764,260.654358,751.931091,110.905678,171.224396,761.960938,143.389481,169.275208,756.847046,176.339584,173.150131,751.233459,115.845772,233.077362,772.535034,93.283813,256.015045,763.613281,69.158714,224.862747,774.510376,12.18728,196.167023,789.398499,493.995239,-406.235199,833.937317,484.765411,-347.438721,833.824036,543.001587,-345.750336,835.029053,542.603882,-403.426056,833.331177,480.703888,-333.306732,738.695801,551.825256,-338.3414,738.312195,546.945618,-405.712555,737.586487,482.735321,-408.026123,738.508423
00070_color_1715716980.180061.png,885,1715716980.184095,690.864075,1097.552246,1001.359558,674.190186,1168.425171,996.040161,719.2005,1149.732056,1025.209473,744.252502,1085.44397,1004.709961,752.429932,1047.862427,995.839966,744.339294,1012.422058,990.062073,686.968506,1024.249146,993.357788,678.439575,999.354004,981.691467,675.021057,973.891785,965.234558,302.477234,934.918884,1496.506958,248.12793,926.879822,1511.68396,198.20369,945.430237,1491.687988,161.76445,238.866104,761.751892,190.084793,251.042633,756.121399,210.343735,260.647675,751.927124,110.892136,171.255051,761.96283,143.391983,169.288132,756.855652,176.34053,173.1772,751.236389,115.819695,233.058304,772.506409,93.272881,256.023621,763.609131,69.140259,224.81868,774.481934,12.184162,196.052063,789.389587,493.980652,-406.253479,833.928101,484.75296,-347.442657,833.81604,542.998047,-345.755402,835.03656,542.60083,-403.423676,833.322021,480.716522,-333.304749,738.692383,551.82074,-338.366669,738.301697,546.945496,-405.7117,737.572693,482.741455,-408.046204,738.491882
00071_color_1715716980.214337.png,888,1715716980.2140949,694.781555,1076.385376,993.860901,680.422852,1147.351196,989.510742,724.271057,1127.610229,1018.22522,747.877014,1063.251953,996.333557,754.863953,1025.637817,986.819519,746.124939,990.425476,980.589172,689.289246,1003.338806,984.8125,680.000732,978.887695,972.854553,675.928284,953.639832,956.03772,302.596252,936.108215,1497.082275,248.525604,928.862549,1512.382935,198.217758,945.415955,1491.690918,161.78656,238.894547,761.777771,190.080368,251.063324,756.130676,210.339676,260.666534,751.934204,110.920181,171.250336,761.957153,143.414383,169.298126,756.849548,176.361801,173.213364,751.239807,115.828049,233.075058,772.530823,93.278145,256.013763,763.615906,69.139023,224.802322,774.485718,12.19943,196.01416,789.395264,494.001801,-406.256866,833.945251,484.760071,-347.436768,833.829163,542.988342,-345.732239,835.048279,542.604004,-403.426422,833.344238,480.709503,-333.373718,738.643372,551.825684,-338.335266,738.323486,546.944214,-405.703583,737.592102,482.7341,-408.001831,738.513977
00072_color_1715716980.248575.png,891,1715716980.2440948,698.344299,1053.682861,989.030212,685.464661,1124.979004,985.648315,729.06189,1103.726807,1013.76355,751.149963,1039.257446,990.625183,757.301147,1001.646545,980.555542,747.784851,966.674988,973.655762,691.092834,980.988403,979.226074,680.815308,956.938049,967.332214,676.438599,931.935974,949.861206,302.606049,936.04364,1497.058594,248.532257,928.975159,1512.378296,198.215454,945.437134,1491.69165,161.779984,238.880722,761.764404,190.072845,251.0513,756.129211,210.334442,260.666962,751.930176,110.910316,171.23671,761.945923,143.411728,169.309174,756.834595,176.365524,173.212769,751.239075,115.792511,232.981308,772.409546,93.278091,256.020477,763.609558,69.125061,224.787796,774.460449,12.197073,195.996017,789.361633,493.984558,-406.24939,833.932678,484.759888,-347.440521,833.823425,542.999573,-345.756104,835.027039,542.598389,-403.423492,833.334656,480.707642,-333.360779,738.644226,551.819397,-338.341858,738.315369,546.953186,-405.706299,737.595703,482.729523,-408.020508,738.504883
00073_color_1715716980.282382.png,895,1715716980.2840948,702.104797,1021.738525,987.983765,691.963501,1093.438965,985.178223,734.592773,1070.180786,1013.202637,754.204041,1005.257263,989.607483,758.602844,967.706543,979.109558,748.777405,932.734314,971.539612,692.068787,949.535645,977.300232,681.248718,925.929138,964.877625,675.465332,901.449951,947.569458,302.614166,936.229065,1497.152832,248.514328,929.112305,1512.369019,198.199219,945.446045,1491.691406,161.791473,238.876129,761.757568,190.089584,251.051331,756.127502,210.347778,260.664062,751.923584,110.89991,171.221664,761.934021,143.420197,169.28627,756.832214,176.366684,173.194458,751.223572,115.805603,232.973648,772.408813,93.261047,256.003265,763.600342,69.123627,224.778015,774.44696,12.210452,195.98761,789.351868,493.978851,-406.253845,833.952148,484.752136,-347.437775,833.829224,542.991394,-345.753204,835.039917,542.597961,-403.434967,833.338196,480.716492,-333.31955,738.699585,551.817627,-338.344635,738.316284,546.944702,-405.703094,737.592834,482.730621,-408.027313,738.510681
00074_color_1715716980.316420.png,898,1715716980.3140948,704.289062,996.879944,991.210693,696.238647,1068.765747,987.93219,737.982971,1044.491211,1016.487854,755.561401,979.128662,993.847412,759.517944,941.188904,983.277222,748.793518,906.476624,975.9646,692.338989,924.979431,980.901489,680.709473,901.71167,968.527039,674.605652,877.175659,951.273132,302.632965,936.377319,1497.204712,248.501022,929.205444,1512.355835,198.212509,945.425903,1491.680664,161.776779,238.868027,761.759033,190.077942,251.045532,756.122864,210.338913,260.657745,751.918335,110.896927,171.204559,761.923218,143.417145,169.264526,756.819214,176.368851,173.187317,751.204712,115.752686,232.980743,772.462585,93.265411,255.972443,763.588867,69.112747,224.750244,774.436462,12.19493,195.990982,789.334595,493.962219,-406.266632,833.938293,484.729767,-347.459167,833.823242,542.984619,-345.774536,835.042358,542.577637,-403.44693,833.325256,480.693939,-333.386993,738.640198,551.801941,-338.365051,738.318359,546.930542,-405.719055,737.588867,482.713165,-408.038269,738.495667
00075_color_1715716980.350698.png,902,1715716980.354095,707.172302,963.384216,999.061523,700.658142,1035.013062,993.850952,741.08252,1010.616882,1023.529053,757.981689,944.605286,1002.360596,761.4198,905.997437,992.86792,749.943054,871.494629,986.298096,693.721802,891.498657,990.761963,681.849121,868.013367,978.97876,675.169312,843.462891,962.422974,302.652283,936.500671,1497.26001,248.502747,929.222961,1512.370239,198.233398,945.447205,1491.680908,161.777786,238.857498,761.765564,190.079544,251.03479,756.131958,210.330658,260.656311,751.925049,110.896759,171.18251,761.898193,143.41597,169.252762,756.816223,176.366714,173.18251,751.223206,115.788155,232.932556,772.383911,93.340149,255.759445,763.474731,69.112892,224.726486,774.430664,12.230156,195.873489,789.36676,493.38031,-406.247925,833.934082,484.646393,-347.416656,833.830872,542.92395,-346.180664,835.062744,542.011047,-403.873474,833.324219,480.690765,-333.263489,738.684387,551.701477,-338.867493,738.313538,546.278442,-406.183563,737.594727,482.073273,-407.903412,738.530701
00076_color_1715716980.384691.png,905,1715716980.384095,709.004456,938.624084,1005.685303,702.624146,1010.249512,999.557373,744.042542,985.759766,1028.723145,760.091187,919.411011,1008.447388,763.474304,881.03064,999.486755,751.843872,846.204468,993.441284,695.399536,866.592041,998.765564,683.460876,842.960632,987.414307,676.174927,819.104797,970.803345,302.638733,936.497498,1497.244385,248.496231,929.224304,1512.366333,198.218292,945.440613,1491.69397,161.993301,238.324051,761.606079,190.092407,251.025833,756.090393,210.368042,260.581635,751.895081,110.899391,171.188278,761.908386,143.40712,169.268066,756.814819,176.358459,173.185394,751.207153,115.762466,232.801361,772.487549,93.327255,255.811127,763.496521,69.212692,224.523407,774.298828,12.329748,195.814316,789.196106,492.238831,-406.129395,833.958374,484.024597,-347.353821,833.835205,542.308228,-346.602783,835.023926,540.860535,-404.335236,833.318298,480.166748,-333.171844,738.63324,550.82251,-339.356018,738.220642,545.033752,-406.613831,737.608521,480.957489,-407.716766,738.515564
00077_color_1715716980.419153.png,909,1715716980.424095,710.007935,908.065063,1014.955383,704.421753,979.820007,1008.073547,746.537476,954.899963,1036.610474,761.977173,887.941223,1016.495361,764.09668,849.594666,1008.104919,751.697083,815.100525,1003.010132,695.559753,836.137939,1009.165283,683.927307,814.013245,998.248535,675.489014,788.334229,982.020325,302.648621,936.50061,1497.24939,248.506561,929.212036,1512.380737,198.236893,945.438416,1491.691528,161.762527,238.755096,761.825623,190.121643,250.838959,756.126526,210.371948,260.567169,751.900757,111.029228,170.905136,761.826843,143.475189,169.023926,756.839783,176.408798,173.067383,751.161682,115.760773,232.80365,772.459839,93.324959,255.779449,763.499512,69.212395,224.528946,774.311829,12.312946,195.82991,789.230164,490.544922,-406.082214,833.929382,482.962158,-347.113708,833.832642,541.212341,-346.982666,834.989319,539.189453,-404.758331,833.279602,479.096375,-332.987274,738.493469,549.941406,-339.86795,738.275208,543.357178,-407.147949,737.630737,479.222198,-407.300964,738.507812
00078_color_1715716980.454095.png,912,1715716980.454095,709.796997,887.820007,1022.584656,706.054626,959.590088,1014.976135,747.546387,933.885742,1043.708252,761.272827,866.345215,1024.380981,762.298462,827.928406,1016.536255,748.840881,793.74115,1011.7724,693.228699,816.4198,1017.724854,680.229858,793.926514,1006.534912,671.959229,769.182312,991.005981,302.640747,936.494812,1497.245117,248.496048,929.206543,1512.369995,198.23262,945.428589,1491.689941,161.788742,238.766418,761.83429,190.120651,250.852402,756.124023,210.355042,260.570435,751.899292,111.007065,170.92984,761.844788,143.462402,169.018463,756.829163,176.360123,173.147964,751.26239,115.756248,232.847336,772.505432,93.314522,255.817688,763.510071,69.192574,224.550659,774.320801,12.326371,195.830338,789.196106,488.749939,-405.777557,833.944031,482.095734,-346.746857,833.823669,540.30127,-347.525513,834.928772,537.395386,-405.249756,833.270569,478.319672,-332.596863,738.533508,549.044617,-340.635681,738.158386,541.398743,-407.77887,737.653809,477.384583,-406.749817,738.489502
00079_color_1715716980.488363.png,915,1715716980.4840949,709.279358,869.780457,1030.635864,707.72052,941.444397,1022.107849,748.4729,914.778503,1051.153198,760.121826,846.669434,1032.736938,759.874939,808.294434,1025.514648,745.24939,774.701904,1021.294922,690.581421,798.333679,1026.572144,676.644165,776.49292,1015.585999,667.593872,751.357361,1000.722778,302.639526,936.495911,1497.261719,248.495178,929.215393,1512.362793,198.224792,945.434082,1491.689331,161.779358,238.718033,761.82196,190.110687,250.838287,756.124939,210.376419,260.549011,751.89209,111.030243,170.892624,761.821777,143.482086,169.020554,756.833984,176.358841,173.127884,751.259888,115.772278,232.849564,772.549988,93.323509,255.784607,763.511719,69.215256,224.504044,774.310608,12.342296,195.78801,789.178589,486.72525,-405.534851,834.103088,480.800873,-346.531158,833.812744,539.082031,-347.969025,834.795715,535.307739,-405.670166,833.262207,477.03656,-333.095978,738.000427,547.626953,-341.306458,738.034058,539.018005,-408.499756,737.586121,475.140656,-406.321106,738.620789
00080_color_1715716980.522431.png,919,1715716980.5240948,708.901184,848.871155,1040.432861,709.744324,920.45813,1031.124023,749.88562,892.685913,1059.985107,758.952515,824.05542,1042.342529,757.230225,785.56842,1035.512329,741.496948,752.392212,1031.843018,687.698181,778.40033,1037.553589,672.763062,757.133484,1027.061401,662.98938,730.549072,1013.036011,302.637604,936.484009,1497.243164,248.496704,929.208557,1512.370972,198.232071,945.428467,1491.674683,161.785294,238.747482,761.835938,190.14006,250.835114,756.126526,210.377716,260.55661,751.888,111.037056,170.876099,761.817139,143.484116,169.021942,756.841248,176.357773,173.119415,751.244568,115.803368,232.893204,772.605103,93.327141,255.783829,763.511475,69.212181,224.520142,774.309814,12.32795,195.837326,789.182556,483.32077,-405.415497,833.970459,478.059235,-346.236633,833.77179,536.278381,-348.365143,834.888245,531.896851,-406.062622,833.192566,474.452881,-331.933441,738.543762,545.046875,-341.640808,738.062744,535.65509,-408.694275,737.4729,471.917603,-405.745392,738.489319
00081_color_1715716980.556871.png,922,1715716980.5540948,708.843872,835.460876,1045.909912,711.446228,907.098022,1036.274902,751.083374,878.404724,1064.91394,757.993591,809.419617,1047.554565,755.297546,770.872314,1040.9646,738.51239,738.75061,1037.963745,685.529602,765.316406,1043.730225,670.234924,743.315186,1034.040649,659.446594,718.446777,1019.805176,302.643219,936.490356,1497.246704,248.491699,929.202942,1512.356445,198.238373,945.41803,1491.672974,161.78273,238.705368,761.817627,190.114395,250.844269,756.121521,210.379288,260.546936,751.890808,111.035683,170.874466,761.828613,143.488205,169.015244,756.850708,176.368408,173.111343,751.237549,115.795662,232.875336,772.597107,93.323822,255.780899,763.49646,69.222786,224.514404,774.304932,12.330024,195.838043,789.197815,480.308807,-405.29837,833.910767,475.401031,-346.110443,833.727966,533.623413,-348.599426,834.906006,528.929993,-406.223755,833.14856,472.039642,-331.599548,738.557617,542.513062,-341.902954,738.097229,532.918091,-408.654938,737.450867,469.175049,-405.38562,738.333801
00082_color_1715716980.591769.png,926,1715716980.594095,708.360962,821.085999,1050.529297,714.065369,892.450317,1040.575928,752.828613,862.028442,1068.638062,756.66626,792.606079,1051.217896,751.97052,754.361023,1044.93335,733.747131,722.30127,1042.456787,681.981445,752.00647,1048.882446,666.148315,731.612793,1039.576172,653.495483,706.199036,1025.389771,302.637543,936.477417,1497.24292,248.500397,929.207031,1512.348877,198.227539,945.426147,1491.67688,161.756973,238.710815,761.820557,190.099426,250.824539,756.117493,210.357941,260.525177,751.888245,111.009415,170.879715,761.833252,143.464142,169.028732,756.855957,176.334518,173.106857,751.263306,115.822922,232.927139,772.60553,93.295662,256.059235,763.81427,69.19339,224.520081,774.310547,12.32878,195.79924,789.185852,475.950592,-405.12088,833.834961,471.217865,-345.862183,833.725647,529.423828,-348.479614,834.820312,524.606567,-406.069855,833.091431,467.776367,-331.425385,738.527039,538.224304,-341.77063,738.051575,528.382812,-408.591034,737.435974,464.688354,-405.136871,738.31427
00083_color_1715716980.625894.png,929,1715716980.624095,708.207397,812.29303,1051.617798,716.527344,883.428589,1041.695923,754.469666,851.470764,1069.1698,754.987671,782.253235,1051.989502,748.900452,744.004395,1045.7052,729.238403,712.71106,1043.187256,679.043213,744.361511,1050.272583,662.072449,722.4646,1041.003052,648.892517,699.290955,1027.279907,302.642303,936.514221,1497.250122,248.501984,929.211914,1512.359253,198.227585,945.434937,1491.697754,161.726334,238.739197,761.845703,190.079666,250.853867,756.15448,210.328979,260.556152,751.920654,110.997559,170.913361,761.871765,143.459564,169.052399,756.867615,176.319397,173.14035,751.282043,115.868782,232.735184,772.401184,93.302757,256.11554,763.901917,69.174713,224.538162,774.328186,12.295685,195.837738,789.243408,472.101318,-404.838959,833.8172,467.596924,-345.55014,833.748108,525.78363,-348.481598,834.831726,520.728821,-406.054474,833.119873,464.300201,-331.065002,738.563171,534.738953,-341.776886,738.076355,524.591248,-408.645355,737.440002,460.927856,-404.783264,738.267212
00084_color_1715716980.659990.png,933,1715716980.664095,708.318604,802.954285,1050.854492,720.888977,873.551758,1041.19043,757.44574,838.969971,1067.559082,753.151428,770.01825,1050.102539,744.589478,733.103638,1044.128174,722.994934,702.340454,1041.274292,674.92041,737.33844,1049.788818,656.54834,716.652893,1040.797974,641.285706,694.276184,1027.190552,302.637726,936.506287,1497.247437,248.498688,929.211182,1512.3573,198.22493,945.418762,1491.68396,161.744644,238.714294,761.839294,190.110168,250.842422,756.136658,210.329102,260.565155,751.923767,110.984085,170.90741,761.879211,143.441879,169.054169,756.870483,176.305832,173.137955,751.294678,115.793839,232.879974,772.508606,93.336861,256.179871,764.020569,69.183319,224.552948,774.314575,12.289847,195.889435,789.227844,466.322113,-404.481842,833.773254,462.389526,-345.202423,833.652954,520.50647,-348.565063,834.812134,514.953125,-406.100159,833.063171,459.21875,-330.420868,738.593933,529.600403,-341.850098,738.104065,518.96405,-408.746063,737.46875,455.319244,-404.263031,738.102051
00085_color_1715716980.694592.png,936,1715716980.694095,709.174011,797.549377,1049.416626,725.663635,867.44397,1040.064453,760.643494,830.700928,1065.648926,752.179688,762.071594,1047.563843,741.333252,724.675964,1041.079834,718.009705,696.567505,1038.855835,672.110229,734.029358,1048.209106,652.493652,714.346558,1039.335938,635.882263,692.848572,1025.630493,302.640991,936.499023,1497.250977,248.493942,929.214417,1512.366577,198.213379,945.427551,1491.707153,161.75769,238.712021,761.844849,190.110748,250.846924,756.149231,210.350357,260.575317,751.933655,110.905487,171.121765,762.047607,143.431702,169.070053,756.895325,176.30191,173.141006,751.318726,115.802025,232.701843,772.317566,93.288345,256.155182,763.939453,69.190071,224.588226,774.331055,12.259776,195.982071,789.256775,461.28244,-404.171021,833.775635,457.341431,-344.807983,833.676758,515.581665,-348.345154,834.803284,509.925842,-405.861084,833.029724,454.14035,-330.099396,738.605469,524.587524,-341.665283,738.085938,513.874756,-408.453308,737.414062,450.22345,-403.911469,738.116272
00086_color_1715716980.730945.png,940,1715716980.7340949,712.004211,792.689514,1047.79187,734.608337,860.605042,1038.08667,766.459229,821.140137,1063.143433,751.894531,753.259216,1044.942505,737.777832,716.998291,1038.599976,712.182739,691.955017,1037.098022,669.734009,732.272766,1046.832886,648.280151,714.462891,1038.165771,629.735046,694.372986,1024.70752,302.6427,936.497253,1497.246704,248.504272,929.20813,1512.356445,198.197647,945.443481,1491.707642,161.773071,238.743134,761.835022,190.101837,250.846298,756.149719,210.33606,260.559692,751.932007,110.875282,171.128311,762.055908,143.432831,169.073685,756.895813,176.296219,173.146393,751.313721,115.731415,232.781097,772.448975,93.156967,256.237518,763.927063,69.186523,224.633286,774.333557,12.24725,196.082962,789.262024,453.676331,-403.673218,833.683228,449.926147,-344.414825,833.518677,508.127502,-348.096924,834.810181,502.2995,-405.663605,832.961975,446.871948,-329.683746,738.540161,517.317261,-341.404907,738.03894,506.378235,-408.168549,737.339661,442.648926,-403.356354,737.999268
00087_color_1715716980.766430.png,943,1715716980.7640948,716.536987,789.142151,1046.067627,743.134949,855.896912,1036.450928,772.540955,814.347107,1061.045044,753.161987,747.844421,1043.191284,736.55603,711.847046,1036.413452,709.133972,687.23761,1034.660156,669.888977,732.250183,1045.989624,647.305847,715.761108,1037.490356,627.267883,697.056885,1024.27478,302.647675,936.499146,1497.258423,248.501083,929.217102,1512.372681,198.218643,945.434998,1491.690796,161.714386,238.726273,761.876465,190.077927,250.82373,756.14325,210.32225,260.528442,751.927307,110.841873,171.119461,762.075623,143.409912,169.06308,756.912781,176.256836,173.109344,751.319824,115.773125,232.686493,772.315918,93.08744,256.185699,763.82843,69.164749,224.63559,774.311096,12.218084,196.108871,789.24823,447.420715,-403.438293,833.563599,443.664124,-344.124451,833.501343,501.853516,-347.837189,834.721252,495.996185,-405.321472,832.946289,440.595551,-329.231018,738.525757,511.002899,-341.204987,737.972717,499.972473,-407.981567,737.350647,436.349213,-403.14798,737.98175
00088_color_1715716980.803346.png,947,1715716980.8040948,724.164734,785.632996,1044.472046,756.687073,850.134827,1035.615234,782.725647,805.415222,1059.086792,756.827759,741.506226,1040.552368,737.152283,708.151001,1033.614502,707.816711,685.767151,1031.728882,672.669556,733.197937,1043.937134,648.627441,719.023743,1035.515015,626.851013,702.373962,1022.147766,302.638367,936.487976,1497.256226,248.491913,929.214661,1512.367188,198.219421,945.429993,1491.690796,161.711716,238.682129,761.844788,190.053162,250.815125,756.152161,210.302383,260.527924,751.942261,110.786331,171.179962,762.115601,143.393707,169.061996,756.916321,176.232971,173.082825,751.318604,115.740738,232.866287,772.4823,93.251312,256.130859,763.840027,69.229286,224.762161,774.456116,12.169942,196.242096,789.253113,438.620911,-403.071472,833.584595,434.579315,-344.068787,833.590332,492.640564,-347.073242,834.645691,487.223938,-404.648651,832.927917,430.606964,-327.784149,739.322144,501.776337,-340.310638,738.027893,491.306702,-407.267395,737.247253,427.545074,-403.026154,737.9552
00089_color_1715716980.837706.png,950,1715716980.834095,731.249023,784.319092,1044.965576,768.819092,846.016418,1035.873291,791.061279,799.544434,1059.704346,760.696045,737.453674,1041.055664,738.504639,705.733093,1034.244629,707.874268,685.042969,1031.810425,675.873108,735.862671,1044.234375,650.836304,723.559937,1035.590088,628.017456,708.505798,1022.19751,302.649109,936.484558,1497.246582,248.510544,929.196228,1512.370117,198.225784,945.41626,1491.690552,161.717514,238.7108,761.838928,190.053848,250.813782,756.16748,210.29364,260.53949,751.938354,110.770432,171.218887,762.150024,143.373886,169.099304,756.939941,176.210312,173.119446,751.339966,115.745216,232.752869,772.323303,93.178238,256.244934,763.890808,69.170105,224.775864,774.297546,12.138489,196.407547,789.263184,431.697144,-402.952087,833.523376,426.83197,-343.513977,833.382935,485.158997,-346.3862,834.629639,480.281647,-403.933441,832.860962,422.987549,-327.912018,739.191589,494.318451,-339.663818,737.94635,484.36911,-406.442902,737.238647,420.602173,-403.032013,737.989441
00090_color_1715716980.872482.png,954,1715716980.874095,742.080872,782.455017,1046.976562,785.35968,840.010315,1037.320435,803.004333,792.050659,1062.290405,767.049316,732.828125,1044.657471,742.171326,702.914673,1038.188354,709.089417,685.749695,1036.09082,682.362854,739.376465,1046.587646,656.151489,729.032471,1037.756836,632.288879,716.616882,1024.692993,302.653442,936.486694,1497.258667,248.497711,929.191772,1512.37915,198.218338,945.412476,1491.702637,161.727188,238.711563,761.834473,190.052444,250.801407,756.154053,210.297333,260.535431,751.938965,110.756935,171.244659,762.186523,143.359283,169.097595,756.947571,176.19342,173.110916,751.344788,115.750145,232.76239,772.327087,93.468781,255.860001,763.616272,69.184372,224.806595,774.300903,12.143363,196.484863,789.273132,421.359406,-402.343781,833.327698,416.031769,-343.063232,833.336182,474.344055,-345.423553,834.609985,470.100189,-403.156189,832.762207,412.248535,-327.400757,739.108643,483.604156,-338.610443,737.796631,474.376923,-405.562836,737.181335,410.379028,-402.893158,737.762512
00091_color_1715716980.906325.png,957,1715716980.904095,750.604004,779.350708,1048.263672,796.688965,834.714539,1038.793091,811.929077,785.869507,1063.725708,773.101746,728.547607,1046.039307,746.680176,700.013428,1039.511353,712.814941,683.961121,1036.923218,688.681274,738.994324,1047.518433,662.508301,731.356323,1039.562256,637.348633,719.263489,1025.741333,302.641418,936.493164,1497.254517,248.495804,929.184326,1512.375732,198.205444,945.427917,1491.709229,161.73967,238.710388,761.834656,190.075226,250.830948,756.160156,210.297897,260.545135,751.944214,110.769691,171.257172,762.200378,143.36557,169.110107,756.9646,176.201736,173.117126,751.347473,115.757812,232.793411,772.333984,93.187057,256.259918,763.864075,69.177963,224.883865,774.324707,12.107589,196.612015,789.325134,413.196106,-402.060852,833.238159,407.343048,-342.978821,833.222534,465.620575,-344.688568,834.510498,461.833252,-402.327667,832.74469,403.447235,-327.484314,738.895996,474.806946,-337.882904,737.748413,465.788879,-404.236877,736.89032,402.073242,-402.969604,737.815552
00092_color_1715716980.940493.png,961,1715716980.944095,760.948242,774.023254,1049.076904,809.541504,827.650818,1040.13916,822.615112,777.575623,1064.598633,781.078491,722.269592,1046.476685,753.405945,694.937744,1039.816406,719.133423,679.704651,1036.679199,697.224182,735.938477,1047.893677,670.629395,729.564514,1039.655273,645.440491,718.826721,1025.998779,302.648041,936.509338,1497.258545,248.501755,929.198303,1512.375977,198.210602,945.416992,1491.713501,161.737091,238.722534,761.847107,190.076752,250.838959,756.178162,210.305862,260.551331,751.956848,110.751778,171.284958,762.242737,143.3564,169.109131,756.978088,176.18605,173.099121,751.325623,115.761276,232.809265,772.341064,93.19838,256.260803,763.85553,69.209396,224.738068,774.108154,12.098883,196.724075,789.311035,401.732208,-401.934174,833.097595,395.273132,-342.879456,833.123718,453.564545,-344.015442,834.500061,450.420227,-401.632568,832.592651,391.430725,-327.424408,738.775818,462.852234,-337.079285,737.67334,454.483978,-403.801666,737.044556,390.693481,-403.026978,737.617554
00093_color_1715716980.974865.png,964,1715716980.9740949,767.302612,769.952393,1048.811157,817.795898,821.767212,1039.724609,829.192932,771.436707,1064.246216,785.873352,717.53418,1046.255981,757.337463,691.123352,1039.618774,722.641724,677.201904,1036.94458,702.498718,733.441956,1047.734131,675.910034,727.794678,1039.134399,650.126282,718.15802,1026.062134,302.636078,936.484131,1497.249512,248.495071,929.210266,1512.378662,198.22464,945.417908,1491.697266,161.734436,238.757278,761.87915,190.080933,250.821854,756.153015,210.314163,260.524841,751.951355,110.720787,171.322052,762.279541,143.332642,169.136856,756.997559,176.173355,173.100113,751.340698,115.674652,232.902008,772.464172,93.240608,255.992569,763.51178,69.319405,224.632935,773.956421,11.872595,197.123581,789.410889,392.665039,-401.544403,833.052734,386.247467,-342.408051,833.00531,444.559357,-343.704681,834.313721,441.336792,-401.296783,832.52179,382.367767,-327.166504,738.525269,453.851562,-336.774689,737.568115,445.462006,-402.99408,736.650146,381.576019,-402.655426,737.630066
00094_color_1715716981.009337.png,968,1715716981.0140948,773.464172,764.649597,1047.182251,826.414734,814.161865,1037.794678,835.548157,763.528687,1062.347778,790.172607,711.461609,1044.352783,760.641174,686.054565,1037.845215,725.417603,673.854187,1035.451538,707.227173,730.85083,1046.279053,680.35144,726.306091,1038.237061,654.421692,717.316284,1024.904907,302.6427,936.482117,1497.253784,248.493958,929.188721,1512.372314,198.209518,945.410278,1491.701172,161.7332,238.746475,761.891785,190.088593,250.832199,756.160339,210.324188,260.545166,751.944519,110.71862,171.336456,762.30658,143.326889,169.154251,757.029907,176.171249,173.096741,751.350769,115.733513,232.824692,772.335754,93.195595,256.311066,763.814575,69.121452,225.024567,774.176025,12.062439,197.131119,789.657532,380.044922,-400.93985,832.931396,373.497253,-341.899475,832.836487,431.764496,-342.844788,834.25885,428.75293,-400.549622,832.436096,369.563629,-326.435577,738.555847,441.106445,-336.000793,737.553345,432.906952,-402.500031,736.676575,368.977448,-402.283356,737.487549
00095_color_1715716981.043813.png,971,1715716981.0440948,776.741211,760.990417,1044.900269,831.295471,808.811584,1035.255737,838.87738,757.777222,1059.776367,791.769043,707.247437,1041.851685,761.393433,682.816956,1035.512207,725.82959,672.272583,1033.414062,709.436768,729.290039,1044.246094,682.546326,725.389709,1036.169922,656.143066,717.424622,1023.047668,302.645782,936.481689,1497.246582,248.495071,929.183289,1512.364746,198.244553,945.395935,1491.680908,161.690033,238.728012,761.890442,190.052231,250.803619,756.165466,210.287018,260.519226,751.937866,110.713402,171.285385,762.27594,143.31041,169.120377,757.007385,176.147461,173.07077,751.34613,115.614464,233.049713,772.478699,93.326691,256.080475,763.63739,69.068108,224.97583,774.123474,11.922623,197.054916,789.434692,370.284668,-400.083496,832.743103,364.019653,-340.963837,832.861938,422.342865,-342.374054,834.166199,418.975006,-400.013306,832.332397,360.822388,-327.264069,737.099548,431.688202,-335.395081,737.441284,423.042114,-401.871979,736.622314,359.09845,-401.126221,737.42511
00096_color_1715716981.080594.png,975,1715716981.084095,779.669495,756.632019,1040.900635,836.583862,801.710266,1030.851318,841.704529,750.476746,1055.615479,792.401794,702.800049,1038.548706,760.753235,679.182312,1031.961426,724.597473,670.741882,1030.201904,711.103271,728.384827,1040.516724,683.948853,725.35321,1032.289551,657.320068,718.491516,1019.185791,302.638397,936.481445,1497.247314,248.494034,929.189819,1512.365234,198.231674,945.397156,1491.672607,161.649597,238.888702,761.867615,189.885559,251.175873,756.24884,210.275269,260.538422,751.958801,110.69915,171.337234,762.311768,143.302216,169.132004,757.025391,176.139206,173.071426,751.35083,115.630562,233.017548,772.443298,93.353897,256.122559,763.665222,69.077751,225.230438,774.378052,11.945066,197.116882,789.542725,356.522552,-398.543549,832.750916,350.636078,-339.502319,832.686768,408.956177,-341.242188,834.055298,405.19162,-398.777649,832.262756,346.998749,-324.280762,738.180481,418.183868,-334.436859,737.182129,409.333405,-400.678009,736.450806,345.422272,-399.584351,737.202087
00097_color_1715716981.119834.png,979,1715716981.124095,781.669434,752.126099,1036.891724,840.416321,794.939636,1027.015625,843.496399,743.610718,1052.005737,792.342346,696.811401,1034.566406,759.722412,675.769714,1028.344116,723.537537,668.517517,1026.250244,712.185181,726.763489,1036.259766,684.916382,724.541504,1027.569092,658.148743,718.600708,1014.478943,302.628906,936.481445,1497.242432,248.493698,929.192627,1512.371582,198.228912,945.394592,1491.68042,161.643585,238.862701,761.842285,189.972839,250.938797,756.17688,210.190872,260.636475,752.019226,110.591782,171.527664,762.361572,143.272232,169.1371,757.050659,176.097107,173.063828,751.357178,115.628021,233.127914,772.477234,93.164284,256.421783,763.897461,69.008438,225.147079,774.212158,11.878866,197.207703,789.539429,342.739136,-396.79483,832.522339,337.403412,-337.633514,832.521484,395.649017,-339.869965,833.983459,391.393188,-397.325439,832.143982,333.807404,-322.057861,738.205505,405.000946,-332.975586,737.192749,395.688507,-399.135986,736.240723,331.781158,-397.607849,736.991943
00098_color_1715716981.154045.png,982,1715716981.154095,782.809448,748.759644,1034.841797,842.664917,790.149048,1024.879028,844.601868,738.893372,1050.080444,791.903259,694.212769,1033.251343,759.374939,672.649902,1026.299316,722.878357,666.318359,1024.274292,712.98584,725.045349,1034.075439,685.499817,723.49707,1025.588257,658.405273,718.250427,1012.460693,302.633911,936.476929,1497.236816,248.486526,929.186646,1512.365845,198.236008,945.379517,1491.678955,161.576538,238.87059,761.835815,189.917145,250.952698,756.19397,210.171158,260.578339,752.009949,110.540047,171.520203,762.38324,143.050766,169.530716,757.144043,176.016052,173.077011,751.383545,115.55793,233.187195,772.48999,93.148094,256.321991,763.75885,68.976166,225.369675,774.384644,11.79225,197.326599,789.541382,332.37149,-395.264771,832.571228,327.167145,-336.173401,832.466553,385.373077,-338.491821,833.858521,381.03949,-396.010223,832.106506,323.516479,-320.567596,738.176941,394.755554,-331.781433,737.08905,385.17691,-398.325134,736.305115,321.340851,-396.192719,736.96228
00099_color_1715716981.188360.png,985,1715716981.184095,784.117737,745.358521,1033.442505,844.532227,785.670227,1023.096069,845.174438,734.971375,1048.784424,792.365051,690.254944,1031.67688,759.214783,669.813232,1025.248047,722.587341,664.105591,1023.454285,713.830505,723.130554,1033.300415,686.306152,722.108154,1024.973022,659.132202,716.91925,1011.799805,302.636414,936.490173,1497.241455,248.493164,929.190735,1512.370728,198.213577,945.400146,1491.689331,161.477142,238.908035,761.865295,189.840073,250.925568,756.187012,210.061371,260.54483,752.029236,110.409927,171.577576,762.441589,143.013931,169.404938,757.144836,175.894058,173.09491,751.406555,115.429985,233.239609,772.519592,92.987587,256.244507,763.573608,68.852066,225.283768,774.179199,11.665071,197.458176,789.551819,321.880371,-393.859222,832.453674,316.769409,-334.767273,832.34613,374.988831,-337.191681,833.75708,370.571747,-394.674194,832.014526,312.970795,-318.910767,738.157898,384.375305,-330.445557,736.967651,374.770508,-396.759644,736.259644,310.870392,-394.760193,736.909363
00100_color_1715716981.222563.png,989,1715716981.2240949,785.544434,740.831421,1031.761963,846.721863,780.158447,1021.404297,846.658142,729.065735,1046.549683,792.886658,685.773193,1029.530151,759.297119,665.697937,1022.717957,722.702881,660.614624,1021.056763,715.04834,719.792603,1031.603271,687.530029,719.798218,1023.802612,659.961304,714.777222,1010.328674,302.638519,936.507874,1497.249756,248.496811,929.193298,1512.361694,198.219574,945.408691,1491.695312,161.352554,238.838562,761.88324,189.748215,250.896362,756.207458,209.928909,260.513733,752.062378,110.271492,171.546204,762.495117,142.926041,169.351791,757.150513,175.751663,173.162659,751.387268,115.334953,233.185623,772.529053,93.037788,256.196045,763.645508,68.752548,225.427414,774.356262,11.553455,197.488754,789.558899,307.511902,-392.239136,832.346741,302.22049,-333.039551,832.232788,360.486755,-335.425873,833.618713,356.129486,-392.870392,831.906921,298.595093,-317.261078,738.014893,369.883881,-328.671082,736.856995,360.351074,-395.079376,736.147766,296.413055,-393.128113,736.737
00101_color_1715716981.257050.png,992,1715716981.2540948,786.747864,737.335693,1030.977539,848.595642,775.936646,1021.068665,847.693237,724.652283,1045.911011,793.342346,682.261353,1028.387451,759.382874,662.661865,1021.315247,722.832397,658.008972,1019.437561,715.931946,717.332947,1030.443359,688.432678,717.847778,1022.730225,660.796204,713.296265,1009.068726,302.628662,936.479675,1497.241455,248.488861,929.196655,1512.367798,198.226807,945.394958,1491.690796,161.261948,238.812439,761.911377,189.662216,250.834229,756.200256,209.846619,260.452728,752.054016,110.18438,171.528275,762.523682,142.830063,169.373596,757.192932,175.681046,173.073837,751.400574,115.244865,233.114197,772.444031,92.825684,256.218201,763.594116,68.659607,225.461761,774.329224,11.455249,197.576004,789.54303,296.68454,-391.110901,832.14978,291.180817,-331.964325,832.078979,349.502106,-334.134521,833.546204,345.320618,-391.720001,831.74884,287.457001,-316.220154,737.85614,358.890686,-327.360168,736.776062,349.508453,-393.769226,736.10675,285.499268,-392.003418,736.646973
00102_color_1715716981.291250.png,996,1715716981.2940948,788.834351,732.853149,1032.651855,851.836792,769.831604,1022.72583,849.515747,718.552917,1047.391357,793.545166,676.943787,1029.20166,759.783081,659.432068,1022.972107,722.827637,655.276245,1020.886902,717.590393,714.72876,1032.221924,690.161133,716.029785,1024.65625,662.154663,712.434814,1011.234741,302.627014,936.482666,1497.233032,248.494339,929.18988,1512.360107,198.241577,945.379822,1491.669434,161.149124,238.773666,761.935242,189.554855,250.796494,756.205505,209.734879,260.393036,752.076111,110.072296,171.495667,762.554932,142.694092,169.367569,757.23175,175.552856,173.033524,751.389648,115.145653,233.173233,772.562866,92.730583,256.186829,763.588135,68.480507,225.341232,774.124329,11.35397,197.665543,789.525208,281.40271,-390.116302,831.935974,275.72879,-330.972839,831.878235,334.03186,-332.977386,833.367798,330.123474,-390.5755,831.556641,272.139374,-315.130066,737.74353,343.431915,-326.091644,736.625977,334.258026,-392.360168,735.808105,270.342743,-391.19693,736.436462
00103_color_1715716981.325499.png,999,1715716981.3240948,790.554077,729.689941,1035.169556,854.32428,765.100647,1024.952148,850.860596,713.882385,1049.609497,793.993774,673.901367,1031.881958,759.745117,657.19281,1026.018799,722.621033,653.786316,1024.005981,718.85437,713.311401,1035.34436,691.220764,715.153198,1027.633179,663.299866,712.290588,1014.606018,302.635284,936.491455,1497.246948,248.49086,929.188904,1512.359497,198.218491,945.3927,1491.688721,161.06369,238.759064,761.947327,189.473465,250.775421,756.215027,209.653427,260.357391,752.074036,109.975273,171.485626,762.592346,142.591263,169.381195,757.284058,175.434433,173.002594,751.391724,115.036934,233.112137,772.48877,92.655174,256.2146,763.584717,68.469009,225.533569,774.310242,11.22258,197.77861,789.513062,269.476257,-389.503235,831.703308,263.803528,-330.391357,831.67572,322.087189,-332.31134,833.308533,318.134827,-389.950409,831.424561,260.304535,-314.798309,737.31842,331.644775,-325.356567,736.556519,322.550873,-391.778076,735.745728,258.593536,-390.649323,736.259766
00104_color_1715716981.360160.png,1003,1715716981.364095,792.427612,725.527527,1038.465576,857.440308,758.651062,1027.812012,852.311218,707.487488,1052.322388,793.946289,669.864075,1035.174072,759.246155,654.397339,1029.689575,721.890686,651.940186,1027.778564,720.186584,711.618958,1039.152954,692.427979,714.047302,1031.611816,664.461304,712.450317,1018.916504,302.639557,936.503601,1497.239258,248.491608,929.19696,1512.362061,198.205795,945.392517,1491.681763,160.989166,238.72258,761.957214,189.402283,250.701462,756.21759,209.561935,260.283325,752.078613,109.850777,171.492371,762.662292,142.47937,169.372635,757.301208,175.318634,172.952774,751.392944,114.944305,233.105408,772.5047,92.584381,256.203156,763.58783,68.324707,225.445541,774.10199,11.11224,197.935562,789.548462,252.692612,-388.906189,831.478699,247.410797,-329.605316,831.448364,305.743988,-332.011536,833.089844,301.303009,-389.581665,831.270691,244.021881,-313.738739,737.270081,315.351685,-325.075226,736.405029,305.863678,-391.66864,735.567444,241.80864,-389.73703,735.979004
00105_color_1715716981.394450.png,1006,1715716981.394095,793.560181,722.375732,1039.815552,859.551758,753.653748,1028.916382,853.04657,702.646667,1053.346436,793.585693,666.800842,1036.415649,758.1474,651.526855,1031.052612,720.953918,650.758057,1029.410156,720.947815,710.544861,1040.969849,693.182495,713.623962,1033.549316,665.235229,712.924744,1021.121887,302.641937,936.511353,1497.243652,248.492218,929.194153,1512.367432,198.20163,945.404968,1491.697754,160.947647,238.713547,761.977966,189.345001,250.66713,756.238831,209.511032,260.242126,752.093262,109.76049,171.500595,762.700195,142.411774,169.376053,757.347046,175.228683,172.927795,751.407837,114.894386,233.182114,772.611755,92.568443,256.400726,763.82782,68.296867,225.542542,774.173035,11.015827,198.077576,789.559875,239.96788,-388.392578,831.325928,235.030655,-329.235077,831.289612,293.281219,-331.828308,832.938843,288.67569,-389.385834,831.063599,231.835327,-313.461792,737.001343,302.978027,-324.890839,736.307373,293.158569,-391.370667,735.351807,229.286102,-389.39502,735.74823
00106_color_1715716981.428384.png,1009,1715716981.424095,794.451233,719.247437,1040.044312,861.469116,748.523376,1029.027588,853.514587,697.660645,1053.219727,792.947449,663.706543,1036.545654,756.603271,648.791199,1030.685303,719.827759,649.635742,1029.820312,721.536316,709.434998,1041.33313,693.691956,713.316589,1033.982666,665.803894,713.484863,1021.78595,302.645477,936.509705,1497.251831,248.483994,929.187866,1512.366577,198.188248,945.407593,1491.699951,160.938461,238.676575,761.985413,189.343399,250.631897,756.251892,209.515228,260.22171,752.085999,109.728142,171.487396,762.724548,142.371979,169.349625,757.355408,175.188232,172.878693,751.388794,114.902519,233.090591,772.527466,92.549393,256.211395,763.61731,68.275093,225.477692,774.065552,10.981396,198.18338,789.575439,227.183624,-388.283356,831.110962,222.212814,-329.017303,831.099792,280.481934,-331.675995,832.791382,275.801514,-389.153687,830.935974,218.950943,-313.1008,736.914185,290.239868,-324.769043,736.16217,280.480164,-391.431854,735.27948,216.466141,-389.252258,735.599792
00107_color_1715716981.462209.png,1013,1715716981.4640949,795.336182,714.59613,1038.286499,863.747925,741.052307,1027.129761,853.812378,690.457092,1051.110596,791.700684,659.215698,1034.42688,755.161499,645.662842,1028.648438,718.178955,647.503113,1027.924927,722.071655,707.435364,1039.74707,694.42981,712.474609,1032.698242,666.4151,713.805725,1020.636292,302.648987,936.500977,1497.250488,248.4953,929.207275,1512.377686,198.202469,945.409119,1491.70105,160.95076,238.675018,761.987854,189.370667,250.610107,756.224915,209.543365,260.201599,752.07666,109.707832,171.555939,762.788452,142.363403,169.367432,757.364441,175.183899,172.86319,751.394775,114.905884,233.196121,772.607178,92.627327,256.321716,763.706665,68.37941,225.767929,774.303467,10.924993,198.440536,789.539551,210.64151,-388.02417,830.802612,205.707123,-328.784485,830.818359,263.871216,-331.505157,832.576599,259.307831,-388.8909,830.646484,202.481735,-312.590576,736.736877,273.779358,-324.364624,735.933228,263.918518,-390.844147,734.914124,200.03479,-388.981049,735.322205
00108_color_1715716981.497775.png,1016,1715716981.4940948,795.924133,710.896179,1035.715942,865.052185,735.496521,1024.609131,854.051147,684.838257,1048.004517,790.807373,655.562378,1031.458496,753.997437,642.9599,1025.826904,717.009949,645.540527,1025.276489,722.372131,705.539673,1037.313843,695.069641,711.595398,1030.709839,666.804077,713.50061,1018.652466,302.639191,936.494629,1497.248413,248.492599,929.193359,1512.371948,198.210876,945.374695,1491.680908,160.991928,238.655884,761.969055,189.416367,250.622101,756.211426,209.59996,260.186005,752.054382,109.74437,171.518234,762.757446,142.400177,169.328735,757.336182,175.214371,172.834641,751.366028,114.954865,233.096512,772.496338,92.595451,256.237488,763.579224,68.42009,225.762848,774.266357,10.946261,198.526566,789.521545,199.564819,-387.656342,830.655518,194.46405,-328.482758,830.638,252.666977,-330.958679,832.406189,248.142883,-388.421967,830.494263,191.376022,-312.405304,736.536987,262.603424,-323.939606,735.782166,253.404617,-391.595306,735.397095,189.012299,-388.711243,735.056458
00109_color_1715716981.535951.png,1020,1715716981.5340948,796.947327,705.775269,1030.563599,867.264587,727.3349,1018.977051,854.211182,677.006104,1041.917847,789.773865,650.580383,1025.698486,752.467712,639.359009,1020.406494,715.680176,643.002197,1020.153992,723.120483,702.96106,1032.492188,696.127502,710.248535,1026.214478,667.707947,712.920166,1014.074707,302.639587,936.493042,1497.248657,248.489502,929.183411,1512.375732,198.201233,945.391724,1491.697266,161.037491,238.647919,761.968567,189.459457,250.610825,756.201782,209.635941,260.197083,752.026489,109.767265,171.494003,762.75592,142.422073,169.305923,757.341248,175.263611,172.827667,751.354248,114.99295,233.085678,772.499084,92.645554,256.202423,763.573425,68.399567,225.636627,774.085083,10.976937,198.574677,789.543091,187.440323,-387.497894,830.383362,181.250092,-328.323578,830.412598,239.464935,-329.924988,832.20929,236.081818,-387.479126,830.285706,177.985031,-312.586212,736.209229,249.374634,-322.652832,735.584534,241.098648,-389.450378,734.620483,176.827225,-388.897339,734.927612
00110_color_1715716981.572079.png,1024,1715716981.5740948,798.676025,700.311035,1023.554443,869.829285,718.802979,1011.834045,854.825989,668.882507,1033.948364,789.104492,645.393921,1017.459167,751.395264,635.51062,1012.019653,714.685791,640.431946,1011.847473,724.122192,700.047852,1024.608032,697.07782,707.544067,1017.597168,669.323975,711.963623,1005.440125,302.647064,936.504578,1497.259766,248.486649,929.183289,1512.374512,198.196609,945.409668,1491.70105,161.017624,238.63829,761.960327,189.435211,250.642746,756.225952,209.602615,260.212982,752.043823,109.758095,171.508041,762.789978,142.407211,169.312225,757.361023,175.231674,172.859512,751.378418,114.98082,233.09407,772.500488,92.665268,256.291321,763.702393,68.412247,225.619598,774.095093,10.956626,198.560059,789.557495,178.786713,-387.4776,830.353699,170.719803,-328.659302,830.190674,228.989487,-328.45462,832.05365,227.35762,-385.975464,830.214905,167.385132,-313.190033,735.844849,238.877472,-320.941864,735.401672,232.391891,-387.722656,734.414368,168.231491,-389.615845,734.946777
00111_color_1715716981.606827.png,1027,1715716981.604095,800.278381,695.84021,1016.717896,872.432495,711.949646,1005.346191,855.687683,662.595459,1027.403442,789.086731,641.457458,1010.013916,751.162292,632.612183,1004.293823,714.584534,638.565002,1004.224304,725.653687,697.764954,1017.404297,698.576965,705.777466,1010.007263,671.306763,711.432983,998.015869,302.649139,936.488831,1497.247192,248.483917,929.188782,1512.365967,198.21347,945.393372,1491.692261,160.993439,238.650864,761.969116,189.412155,250.609451,756.207458,209.582947,260.198456,752.055664,109.734238,171.48851,762.779968,142.389282,169.31398,757.365356,175.22261,172.841415,751.379333,114.957794,233.176208,772.601685,92.596367,256.209656,763.596436,68.391945,225.595657,774.080872,10.934032,198.526398,789.574951,174.490036,-387.457886,830.228516,165.237701,-328.802765,830.137146,223.388016,-327.290009,832.0,223.112,-384.934631,830.190308,161.919617,-314.008148,735.331726,233.29837,-319.719757,735.373108,228.572433,-387.17041,734.717285,164.050858,-389.845428,734.95874
00112_color_1715716981.641107.png,1031,1715716981.644095,803.706726,689.991455,1006.936218,876.821045,702.375305,995.895813,857.402832,653.843506,1017.465698,789.652649,635.70813,999.300415,751.623535,629.322571,993.827576,715.332703,636.892883,993.665161,729.117676,695.478394,1007.359131,702.691589,705.114319,1000.14209,675.628174,712.005859,987.964539,302.645233,936.507324,1497.258911,248.502914,929.18811,1512.376831,198.204224,945.387451,1491.690186,160.975616,238.667038,761.978027,189.382294,250.648941,756.240173,209.562088,260.207458,752.075195,109.732323,171.509552,762.78125,142.380646,169.344177,757.375549,175.206848,172.862167,751.404236,114.937286,233.120667,772.518311,92.573395,256.23288,763.607056,68.334724,225.646606,774.09613,10.926259,198.536118,789.564392,171.634842,-387.353943,830.189697,161.219788,-328.799805,830.098999,219.387405,-326.16153,831.976807,220.147461,-383.835663,830.169983,157.725433,-314.452271,735.065491,229.138031,-318.495392,735.250366,226.02269,-386.058441,734.704529,161.179825,-390.098541,734.904236
00113_color_1715716981.675024.png,1034,1715716981.674095,806.934265,685.623779,999.190369,880.524414,694.885803,988.133423,859.142517,647.202515,1009.631531,790.93042,632.51593,992.039246,752.424011,627.222961,986.206238,716.541138,636.319763,986.096191,732.807861,694.441467,999.683105,706.673889,705.047546,992.378052,680.038818,713.202026,980.306213,302.640015,936.507202,1497.253906,248.488922,929.200195,1512.370605,198.18721,945.394226,1491.687744,160.929443,238.659561,761.981873,189.353424,250.598602,756.234741,209.537064,260.180573,752.070923,109.706604,171.501236,762.788147,142.360413,169.35733,757.37384,175.174133,172.855011,751.392395,114.91256,233.101868,772.51709,92.467995,256.389771,763.760315,68.309067,225.64653,774.113647,10.914121,198.50975,789.579834,171.059021,-387.28299,830.171082,160.253967,-328.889832,830.089111,218.458221,-325.921997,831.930359,219.605789,-383.507507,830.173645,156.775345,-314.619232,735.019043,227.949219,-318.231262,735.082703,225.614426,-385.855194,734.74115,160.647919,-390.256317,734.925537
00114_color_1715716981.708946.png,1037,1715716981.704095,810.392212,681.29425,991.396912,884.384766,687.656616,980.3125,861.105896,640.787598,1001.761902,792.374573,628.767273,984.157776,753.717285,624.918884,978.285156,718.147705,635.475708,978.285156,736.904175,693.116699,992.033875,710.911865,704.572205,984.530396,684.635254,713.657715,972.404785,302.627716,936.48291,1497.23938,248.487061,929.186646,1512.377686,198.207809,945.381836,1491.686157,160.891464,238.635681,761.983765,189.313187,250.573456,756.231445,209.487411,260.148407,752.074036,109.672348,171.4832,762.782959,142.31897,169.348053,757.381287,175.130157,172.846268,751.392578,114.86335,233.162125,772.612061,92.524902,256.217987,763.617065,68.26683,225.59906,774.08783,10.879524,198.474197,789.560852,171.243576,-387.224274,830.218567,160.470947,-328.831696,830.085205,218.672043,-325.714264,831.868774,219.792358,-383.443207,830.110352,156.811172,-314.543793,735.095703,227.981171,-318.230835,735.010864,225.745819,-385.934113,734.751648,160.688782,-390.170349,734.954468
00115_color_1715716981.742897.png,1041,1715716981.7440948,815.111816,675.267151,981.311584,889.274658,678.730042,970.000244,863.860046,631.941467,990.64325,795.021667,623.43689,973.763123,756.275574,621.14563,968.1203,721.267822,632.927124,968.190552,742.534485,690.450256,982.62616,716.790161,702.449402,974.933289,690.705322,712.561646,962.860168,302.631287,936.505737,1497.257446,248.479752,929.187683,1512.371216,198.190674,945.404114,1491.68396,160.794952,238.630875,761.997131,189.218002,250.567169,756.273132,209.385132,260.123566,752.075867,109.591301,171.474518,762.78894,142.243851,169.355682,757.396729,175.068604,172.86055,751.397766,114.765305,233.093796,772.551758,92.504944,256.266388,763.736694,68.264122,225.703064,774.301208,10.826988,198.436798,789.59021,172.245895,-386.809387,830.252075,161.81897,-328.354004,830.049438,219.980606,-325.675171,831.870544,220.736481,-383.282013,830.125916,158.209335,-313.924591,735.228027,229.431335,-318.160706,735.161926,226.627167,-385.865295,734.754639,161.533188,-389.768372,735.017639
00116_color_1715716981.777338.png,1044,1715716981.7740948,818.80127,670.761414,974.162598,892.840332,672.742065,962.37616,866.67218,626.5448,982.838867,797.450134,619.289429,966.067383,758.702942,617.827026,960.569824,723.949829,630.337463,960.914551,746.216797,686.900574,975.736389,720.919434,699.727112,968.259216,694.783081,710.377502,956.351318,302.636749,936.4953,1497.251099,248.478043,929.192383,1512.355347,198.200851,945.394348,1491.681519,160.746704,238.5979,762.010132,189.144424,250.51886,756.25708,209.331879,260.081635,752.071655,109.56044,171.441422,762.76825,142.20755,169.315826,757.370789,175.013504,172.831635,751.381714,114.704292,233.041351,772.543457,92.39389,256.165649,763.634033,68.15966,225.49025,774.089966,10.786788,198.350937,789.580078,173.952576,-386.497986,830.263794,163.899918,-327.829956,830.124939,222.126923,-325.591034,831.878845,222.512054,-383.262085,830.138367,160.309418,-313.405945,735.312378,231.626556,-318.126801,735.150146,228.351669,-386.019562,734.869324,163.37822,-389.222778,735.026367
00117_color_1715716981.811223.png,1048,1715716981.8140948,823.039307,664.321716,963.317993,897.732361,666.15094,951.947144,870.85968,620.229736,971.951416,801.474792,614.402405,955.666199,762.647644,613.584595,950.4599,728.029663,626.661682,951.315552,750.842834,681.866089,965.86499,726.13855,695.753723,959.624939,700.187622,707.089478,948.059143,302.638397,936.491089,1497.237549,248.483536,929.187744,1512.365723,198.22789,945.398071,1491.688354,160.735474,238.60643,762.013123,189.144043,250.53212,756.264771,209.327148,260.094482,752.078735,109.533409,171.450409,762.763672,142.191772,169.337311,757.375244,175.002594,172.849411,751.379272,114.679703,233.062241,772.551758,92.382469,256.174713,763.636658,68.192886,225.634705,774.300842,10.771374,198.346817,789.573608,177.403809,-385.937408,830.328674,167.653,-327.288757,830.157837,225.862778,-325.349548,831.960388,225.92984,-383.040894,830.232178,164.111649,-312.709656,735.422546,235.390671,-317.979675,735.194214,231.612183,-385.768433,734.913208,166.673813,-388.686035,735.053955
00118_color_1715716981.845075.png,1051,1715716981.844095,827.277466,661.119385,955.621582,901.796875,662.246399,943.550415,874.573364,616.393677,963.238525,805.069031,611.457703,947.48645,766.102478,611.161682,942.702759,731.654785,624.57843,944.06311,755.283752,679.488708,959.24115,730.52478,693.203613,953.142944,704.573242,705.175537,942.135132,302.641876,936.505737,1497.246582,248.485245,929.193359,1512.372559,198.21405,945.403198,1491.69812,160.768875,238.628265,762.029358,189.173935,250.530563,756.269165,209.371292,260.100525,752.06073,109.557777,171.463104,762.753723,142.22644,169.360825,757.36676,175.03334,172.864319,751.353516,114.701317,233.059082,772.557983,92.464493,256.247101,763.739929,68.214157,225.661377,774.311523,10.795347,198.325531,789.578979,180.898499,-385.497894,830.414185,171.396255,-326.740906,830.264099,229.641678,-325.172882,831.990234,229.409821,-382.833862,830.319885,167.844193,-312.129333,735.727417,239.122391,-317.80777,735.308411,235.038513,-385.433868,734.962219,170.092865,-388.172211,735.101135
00119_color_1715716981.879341.png,1055,1715716981.884095,833.353882,658.233215,944.849243,907.943726,658.575684,931.917175,880.359741,612.702209,951.116394,810.444092,608.949585,936.195801,771.447571,609.398865,931.983398,737.223816,623.314758,934.00238,761.856995,677.521545,949.688171,737.710571,692.823608,944.838013,711.685425,704.938293,934.198364,302.64093,936.499207,1497.239136,248.48671,929.19751,1512.376709,198.225601,945.395325,1491.691406,160.8479,238.612457,761.988281,189.268265,250.544006,756.211792,209.4646,260.109955,752.024292,109.651703,171.450745,762.703064,142.304764,169.314453,757.311096,175.118576,172.86351,751.320679,114.808685,233.031235,772.528992,92.487465,256.1651,763.614502,68.237579,225.488068,774.08551,10.895466,198.296616,789.577209,187.013306,-384.941162,830.607544,177.839676,-326.242065,830.391174,236.04068,-324.830994,832.095215,235.570999,-382.450623,830.36731,174.112106,-311.592987,735.710815,245.453751,-317.461334,735.371216,240.94986,-384.997498,734.962219,176.2724,-387.539368,735.3125
00120_color_1715716981.915567.png,1058,1715716981.914095,838.539246,657.017517,936.815125,913.272705,656.883423,923.042847,885.378418,611.039551,941.970703,815.083069,608.489685,927.863586,776.034302,609.309631,923.969299,742.053955,623.529114,926.622864,767.159668,676.885071,942.577332,743.355408,693.040039,938.431763,717.400452,705.672729,928.286438,302.64624,936.513184,1497.253296,248.488373,929.19928,1512.380127,198.217422,945.418518,1491.700684,160.929306,238.63913,761.986328,189.360031,250.529709,756.20459,209.540253,260.124756,752.016052,109.692039,171.449585,762.683289,142.352585,169.301819,757.2771,175.182068,172.86348,751.30603,114.882835,233.134689,772.616638,92.540909,256.175385,763.609741,68.339882,225.49762,774.079712,10.945425,198.313721,789.562866,192.957092,-384.57962,830.731079,183.747253,-325.858551,830.480957,241.964798,-324.438416,832.164551,241.520905,-382.113068,830.532288,180.095428,-311.200165,735.836731,251.372635,-317.074036,735.478577,246.859863,-384.719116,735.023499,182.128601,-387.115509,735.344238
00121_color_1715716981.949919.png,1062,1715716981.954095,847.575684,658.15979,927.398438,921.388428,655.627136,910.752441,893.070312,609.977051,929.362183,822.401001,609.177979,917.116577,783.249695,610.718445,914.140564,749.536438,625.49707,917.920227,776.731445,679.168701,935.231506,752.47644,694.747742,931.010193,726.461304,707.914673,921.682678,302.644653,936.505981,1497.240234,248.483002,929.197449,1512.362793,198.212616,945.426147,1491.70105,160.944458,238.638443,761.987,189.372986,250.566513,756.202698,209.563995,260.141785,752.00531,109.719398,171.48613,762.689514,142.373383,169.330353,757.279358,175.200638,172.880157,751.310974,114.906685,233.13678,772.609192,92.561859,256.194183,763.61438,68.318542,225.552567,774.096436,10.955956,198.347321,789.544434,202.471771,-384.440857,830.888489,192.992035,-325.692657,830.693787,251.235657,-323.990295,832.281189,251.004868,-381.527374,830.669861,189.310059,-311.153107,735.998779,260.541656,-316.614197,735.634644,256.389099,-384.154633,735.182983,191.664978,-387.015076,735.64917
00122_color_1715716981.983965.png,1065,1715716981.9840949,854.470032,658.634583,919.563721,928.178589,655.088501,901.565979,899.485779,609.488098,919.925537,828.378052,610.288757,909.022949,789.290771,612.452026,906.842712,755.937744,627.540161,911.493103,784.027405,680.718079,928.967896,759.967773,696.789795,925.476196,734.036377,710.459167,916.727722,302.645081,936.500977,1497.250488,248.483856,929.201904,1512.361938,198.209106,945.411499,1491.68335,160.930161,238.620377,761.979614,189.355896,250.555069,756.214233,209.54007,260.120972,752.012573,109.706558,171.460571,762.692444,142.354721,169.326477,757.289124,175.183029,172.878342,751.318909,114.891739,233.11586,772.598694,92.551628,256.165924,763.610901,68.30468,225.516037,774.073059,10.944314,198.334457,789.537964,211.110886,-384.436523,831.026367,200.910355,-325.864807,830.821838,259.130188,-323.486359,832.423828,259.644104,-381.185364,830.804688,197.196106,-311.605743,736.066345,268.204773,-316.127686,735.612549,265.255737,-383.778534,735.387817,200.261948,-387.351196,735.744568
00123_color_1715716982.018495.png,1068,1715716982.0140948,862.120056,659.435181,912.380249,935.738159,654.591553,892.744446,906.584656,609.101379,910.647156,835.167847,611.545349,901.186279,796.157104,614.390991,899.782593,763.003784,629.653198,905.371948,792.066345,682.242798,923.056702,768.25647,698.694519,920.23938,742.46344,713.021606,912.256042,302.656738,936.509583,1497.25708,248.480972,929.185669,1512.365601,198.208511,945.405029,1491.67688,160.922668,238.632523,761.988953,189.346069,250.547348,756.229309,209.533447,260.110931,752.032898,109.697723,171.450623,762.706238,142.350143,169.321884,757.299316,175.171982,172.85524,751.319153,114.89344,233.121109,772.609131,92.543266,256.166443,763.618408,68.30986,225.509689,774.08374,10.940319,198.343903,789.555908,220.552521,-384.534027,831.1604,209.62439,-326.188416,831.000305,267.771088,-322.987335,832.638428,269.090942,-380.549591,830.94104,205.800858,-312.096283,735.978455,277.011322,-315.408112,735.876038,274.68512,-383.143677,735.546021,209.716095,-387.603821,735.943359
00124_color_1715716982.053028.png,1072,1715716982.0540948,874.113708,660.600708,902.908264,947.390015,653.576721,880.911255,917.421326,608.183716,898.38324,845.569214,613.676819,891.648376,806.674011,617.363098,891.451904,774.180725,633.49469,898.548645,804.84259,684.996338,915.76355,781.299072,702.114746,913.811584,756.048828,717.413025,906.934265,302.656372,936.523499,1497.263062,248.487564,929.189148,1512.374023,198.207031,945.393616,1491.702148,160.91423,238.626663,761.975647,189.348587,250.564392,756.231506,209.531387,260.116516,752.028625,109.674736,171.464066,762.716492,142.335251,169.329239,757.306946,175.162674,172.874512,751.335327,114.884216,233.130356,772.604187,92.532906,256.179443,763.615356,68.295631,225.556107,774.083557,10.892561,198.416336,789.550842,234.114365,-384.666046,831.362305,222.453751,-326.382355,831.170471,280.576324,-322.335999,832.820801,282.5289,-379.969269,831.177979,218.712112,-312.598206,736.124939,289.693359,-314.835114,736.118286,288.084198,-382.331055,735.77771,223.376663,-387.911804,736.092834
00125_color_1715716982.087551.png,1075,1715716982.084095,884.487305,661.469238,895.673096,957.355469,652.328735,871.98175,926.947327,608.262451,890.445923,854.51825,615.12854,885.156982,815.970459,620.185974,886.68573,784.104431,637.049866,894.575806,816.197754,687.777771,910.368347,793.133911,705.503418,908.994751,767.902649,721.241516,902.430115,302.651154,936.519409,1497.253784,248.491058,929.195679,1512.369507,198.197418,945.406128,1491.697876,160.931396,238.609085,761.969482,189.358719,250.546967,756.199158,209.552521,260.114227,752.022644,109.686424,171.474167,762.702637,142.340057,169.346725,757.301025,175.172409,172.875046,751.325256,114.890831,233.13501,772.596008,92.551407,256.194122,763.616821,68.386574,225.711395,774.277588,10.898829,198.465408,789.521545,245.089905,-384.729095,831.602844,232.864075,-326.532745,831.359985,291.027527,-322.092041,832.927795,293.496094,-379.707031,831.300171,229.033997,-313.170868,736.020386,299.92218,-314.494904,736.140686,299.217072,-382.267059,735.947205,234.358292,-388.215179,736.330933
00126_color_1715716982.122084.png,1079,1715716982.124095,899.437012,661.034607,886.389648,971.530518,649.139709,860.385193,939.751648,605.613159,878.760315,867.390015,615.885376,876.542603,829.177246,622.575195,879.448364,797.9953,640.390381,888.360901,832.700439,689.937805,903.629028,810.345032,708.599609,903.169861,785.823486,725.980896,897.912964,302.657379,936.529968,1497.266235,248.494232,929.207336,1512.379272,198.200577,945.420593,1491.698975,160.984283,238.604004,761.956543,189.419006,250.529434,756.194458,209.60939,260.110474,751.996582,109.713692,171.495667,762.697815,142.370819,169.313812,757.306702,175.208817,172.859329,751.309143,114.946457,233.136154,772.595947,92.595772,256.200226,763.601196,68.436043,225.756805,774.284668,10.934945,198.534515,789.485291,260.290283,-385.122955,831.773254,247.552383,-327.05426,831.544006,305.591064,-322.008423,833.144104,308.624146,-379.690552,831.495911,243.60611,-313.897736,736.187073,314.501892,-314.403717,736.36731,314.2948,-382.068573,736.018982,249.407593,-388.745453,736.626038
00127_color_1715716982.157689.png,1082,1715716982.154095,911.127014,660.00885,879.669006,982.506104,645.96936,851.711304,949.841614,602.786926,870.241028,877.970642,616.530273,870.864441,839.59198,623.400085,874.17218,809.254333,642.099304,884.242004,845.655762,690.751404,898.690613,823.657532,709.84491,898.682861,799.019165,726.951477,893.418823,302.635345,936.4953,1497.240479,248.494659,929.18927,1512.378174,198.210083,945.411438,1491.702271,161.057495,238.57666,761.965393,189.492188,250.496353,756.185791,209.672501,260.088806,752.019409,109.756813,171.458679,762.680298,142.405609,169.263474,757.275574,175.246124,172.816269,751.307434,115.013474,233.028015,772.490234,92.653435,256.186798,763.613525,68.421547,225.619873,774.104431,10.973791,198.570206,789.474304,272.105988,-385.580078,831.955444,258.768127,-327.678986,831.747375,316.748596,-322.300598,833.264343,320.322052,-379.744476,831.621704,254.750137,-314.816925,736.304321,325.690948,-314.436829,736.452026,325.943848,-382.027008,736.205933,261.136627,-389.416534,736.723694
00128_color_1715716982.191839.png,1086,1715716982.194095,926.661072,657.727234,870.728638,997.169556,640.036072,840.268677,963.53009,597.952271,859.407043,891.715393,615.433472,862.712158,853.885437,623.796387,867.325134,824.407532,643.424561,878.199341,862.498474,690.901794,890.840698,841.224121,710.798584,891.173462,817.470581,729.261475,886.763,302.648651,936.515381,1497.263794,248.491119,929.18634,1512.388672,198.199173,945.394165,1491.702515,161.139023,238.554031,761.921143,189.593781,250.497604,756.171387,209.767365,260.064667,752.012268,109.805283,171.47287,762.670288,142.44165,169.245178,757.253052,175.312378,172.775314,751.284729,115.105988,233.031906,772.453613,92.750954,256.196228,763.59967,68.503822,225.656967,774.108154,11.00572,198.666473,789.468079,288.573608,-386.166809,832.241089,274.303619,-328.561401,831.953125,332.144714,-322.103455,833.474548,336.789703,-379.519135,831.828857,270.075317,-316.039337,736.235901,340.897858,-314.082672,736.659607,342.596802,-381.877441,736.494324,277.669037,-390.335022,736.98999
00129_color_1715716982.226922.png,1089,1715716982.2240949,938.34082,654.957825,863.877625,1008.14679,634.75415,831.765869,973.744507,593.332764,851.015991,902.160217,613.618652,856.232056,864.705994,622.980835,861.498718,836.065979,643.072754,873.083862,874.739563,689.948364,884.25061,853.9776,710.505981,884.580627,830.625671,729.323303,879.717346,302.643463,936.496033,1497.254272,248.48912,929.185181,1512.380127,198.218536,945.383545,1491.686523,161.199081,238.534302,761.905823,189.648712,250.492065,756.168335,209.857376,260.040375,751.995117,109.862411,171.483322,762.661865,142.485733,169.225281,757.242798,175.351303,172.763031,751.272888,115.183456,233.038177,772.451721,92.818985,256.206665,763.575745,68.664047,225.834946,774.304565,11.064571,198.772903,789.432312,301.148102,-386.448212,832.33551,286.147583,-328.955292,832.073853,343.959503,-321.637756,833.626526,349.20285,-379.104553,831.99353,281.249573,-316.309204,736.301575,352.489227,-313.840698,736.795593,354.929413,-381.581451,736.584595,290.141907,-390.773132,737.191528
00130_color_1715716982.261323.png,1093,1715716982.2640948,954.700256,649.410828,854.404358,1022.677185,626.348938,819.230103,987.444885,586.176636,838.805603,916.934753,609.308838,847.2547,879.946533,619.564087,853.738281,852.393738,640.230652,866.674622,892.731567,686.202576,877.330811,872.646423,707.194153,878.290161,849.697388,726.815674,874.275024,302.653961,936.501709,1497.255493,248.496384,929.18988,1512.381348,198.217346,945.394653,1491.685059,161.294128,238.524399,761.881714,189.720505,250.476776,756.145386,209.9431,260.03244,751.986755,109.90538,171.490982,762.643372,142.517883,169.226715,757.233704,175.396133,172.727066,751.260071,115.268135,233.139313,772.530884,92.930481,256.374695,763.772217,68.662262,225.777161,774.156616,11.12823,198.868835,789.419189,317.952667,-386.663086,832.601013,302.386505,-329.27594,832.306091,360.142273,-321.471741,833.774902,366.029694,-378.847717,832.210327,297.325531,-316.780304,736.555542,368.288757,-313.552826,736.87854,371.450317,-381.203552,736.832703,306.917084,-391.30246,737.505554
00131_color_1715716982.299108.png,1097,1715716982.3040948,970.443481,641.795471,844.458252,1036.804932,617.066895,806.711243,1000.794739,577.487976,826.094604,931.351562,603.087891,837.525574,894.779724,614.164246,845.187622,868.187927,635.282532,859.402039,910.477173,679.890381,870.0177,891.077271,701.527649,872.101379,868.759888,722.308594,869.316345,302.643707,936.501648,1497.255249,248.479965,929.162781,1512.380615,198.222992,945.342163,1491.682495,161.382263,238.490692,761.84967,189.800766,250.473999,756.155334,210.056885,260.008789,751.981079,109.961281,171.469666,762.602844,142.577972,169.189545,757.199951,175.453613,172.694626,751.258911,115.352264,233.021759,772.379456,93.000183,256.214081,763.551025,68.741898,225.748001,774.092224,11.220563,198.95929,789.393188,335.682465,-387.116455,832.793884,319.439301,-329.979706,832.499573,377.082367,-321.421509,833.904236,383.587189,-378.784332,832.338928,314.209564,-317.464569,736.642578,385.16394,-313.449219,737.048523,389.24707,-381.063416,736.974609,324.746216,-392.06488,737.784546
00132_color_1715716982.336388.png,1100,1715716982.334095,981.617249,635.087646,836.835449,1046.776367,609.306152,797.249878,1010.295288,570.07135,816.590881,941.608521,597.188721,829.876465,905.352966,608.905762,838.463196,879.286011,630.448486,853.485718,923.10437,674.058105,864.096252,904.005798,695.887085,866.535522,882.095825,716.929688,864.426392,302.644958,936.496643,1497.245972,248.470901,929.154419,1512.351807,198.200607,945.38678,1491.693115,161.439026,238.473648,761.812012,189.831772,250.465302,756.143127,210.111969,259.993896,751.968201,109.987144,171.458847,762.566589,142.601776,169.145782,757.17749,175.48938,172.667358,751.232849,115.410622,232.999176,772.355713,93.121765,256.328156,763.718079,68.898888,225.883667,774.287842,11.215038,199.030151,789.366028,348.669464,-387.717957,832.824646,332.068298,-330.718781,832.563843,389.665771,-321.779449,834.092285,396.530731,-379.139679,832.464905,326.761139,-318.258331,736.732117,397.722839,-313.772797,737.163147,402.066315,-381.173035,737.104736,337.702179,-392.580811,737.921143
00133_color_1715716982.370781.png,1104,1715716982.374095,994.974609,624.765564,826.889587,1058.659668,598.144287,785.50769,1021.434814,559.304016,804.411438,953.793823,588.160217,820.11908,917.910828,600.492615,829.545349,892.657349,622.219421,845.386414,938.233521,664.759521,856.245178,919.953979,686.963806,859.522217,898.629333,708.751038,858.408936,302.640717,936.49707,1497.250977,248.484695,929.20282,1512.369995,198.192734,945.370667,1491.686523,161.487274,238.456696,761.808594,189.879913,250.479156,756.149841,210.164215,259.993561,751.968933,110.037872,171.463654,762.559021,142.643448,169.13446,757.161011,175.52243,172.64151,751.233337,115.471283,232.978409,772.328247,93.34903,256.184875,763.642517,68.967026,225.902695,774.298828,11.393106,199.145081,789.571289,365.326477,-388.353088,833.05719,348.822784,-331.21991,832.767822,406.394684,-322.486023,834.2323,413.183075,-379.793365,832.625061,343.549225,-318.721161,736.974915,414.501495,-314.436035,737.415344,418.880798,-382.143036,737.247375,354.394653,-393.289307,738.086304
00134_color_1715716982.405072.png,1107,1715716982.404095,1003.614563,615.968079,820.089294,1066.185059,588.611755,777.173523,1028.768311,550.13855,796.270264,961.738831,580.012878,813.492188,926.187317,592.86908,823.538757,901.455139,614.793518,840.019104,948.005554,656.489929,850.934204,930.109497,679.092896,854.685974,909.107605,701.046509,854.099304,302.638214,936.499634,1497.246826,248.492233,929.20282,1512.375122,198.1922,945.379456,1491.67627,161.533051,238.43988,761.797668,189.901352,250.481873,756.157715,210.193207,259.985535,751.965698,110.043694,171.451706,762.530212,142.657745,169.127548,757.148621,175.55127,172.619705,751.232117,115.513718,232.975159,772.319702,93.141876,256.20459,763.540283,68.887306,225.725662,774.053894,11.34374,199.108643,789.477539,377.786835,-388.913605,833.236938,361.315796,-331.798096,832.920776,418.931,-323.066589,834.33374,425.716003,-380.320404,832.772583,356.021179,-319.381073,737.051941,426.942139,-315.120972,737.424683,431.115295,-382.371094,737.312683,366.794891,-393.716736,738.13678
00135_color_1715716982.439349.png,1111,1715716982.444095,1012.961243,602.933533,812.939819,1074.278442,574.37854,768.889954,1036.324951,536.061523,788.527588,970.342651,567.761536,807.237244,935.116028,581.087952,817.756653,911.102234,603.47406,834.719543,958.561279,644.748291,844.593079,941.408813,667.915955,848.994995,920.690308,690.158752,848.098145,302.633881,936.503906,1497.261108,248.487915,929.197571,1512.362183,198.199768,945.362549,1491.681885,161.615784,238.421005,761.771423,189.983246,250.494034,756.162903,210.290863,259.996246,751.967712,110.121132,171.449081,762.502075,142.744263,169.108765,757.103455,175.644196,172.618317,751.217529,115.576904,232.995758,772.397705,93.375381,256.197479,763.611267,69.101974,225.865616,774.335938,11.346786,198.981003,789.310425,393.841095,-389.623749,833.328552,377.391724,-332.536652,832.971375,435.000671,-323.724396,834.468201,441.723022,-381.032898,832.874023,372.09552,-320.226562,737.229553,443.028595,-315.833313,737.591675,447.283844,-383.22644,737.451904,382.848419,-394.51297,738.303711
00136_color_1715716982.473701.png,1114,1715716982.4740949,1017.824158,591.809265,810.352539,1078.793945,562.509949,766.389038,1040.935913,524.61084,786.446472,975.001404,556.526184,805.39917,939.577026,569.458923,815.447021,916.147644,592.980957,832.951233,963.970215,634.359985,841.6875,947.022766,657.820618,845.77832,927.107117,681.418701,845.631165,302.635498,936.491638,1497.246582,248.488434,929.197815,1512.36377,198.175201,945.368774,1491.694458,161.69249,238.41272,761.770996,190.04512,250.494064,756.155762,210.369217,259.994965,751.96405,110.202782,171.420242,762.453369,142.820114,169.076599,757.054565,175.71994,172.601242,751.215942,115.658356,232.957794,772.388062,93.298485,256.172485,763.557556,69.211548,225.542175,774.084839,11.449499,198.842651,789.317627,405.126587,-389.941528,833.456848,389.220367,-332.701935,833.157654,446.908356,-324.582886,834.558838,453.088379,-381.875031,832.992554,383.967499,-320.338348,737.287964,454.990723,-316.696106,737.667664,458.583618,-383.963806,737.464478,394.138062,-394.585205,738.411377
00137_color_1715716982.507961.png,1117,1715716982.5040948,1021.362427,579.29187,810.031555,1082.062988,549.414429,765.583496,1044.046265,511.204132,785.83313,978.660278,544.14447,805.734131,943.665588,557.794922,816.646545,919.79303,580.473633,833.399597,967.713684,621.986389,841.528809,950.744324,645.471497,845.702332,930.417908,668.061218,845.182983,302.63559,936.488403,1497.257446,248.488495,929.198547,1512.376953,198.209824,945.422791,1491.694824,161.744492,238.432419,761.798767,190.101456,250.497818,756.155029,210.436798,259.999542,751.950867,110.247246,171.378357,762.388367,142.863541,169.033875,757.028198,175.778793,172.585022,751.174072,115.70079,232.921646,772.369385,93.434341,256.158356,763.631897,69.206688,225.695877,774.332642,11.504581,198.703705,789.30542,415.987305,-390.50946,833.521545,400.725952,-333.082153,833.317139,458.602264,-325.389191,834.700195,464.03714,-382.931824,833.069336,395.492767,-320.347412,737.520874,466.590424,-317.582245,737.817688,468.900177,-384.840088,737.526367,404.765594,-394.711121,738.452881
00138_color_1715716982.542255.png,1121,1715716982.5440948,1024.938721,562.953735,812.652039,1085.651733,533.042786,768.423889,1047.930054,494.78772,789.030334,982.35321,527.429443,808.933228,947.277954,541.030823,819.803162,923.376221,563.771851,836.429382,970.947083,605.589417,843.99115,953.711182,628.847961,847.795593,933.060852,651.21875,847.21283,302.632477,936.484375,1497.245483,248.485123,929.209229,1512.37085,198.212112,945.419861,1491.69043,161.830826,238.419418,761.782959,190.165085,250.478271,756.129761,210.488617,260.016815,751.953613,110.303535,171.351349,762.360474,142.933701,169.005264,756.995239,175.852295,172.594467,751.175171,115.818298,232.96843,772.408325,93.499146,256.262939,763.764343,69.393349,225.560547,774.289673,11.579601,198.595856,789.306091,429.182861,-391.466034,833.678772,414.492462,-334.064362,833.444214,472.44931,-326.964417,834.734009,477.354492,-384.509186,833.112244,409.368073,-321.223907,737.721741,480.465942,-319.233826,737.886169,481.769043,-385.761414,737.222778,418.034882,-395.692841,738.519775
00139_color_1715716982.576796.png,1124,1715716982.5740948,1026.910156,551.544006,815.839172,1088.067627,521.854614,771.835266,1050.573486,483.733856,793.004456,984.827026,516.412292,812.876587,949.720703,530.037659,823.907776,925.726135,552.745361,840.313049,973.058105,594.907837,847.365417,955.702087,618.033936,850.948364,934.903564,640.258484,850.124512,302.643188,936.501038,1497.26001,248.485153,929.205383,1512.374634,198.206604,945.421143,1491.713013,161.90918,238.420456,761.768311,190.234924,250.501221,756.132751,210.583344,260.02121,751.954651,110.379669,171.356689,762.335876,143.005676,169.004227,756.986084,175.917755,172.611679,751.179199,115.905396,232.862686,772.299438,93.48661,256.390289,763.874084,69.325912,225.643738,774.333252,11.66599,198.555389,789.324951,438.068634,-392.345337,833.762817,423.828949,-334.731384,833.510498,481.762177,-328.109131,834.792603,486.282898,-385.623749,833.191589,418.668457,-321.952454,737.716431,489.76062,-320.490723,737.907959,490.613831,-387.141632,737.417358,426.784882,-396.2435,738.621399
00140_color_1715716982.611276.png,1128,1715716982.614095,1029.819702,540.07251,822.24823,1090.771729,509.848602,777.648865,1053.553467,471.787354,799.197693,987.811218,504.46521,819.78717,952.68811,517.925293,830.846008,928.622498,540.611145,847.164124,975.384949,582.404053,852.786743,958.353088,606.329651,857.131592,937.448792,628.539124,856.34845,302.639252,936.499451,1497.247437,248.487503,929.207581,1512.372681,198.216293,945.423096,1491.684814,162.063721,238.436005,761.729919,190.362503,250.509583,756.112793,210.72258,260.066284,751.944702,110.509468,171.380753,762.288391,143.116257,169.036728,756.953125,176.050949,172.623886,751.180786,116.04023,232.984589,772.413147,93.6567,256.437988,763.918884,69.439873,225.623734,774.315857,11.781612,198.516357,789.297424,448.77533,-393.12915,833.890198,435.090576,-335.252075,833.591614,493.103424,-329.301056,834.864441,497.062897,-386.900146,833.272949,430.185577,-322.759827,737.513123,500.892517,-321.432526,738.06427,501.266541,-388.735413,737.48584,437.470215,-396.888947,738.618469
00141_color_1715716982.645538.png,1131,1715716982.644095,1031.68042,533.784058,827.459167,1092.109009,502.633636,781.539551,1055.462402,464.562744,803.411682,989.718567,497.570435,825.33429,954.560059,510.682404,836.526794,930.525085,533.386597,853.195984,977.527222,576.418091,858.632568,960.040344,599.464355,862.321472,939.066223,621.589294,861.567749,302.645569,936.506775,1497.265747,248.490829,929.209473,1512.380615,198.200058,945.430908,1491.715698,162.192688,238.413757,761.709351,190.464447,250.518143,756.098877,210.850479,260.066925,751.936523,110.634682,171.358002,762.267395,143.22551,169.036621,756.941467,176.167999,172.635712,751.17395,116.161522,232.895737,772.327393,93.833771,256.422577,763.906677,69.538193,225.61496,774.322876,11.896585,198.464905,789.335632,456.097595,-393.787872,833.978027,442.559753,-335.99234,833.663452,500.548706,-330.051788,834.845764,504.369446,-387.632935,833.286865,437.537506,-323.222656,737.868896,508.457245,-322.453857,738.022217,508.647919,-389.378296,737.514526,444.697052,-397.567352,738.772156
00142_color_1715716982.680327.png,1135,1715716982.684095,1032.459961,526.698853,833.232117,1092.820923,495.811157,786.215515,1056.645264,457.635437,808.313232,990.859863,490.176666,831.187927,955.613525,502.916748,842.641052,931.303162,525.046692,859.471375,978.077576,568.982239,864.668091,960.408386,591.944763,868.507385,939.255127,613.873047,867.776672,302.642456,936.509888,1497.260254,248.491882,929.214355,1512.371704,198.20343,945.437683,1491.703125,162.363235,238.472,761.729736,190.654587,250.482651,756.033936,211.034332,260.069733,751.917908,110.816345,171.405457,762.266785,143.356125,169.052948,756.910767,176.320969,172.666428,751.185669,116.367065,233.012451,772.439575,94.024826,256.548431,764.048279,69.643959,225.602661,774.317932,12.060275,198.394196,789.328369,464.097015,-394.697357,834.009277,450.618103,-336.753784,833.720215,508.699066,-331.177002,834.860413,512.416138,-388.716461,833.320312,445.556244,-324.22641,737.810852,516.503784,-323.440125,738.083923,516.518921,-390.520203,737.519226,452.608093,-398.409912,738.792358
00143_color_1715716982.715070.png,1138,1715716982.7140949,1032.255249,522.461975,836.518127,1092.731567,492.400024,789.125427,1056.783203,453.665955,810.581177,990.752686,485.601654,834.06488,955.514282,498.16153,845.851074,931.149353,519.54248,862.810364,977.713135,564.171204,868.529541,959.444824,586.449585,871.842712,938.504883,608.723389,871.763428,302.641724,936.485291,1497.259155,248.491043,929.207336,1512.380249,198.224152,945.417175,1491.706421,162.505798,238.479294,761.72229,190.810242,250.449921,756.036194,211.149536,260.09201,751.92865,111.04538,171.439423,762.323303,143.467163,169.068817,756.897949,176.45015,172.681122,751.190613,116.483849,233.043365,772.460876,94.215096,256.536499,764.045776,69.757462,225.574585,774.30481,12.171947,198.321136,789.304016,469.063202,-395.430542,834.029602,455.729248,-337.527191,833.736572,513.727783,-331.740723,834.90387,517.390259,-389.379822,833.384766,450.597961,-324.894775,737.904236,521.523315,-324.115479,738.11261,521.503601,-390.982361,737.368408,457.808319,-399.19754,738.805847
00144_color_1715716982.749698.png,1142,1715716982.7540948,1030.979858,517.71991,839.144531,1091.389038,488.384491,790.788879,1056.168701,449.162811,812.277039,989.975891,480.444794,836.7771,954.560486,492.349335,848.681702,930.188049,514.109314,866.393982,976.10498,558.565369,871.671875,957.766357,580.80719,875.477173,936.186401,601.998474,875.009033,302.639923,936.495728,1497.265259,248.490768,929.211304,1512.377075,198.197006,945.430969,1491.711304,162.656219,238.544693,761.743042,190.948761,250.462616,756.021179,211.292038,260.112946,751.896118,111.24588,171.685883,762.561035,143.591446,169.119202,756.886841,176.611115,172.736877,751.180115,116.576233,233.09642,772.437012,94.320786,256.55191,764.031189,69.865036,225.580338,774.305725,12.331045,198.216492,789.291382,474.395111,-396.292694,834.047119,460.815765,-338.399048,833.774231,518.828735,-332.561127,834.934387,522.671326,-390.076355,833.332886,455.639526,-325.743927,737.935486,526.523987,-324.824066,738.075562,526.715698,-391.818237,737.5177,462.943604,-399.95694,738.783508
00145_color_1715716982.783782.png,1145,1715716982.7840948,1029.022095,514.683472,840.284546,1089.671753,485.973541,791.689941,1054.850952,446.398621,813.09375,988.341431,477.027679,837.774353,952.791077,488.608398,849.763916,928.27948,510.002747,867.537292,973.731689,555.046021,872.815735,955.19696,577.138855,876.542419,933.494995,598.35144,876.288513,302.642181,936.501892,1497.256226,248.494858,929.219543,1512.371338,198.204483,945.454407,1491.704224,162.733963,238.600525,761.745117,191.048386,250.467621,755.992859,211.357941,260.140778,751.895996,111.26432,171.373138,762.136414,143.669235,169.132446,756.887695,176.68985,172.774918,751.185364,116.647316,233.110031,772.415466,94.287148,256.561249,763.955566,69.910034,225.582214,774.294678,12.41628,198.173355,789.277771,477.312439,-396.739868,834.038147,463.550018,-339.058563,833.761108,521.572571,-332.840363,834.943726,525.577087,-390.437561,833.282959,458.334961,-326.431366,737.950134,529.227112,-325.199615,738.070129,529.193604,-391.526184,737.518188,465.858582,-400.578033,738.863342
00146_color_1715716982.818318.png,1148,1715716982.8140948,1026.109741,512.143066,840.896423,1087.338257,483.862488,792.423523,1052.746948,443.839691,813.702271,985.805542,473.942352,838.191284,950.168762,485.202271,850.141174,925.287598,506.310638,867.685303,970.304077,551.994141,873.143127,951.467224,573.92334,876.852356,929.430725,594.972839,876.140625,302.638367,936.493164,1497.246094,248.490067,929.20459,1512.36438,198.218491,945.423157,1491.694824,162.781265,238.608398,761.743103,191.105515,250.472717,755.989807,211.405502,260.147034,751.884094,111.318214,171.353119,762.10968,143.708557,169.15152,756.877319,176.733994,172.811279,751.182617,116.69619,233.138474,772.426025,94.260033,256.262573,763.54541,69.940926,225.590149,774.292114,12.441688,198.155197,789.277405,479.423798,-397.334991,834.031738,465.384949,-339.370087,833.695679,523.410217,-333.329987,834.94574,527.646729,-390.8797,833.333374,460.315277,-327.004944,737.916016,531.205505,-325.632111,738.083862,531.662109,-392.512238,737.704834,468.00415,-401.257843,738.86554
00147_color_1715716982.852957.png,1152,1715716982.854095,1021.248108,508.944824,841.432434,1083.283325,481.483276,793.117004,1049.147095,441.021881,814.370117,981.457092,470.322845,838.468323,945.573181,480.890808,850.0755,920.01001,501.448517,867.006409,964.453308,548.043274,873.05835,945.023804,569.365112,876.220276,922.754578,590.334595,875.599182,302.643402,936.500671,1497.255005,248.493866,929.208313,1512.374146,198.209671,945.422607,1491.706665,162.830322,238.632736,761.745789,191.152634,250.478088,755.98938,211.437637,260.166809,751.890747,111.352692,171.39534,762.113647,143.753464,169.178146,756.897156,176.773514,172.825684,751.186523,116.720062,233.185974,772.438599,94.32972,256.442841,763.740723,69.939919,225.611694,774.280457,12.48579,198.124802,789.261963,481.053406,-397.793457,834.110229,467.142761,-340.153687,833.756165,525.034729,-333.609283,835.007263,529.339172,-391.249512,833.358276,461.869354,-327.360809,737.952271,532.78064,-325.859833,738.182373,533.676941,-393.119171,737.694153,469.718567,-401.628479,738.906921
00148_color_1715716982.887380.png,1155,1715716982.884095,1017.102112,506.903168,841.866089,1079.867798,480.291046,793.737671,1046.291016,439.169556,814.661987,977.567749,467.279907,837.922974,941.618164,477.918365,849.769897,915.180786,497.718018,865.884277,959.511658,545.247681,873.042358,940.383545,567.369263,876.868042,917.701355,587.667664,875.711975,302.631531,936.497864,1497.25,248.487671,929.20813,1512.368774,198.197876,945.433167,1491.696899,162.841476,238.644165,761.735596,191.158127,250.48143,755.980225,211.454498,260.174042,751.894226,111.340622,171.430145,762.137695,143.754974,169.19928,756.895691,176.776337,172.822205,751.184509,116.723946,233.183792,772.431213,94.291779,256.292664,763.530151,69.955887,225.621475,774.26532,12.494823,198.136642,789.262817,481.508179,-397.876984,834.129211,467.569611,-340.312042,833.733398,525.370911,-333.405273,834.830933,529.813965,-391.36203,833.372192,462.278503,-327.521118,737.921326,533.215881,-325.980042,738.167175,534.16626,-393.387268,737.691101,470.190125,-401.769196,738.871521
