mbdulkadiroglu/VisualAffordanceDataset/synchronized_frames_7.csv
RealSense_frame,Vicon_frame,Vicon_timestamp,RightHand1:Wrist1_X,RightHand1:Wrist1_Y,RightHand1:Wrist1_Z,RightHand1:Wrist2_X,RightHand1:Wrist2_Y,RightHand1:Wrist2_Z,RightHand1:Wrist3_X,RightHand1:Wrist3_Y,RightHand1:Wrist3_Z,RightHand1:Thumb1_X,RightHand1:Thumb1_Y,RightHand1:Thumb1_Z,RightHand1:Thumb2_X,RightHand1:Thumb2_Y,RightHand1:Thumb2_Z,RightHand1:Thumb3_X,RightHand1:Thumb3_Y,RightHand1:Thumb3_Z,RightHand1:IndexFinger1_X,RightHand1:IndexFinger1_Y,RightHand1:IndexFinger1_Z,RightHand1:IndexFinger2_X,RightHand1:IndexFinger2_Y,RightHand1:IndexFinger2_Z,RightHand1:IndexFinger3_X,RightHand1:IndexFinger3_Y,RightHand1:IndexFinger3_Z,Realsense:Camera1_X,Realsense:Camera1_Y,Realsense:Camera1_Z,Realsense:Camera2_X,Realsense:Camera2_Y,Realsense:Camera2_Z,Realsense:Camera3_X,Realsense:Camera3_Y,Realsense:Camera3_Z,Pringles:Corner1_X,Pringles:Corner1_Y,Pringles:Corner1_Z,Pringles:Corner2_X,Pringles:Corner2_Y,Pringles:Corner2_Z,Pringles:Corner3_X,Pringles:Corner3_Y,Pringles:Corner3_Z,Pringles:Corner4_X,Pringles:Corner4_Y,Pringles:Corner4_Z,Pringles:Corner5_X,Pringles:Corner5_Y,Pringles:Corner5_Z,Pringles:Corner6_X,Pringles:Corner6_Y,Pringles:Corner6_Z,Pringles:Corner7_X,Pringles:Corner7_Y,Pringles:Corner7_Z,Pringles:Corner8_X,Pringles:Corner8_Y,Pringles:Corner8_Z,LeftHand1:IndexFinger1_X,LeftHand1:IndexFinger1_Y,LeftHand1:IndexFinger1_Z,LeftHand1:IndexFinger2_X,LeftHand1:IndexFinger2_Y,LeftHand1:IndexFinger2_Z,LeftHand1:IndexFinger3_X,LeftHand1:IndexFinger3_Y,LeftHand1:IndexFinger3_Z,LeftHand1:Thumb1_X,LeftHand1:Thumb1_Y,LeftHand1:Thumb1_Z,LeftHand1:Thumb2_X,LeftHand1:Thumb2_Y,LeftHand1:Thumb2_Z,LeftHand1:Thumb3_X,LeftHand1:Thumb3_Y,LeftHand1:Thumb3_Z,LeftHand1:Wrist1_X,LeftHand1:Wrist1_Y,LeftHand1:Wrist1_Z,LeftHand1:Wrist2_X,LeftHand1:Wrist2_Y,LeftHand1:Wrist2_Z,LeftHand1:Wrist3_X,LeftHand1:Wrist3_Y,LeftHand1:Wrist3_Z,LeftHand1:Wrist4_X,LeftHand1:Wrist4_Y,LeftHand1:Wrist4_Z
00071_color_1715720058.908109.png,762,1715720058.913073,601.410522,1327.369507,964.866638,545.409668,1366.34668,970.194092,590.102722,1384.948975,993.819397,648.207397,1360.203247,969.565613,678.373596,1343.23999,955.798462,697.370483,1316.166504,953.667114,654.003479,1280.774292,939.970764,667.475708,1265.901367,919.40094,685.456604,1253.859375,897.481323,,,,,,,,,,478.666321,-393.815491,947.784241,539.797241,-396.513947,949.977783,540.831726,-327.298676,948.840576,479.505005,-326.758362,949.221252,483.062286,-393.346558,739.628113,543.481201,-395.458618,741.201355,543.57251,-324.93515,741.511963,487.181488,-322.118195,743.447876,187.784409,118.234772,766.583008,218.690735,118.180031,759.01123,240.732834,120.355324,752.651306,117.016907,75.313919,764.362549,147.982407,62.623001,758.500549,180.642136,56.200321,751.553711,140.121796,131.569397,775.691772,128.091461,160.269104,763.848999,91.730972,141.27951,773.377991,28.625021,137.350601,785.393188
00072_color_1715720058.942480.png,765,1715720058.943073,606.290833,1322.924805,964.297913,553.449036,1364.303345,969.908752,598.205994,1380.438965,994.312195,654.505859,1352.777832,969.125244,683.912964,1334.649658,955.049194,701.413513,1306.70874,952.330261,656.099854,1274.024292,938.222839,669.397156,1258.710205,917.916687,686.405212,1246.572998,895.263245,,,,,,,,,,478.681152,-393.812408,947.781738,539.816528,-396.532257,949.966797,540.839294,-327.288422,948.844421,479.512787,-326.779053,949.224548,483.061279,-393.365509,739.63446,543.501831,-395.454346,741.184326,543.569092,-324.934753,741.51123,487.181244,-322.114532,743.451843,187.96434,117.930099,766.214844,218.982422,118.200447,759.100708,241.014267,120.482285,752.782288,117.21434,74.817497,764.102661,148.189514,62.24041,758.301331,181.003036,55.961292,751.434509,140.272324,131.241257,775.507874,128.127457,159.952866,763.817627,91.858871,140.843872,773.233582,28.78772,136.66629,785.368958
00073_color_1715720058.976969.png,768,1715720058.973073,612.361694,1317.406738,964.529663,560.449402,1361.442383,971.42688,607.504089,1373.300415,996.287231,661.978088,1345.152832,969.539612,690.607727,1325.640747,955.53009,706.760803,1296.962524,952.242798,659.859009,1266.577026,938.087097,672.626892,1250.618774,917.596252,688.80249,1237.726807,894.801025,,,,,,,,,,478.683289,-393.805084,947.790894,539.84436,-396.505859,949.96405,540.842712,-327.271179,948.859375,479.520569,-326.7612,949.234253,483.061096,-393.354858,739.63501,543.501038,-395.458984,741.18811,543.574463,-324.916229,741.515076,487.182037,-322.099854,743.455505,188.145554,117.855537,765.701538,219.145493,118.142525,758.698486,241.182098,120.434242,752.498657,117.39212,74.658607,764.026062,148.348724,61.98399,758.196472,181.325851,56.055058,751.66803,140.538864,131.085205,775.096436,128.318802,159.766098,763.59668,92.168968,140.678619,773.113647,29.070751,136.633911,785.452515
00074_color_1715720059.011042.png,772,1715720059.013073,622.400635,1307.640137,964.484436,572.557251,1353.917236,971.669128,620.337097,1363.566162,996.406494,673.352051,1333.077637,969.530457,700.82312,1312.388184,955.252747,715.729797,1282.950195,951.81897,667.523926,1254.903076,937.65741,679.616699,1238.566406,917.189087,695.26416,1225.070923,894.420776,,,,,,,,,,478.706238,-393.793152,947.784485,539.849609,-396.516144,949.956543,540.865356,-327.2901,948.846619,479.531616,-326.735992,949.228088,483.084076,-393.375275,739.616394,543.520569,-395.458221,741.189392,543.598572,-324.923981,741.508118,487.20224,-322.11084,743.452332,188.272125,118.163979,765.090881,219.38475,118.45314,758.512024,241.551834,120.781441,752.503296,117.66571,74.977531,764.272949,148.59462,62.451511,758.644836,181.501923,55.804569,751.470215,140.845154,131.313293,774.47052,128.489624,159.920868,763.242615,92.518356,141.001495,772.861633,29.399763,137.270065,785.400146
00075_color_1715720059.045660.png,775,1715720059.0430732,630.951782,1298.142456,963.11084,582.518372,1345.79187,970.586975,630.551758,1353.970825,995.272278,682.49353,1322.095581,968.140259,709.453125,1300.796997,953.860474,723.615356,1270.968506,950.327026,674.791138,1244.286377,935.855835,686.266174,1227.861572,915.188354,701.603821,1214.249512,892.108459,,,,,,,,,,478.735352,-393.765167,947.781433,539.869507,-396.51532,949.946838,540.882629,-327.27063,948.833008,479.556641,-326.731323,949.2146,483.099121,-393.349915,739.618103,543.539185,-395.452789,741.174622,543.622864,-324.908966,741.502136,487.232117,-322.100983,743.421082,188.431534,118.392197,764.781555,219.675064,118.740265,758.440308,241.830688,120.981598,752.510742,118.016876,75.268517,764.449097,148.835175,62.362961,758.496399,181.665237,55.780602,751.539917,141.062744,131.477249,773.975464,128.55159,160.281631,763.196289,92.801987,141.383575,772.656433,29.641809,137.778519,785.344543
00076_color_1715720059.081431.png,779,1715720059.0830731,643.245972,1282.157593,959.610901,596.10083,1331.050293,967.537964,644.501221,1337.86731,992.121033,695.503357,1304.7146,964.71167,721.73053,1282.749268,950.025452,735.079041,1252.565063,946.407715,685.548218,1227.173584,932.099548,696.562012,1210.522949,911.465088,711.656433,1196.485474,888.440247,,,,,,,,,,478.841858,-393.766144,947.724976,539.93811,-396.494446,949.91864,540.964172,-327.241364,948.810181,479.63913,-326.730713,949.180664,483.151947,-393.329834,739.599243,543.597656,-395.419067,741.15033,543.670654,-324.886749,741.489502,487.294983,-322.081299,743.407898,188.88652,118.503403,764.481995,220.275696,118.947464,758.314087,242.409775,121.115616,752.43927,118.419296,75.479881,764.707642,149.299057,62.360077,758.647095,182.092087,55.570084,751.645508,141.648239,131.530502,773.610779,128.946991,160.305283,763.053406,93.319626,141.615372,772.450562,30.212904,138.27597,785.328735
00077_color_1715720059.115807.png,782,1715720059.113073,652.694885,1267.364014,956.101807,606.430847,1317.260864,964.132629,655.06427,1323.130615,988.439392,705.29303,1288.859131,960.894409,731.252197,1266.368652,946.389709,743.910034,1236.012939,942.581299,693.867798,1211.695068,928.371948,704.492065,1194.763916,907.601257,719.228943,1180.466675,884.750916,,,,,,,,,,478.879333,-393.761261,947.729919,539.993591,-396.473541,949.926636,541.006226,-327.240326,948.800354,479.680664,-326.725555,949.16272,483.201141,-393.319275,739.58136,543.651672,-395.405365,741.161926,543.708374,-324.875732,741.4599,487.32782,-322.050476,743.402222,189.381195,118.551613,764.322205,220.791733,119.054405,758.282227,242.920242,121.200661,752.457581,118.879669,75.533379,764.80249,149.712677,62.270939,758.709839,182.502167,55.317413,751.660522,142.118027,131.299942,773.103882,129.391998,160.292282,762.986084,93.760704,141.716034,772.329041,30.725622,138.53717,785.313843
00078_color_1715720059.150068.png,786,1715720059.153073,665.374756,1243.943604,950.094666,620.420593,1294.934937,958.100952,669.078857,1299.664917,982.568909,718.57251,1264.193848,954.900391,743.896606,1241.116943,940.311707,755.656921,1210.394165,936.479492,705.220703,1187.299927,922.36377,715.391174,1170.261597,901.73114,729.9953,1155.605713,878.689148,,,,,,,,,,478.915924,-393.737427,947.71875,540.030029,-396.4534,949.913147,541.039001,-327.221832,948.782349,479.715454,-326.708405,949.1521,483.231232,-393.285614,739.576111,543.678772,-395.41098,741.137329,543.733582,-324.863159,741.4505,487.359009,-322.049774,743.374512,190.014023,118.546234,764.18573,221.321274,119.002487,758.14856,243.462219,121.243088,752.410461,119.424164,75.194702,764.620911,150.091934,61.991173,758.714844,183.040588,54.927864,751.661072,142.642426,131.140228,772.882568,129.850403,159.768158,762.571594,94.268074,141.525787,772.189148,31.311825,138.652222,785.348694
00079_color_1715720059.184691.png,789,1715720059.183073,675.240845,1223.945679,945.320679,630.802002,1275.521973,953.525696,679.640015,1279.740356,977.721619,728.664001,1243.619263,949.895813,753.597229,1220.299561,935.208618,765.151245,1189.489014,931.409607,714.344299,1166.847778,917.39679,724.411926,1149.791138,896.587097,738.541931,1134.822876,873.62793,,,,,,,,,,478.927277,-393.739227,947.718811,540.040894,-396.449707,949.907837,541.046204,-327.253448,948.785156,479.720001,-326.714966,949.158264,483.238953,-393.298981,739.573669,543.698242,-395.418243,741.134033,543.73053,-324.875183,741.45166,487.372711,-322.053314,743.393127,190.199371,118.297569,763.977051,221.644409,118.9179,758.03418,243.784729,121.309898,752.426514,119.669579,75.00412,764.589966,150.301819,61.69936,758.693604,183.352463,54.630272,751.66272,142.961853,131.184738,773.027832,130.129257,159.964432,762.97937,94.560799,141.290894,772.121399,31.610462,138.495071,785.338074
00080_color_1715720059.218418.png,793,1715720059.223073,689.107971,1194.202881,940.105103,644.532104,1246.716553,948.781738,693.611938,1250.484131,972.702026,742.572205,1213.472778,944.568542,766.697144,1190.112061,929.822571,777.913757,1159.295288,926.097229,726.917908,1137.129272,912.344971,736.570374,1119.930054,891.467224,750.658691,1104.724854,868.438171,,,,,,,,,,478.952118,-393.747559,947.712341,540.044189,-396.453003,949.916199,541.060852,-327.238556,948.786804,479.728455,-326.720001,949.150818,483.237366,-393.294617,739.580383,543.707764,-395.423248,741.142456,543.741333,-324.894501,741.435425,487.37204,-322.044708,743.398499,190.503906,118.386215,763.975281,221.799454,118.83091,757.956665,243.940994,121.323814,752.435852,119.708008,74.594955,764.379822,150.39296,61.243713,758.571167,183.558044,54.302292,751.589172,143.110291,130.774185,772.87854,130.219147,159.639938,763.042847,94.703804,140.851929,772.174744,31.770926,138.102203,785.451599
00081_color_1715720059.252702.png,796,1715720059.253073,698.426392,1171.2771,938.948181,654.694519,1224.071289,947.226196,703.73822,1227.428467,971.192627,752.047424,1189.83313,943.414368,776.190186,1166.036011,928.80481,787.060486,1135.019531,925.225586,735.899292,1113.328491,911.530273,745.495544,1095.876587,890.771301,759.498108,1080.451294,867.814575,,,,,,,,,,478.987549,-393.737976,947.719849,540.076477,-396.430481,949.921753,541.062439,-327.183807,948.794495,479.730896,-326.728333,949.154785,483.264008,-393.298248,739.573914,543.744934,-395.367523,741.12854,543.746338,-324.850311,741.443115,487.381165,-322.042389,743.395325,190.474487,118.322998,763.916016,221.775085,118.768112,757.922791,243.930374,121.285797,752.432007,119.544556,74.583138,764.452881,150.35318,61.102558,758.506775,183.537643,54.208721,751.564209,143.080063,130.626663,772.833801,130.206421,159.528854,763.036926,94.689529,140.716232,772.179749,31.771015,137.949051,785.422852
00082_color_1715720059.286442.png,799,1715720059.283073,707.923218,1147.540283,940.08075,664.766052,1200.947144,947.84021,713.782104,1203.822632,972.06781,761.834412,1165.436157,944.763,785.629883,1141.165894,930.489563,796.067383,1109.974487,927.185669,744.741394,1088.886353,913.365906,754.179138,1071.251831,892.791077,768.098083,1055.5,869.961243,,,,,,,,,,479.21936,-393.834167,947.709595,540.274963,-396.288177,949.918945,541.06543,-327.058746,948.793579,479.735748,-326.786835,949.150269,483.468933,-393.349304,739.584106,543.999878,-395.242188,741.130798,543.735291,-324.710388,741.454163,487.372437,-322.097229,743.373291,190.450562,118.345512,763.896484,221.763672,118.82106,757.91156,243.914719,121.313522,752.416687,119.568665,74.515678,764.364075,150.290512,61.382996,758.807312,183.544815,54.223629,751.558289,143.069565,130.658508,772.792847,130.190216,159.554886,763.013062,94.679779,140.763336,772.142151,31.73555,138.018402,785.368347
00083_color_1715720059.320792.png,803,1715720059.3230731,720.766113,1115.924927,945.297363,678.306152,1169.822021,952.02179,726.934814,1172.494995,976.754517,774.820068,1133.302368,950.245422,798.406982,1108.497925,936.333557,808.467163,1077.112915,933.390503,757.147949,1056.64502,919.421326,766.550964,1038.624756,899.217407,780.487549,1022.5177,876.509338,,,,,,,,,,480.065002,-394.270813,947.715881,541.046997,-396.718719,949.935669,541.92157,-327.493805,948.748474,480.61618,-327.241394,949.127808,484.17511,-393.607666,739.606628,544.859436,-395.744965,741.176392,544.596802,-325.157135,741.446777,488.271515,-322.443878,743.362671,190.399063,118.313263,763.867859,221.731445,118.824814,757.917847,243.905716,121.344772,752.421814,119.566605,74.422714,764.276184,150.283936,61.303486,758.740112,183.528259,54.204231,751.549683,143.046692,130.648849,772.792358,130.169556,159.533554,763.002319,94.670776,140.737625,772.139832,31.7262,137.931671,785.334473
00084_color_1715720059.354782.png,806,1715720059.3530731,730.615479,1092.452515,951.851318,688.36908,1146.541504,957.473511,736.831177,1149.323242,982.63147,784.823364,1109.594849,957.080322,808.352234,1084.628662,943.819031,818.538269,1053.207642,941.348511,767.072449,1032.701904,927.117676,776.469238,1014.235168,907.179626,790.706726,997.842651,884.830811,,,,,,,,,,480.793213,-394.763916,947.708862,541.788452,-397.672119,949.864502,543.122253,-328.374908,948.787842,481.74707,-327.620819,949.250244,484.858887,-394.204803,739.61322,545.502075,-396.65271,741.159119,545.745483,-326.042877,741.419495,489.451202,-323.000092,743.414795,190.408325,118.410896,763.895325,221.703171,118.861145,757.925415,243.855103,121.340904,752.442261,119.540314,74.411018,764.254944,150.246628,61.324291,758.752563,183.490158,54.381008,751.729614,143.0159,130.677094,772.7677,130.152573,159.567551,763.014771,94.642036,140.728638,772.123657,31.679131,137.884521,785.326904
00085_color_1715720059.388667.png,810,1715720059.393073,743.4151,1062.019775,962.528198,701.001099,1116.115967,965.894226,749.043274,1119.620361,991.725769,797.479248,1079.279663,968.287415,821.385864,1053.996948,956.320374,831.443787,1022.497803,955.106567,780.395386,1001.523254,940.187195,790.468018,982.780762,921.13855,805.169495,965.632019,899.681335,,,,,,,,,,481.017822,-394.906738,947.712524,542.109863,-397.746948,949.879395,543.303894,-328.442841,948.792725,481.917206,-327.8573,949.236206,485.201416,-394.458984,739.610229,545.797974,-396.65921,741.148621,545.90387,-326.121429,741.436157,489.589508,-323.20694,743.420776,190.330292,118.457497,763.878784,221.632935,118.92939,757.953552,243.808456,121.375343,752.466064,119.498222,74.479233,764.278748,150.196899,61.347752,758.7099,183.440811,54.507217,751.896606,142.958923,130.740463,772.764404,130.110687,159.60788,763.012268,94.570007,140.787766,772.131592,31.594042,137.756714,785.2547
00086_color_1715720059.423002.png,813,1715720059.423073,752.094666,1040.257202,970.593811,709.250427,1094.18103,972.341309,757.061401,1098.56897,998.348389,806.061218,1058.149658,976.187683,830.327026,1032.734009,965.038086,840.426636,1001.342773,964.52301,789.804321,979.45282,950.122253,799.988708,960.355225,931.666016,814.890625,942.727417,910.544617,,,,,,,,,,480.969604,-395.049622,947.720947,542.045593,-397.71698,949.871765,543.028564,-328.434723,948.790222,481.667145,-328.01767,949.224304,485.144043,-394.616394,739.623474,545.746826,-396.6362,741.141724,545.666992,-326.084198,741.418213,489.342377,-323.331909,743.440308,190.311554,118.462006,763.897217,221.612427,118.92791,757.957703,243.789246,121.358475,752.483643,119.480423,74.424942,764.250671,150.186172,61.332146,758.708008,183.418716,54.501099,751.928894,142.932068,130.726639,772.770996,130.085678,159.581543,763.019287,94.533905,140.748489,772.14856,31.574343,137.633591,785.27832
00087_color_1715720059.457958.png,816,1715720059.453073,759.16449,1019.825195,978.008667,715.989563,1073.662354,978.669495,763.890686,1078.786011,1004.490601,812.706604,1038.242798,983.247437,837.135376,1012.645935,972.402344,847.758057,981.347534,972.788513,797.159668,958.880188,958.736206,807.552063,939.512024,940.602722,822.406799,921.278625,919.884888,,,,,,,,,,480.672852,-395.191101,947.747131,541.685059,-397.527496,949.874756,542.326782,-328.316254,948.755676,480.941071,-328.115112,949.172852,484.814972,-394.712708,739.604309,545.491272,-396.497559,741.160522,544.982849,-325.868591,741.428162,488.606873,-323.553406,743.394165,190.28952,118.412964,763.867615,221.609161,118.941093,757.958862,243.80687,121.391571,752.456238,119.48407,74.480042,764.272217,150.19104,61.359295,758.717896,183.432724,54.583157,751.987183,142.942154,130.754196,772.784241,130.083633,159.594894,763.013306,94.527313,140.75264,772.129944,31.559729,137.632156,785.272034
00088_color_1715720059.493073.png,820,1715720059.493073,765.450989,995.032043,986.76886,723.159241,1049.419434,986.329895,771.033142,1054.499878,1012.115112,819.432129,1012.595276,991.690063,843.41449,986.42926,981.628235,853.565369,954.948792,982.523987,802.542053,933.011353,968.941284,812.484924,912.791199,951.213562,827.201782,894.197021,931.088135,,,,,,,,,,479.33371,-395.332703,947.729614,540.440552,-396.769745,949.900208,540.184631,-327.429993,948.744446,478.912872,-328.150604,949.188721,483.570496,-394.615387,739.606995,544.185486,-395.641327,741.134888,542.887451,-325.033875,741.424744,486.474792,-323.365997,743.427612,190.508667,118.75927,764.07019,221.646942,118.936935,757.962036,243.825836,121.38279,752.45752,119.508278,74.487053,764.284302,150.196777,61.371548,758.744202,183.465195,54.709286,752.123901,142.958679,130.75679,772.785095,130.093048,159.597076,763.02533,94.542755,140.776917,772.135986,31.557251,137.607117,785.226929
00089_color_1715720059.531756.png,824,1715720059.533073,769.144958,973.168701,995.042542,728.622009,1028.860474,993.576538,776.584534,1032.75647,1019.332031,823.534607,988.898193,999.935974,846.789856,961.814575,990.275574,855.716675,929.946228,991.616211,803.939331,909.593933,978.429626,813.248413,888.733948,961.216675,827.431458,869.421082,941.425537,,,,,,,,,,476.078552,-395.134552,947.681763,537.2005,-396.142792,949.874146,536.523804,-326.970734,948.78241,475.231934,-327.924316,949.18988,480.342896,-394.380493,739.601868,541.000732,-395.004272,741.124451,539.217224,-324.519653,741.421265,482.830841,-323.117767,743.36676,190.521393,118.745148,764.070679,221.656143,118.913033,757.959473,243.831039,121.390068,752.444946,119.511292,74.486885,764.274902,150.139862,61.255772,758.634338,183.446991,54.541821,751.932739,142.965195,130.761307,772.779602,130.089264,159.612381,763.027283,94.547379,140.779968,772.157471,31.536751,137.494461,785.157837
00090_color_1715720059.565957.png,827,1715720059.5630732,770.654541,958.62793,1000.627625,732.195557,1015.609497,998.204407,780.094238,1018.176575,1024.303101,825.554626,972.464966,1005.829102,847.869934,944.344543,996.542786,855.943054,912.350098,998.471985,803.295532,893.632629,984.937439,811.810303,872.167236,967.92157,825.650696,852.323059,948.723328,,,,,,,,,,472.776428,-394.528931,947.669067,533.913086,-395.06604,949.871338,532.709717,-325.954834,948.792053,471.400574,-327.393219,949.088867,477.010193,-393.873871,739.561768,537.71936,-393.929382,741.172241,535.426636,-323.531708,741.417542,479.06311,-322.545105,743.338745,190.51651,118.741776,764.079163,221.642181,118.937172,757.980652,243.821777,121.390015,752.460205,119.487503,74.479553,764.287292,150.158966,61.179836,758.555176,183.379807,54.416058,751.818787,142.962097,130.746063,772.787964,130.088455,159.58197,763.030396,94.530594,140.782089,772.191528,31.500778,137.419998,785.155762
00091_color_1715720059.600202.png,831,1715720059.6030731,772.015503,941.875,1006.645081,736.258362,1000.692871,1003.675476,783.999573,1001.257751,1030.026733,827.434021,953.133179,1012.335083,848.572876,923.787659,1003.501892,854.461487,891.749878,1005.650879,801.496521,875.210815,991.731018,809.302307,853.683716,974.534424,821.968994,832.307129,955.949951,,,,,,,,,,466.856018,-393.753265,947.623169,528.028992,-393.360382,949.799438,525.915771,-324.236572,948.795898,464.647491,-326.646118,949.090515,471.352631,-393.036652,739.542664,531.942383,-392.27359,741.222168,528.679443,-321.833862,741.477478,472.271301,-321.816223,743.277222,190.498749,118.765373,764.068542,221.654922,118.947136,757.95459,243.82605,121.419067,752.464294,119.498848,74.505653,764.302979,150.155975,61.169029,758.5271,183.318451,54.173859,751.553833,142.969818,130.761505,772.764465,130.091873,159.588181,763.041931,94.542641,140.761475,772.214905,31.492308,137.413651,785.197632
00092_color_1715720059.634315.png,834,1715720059.633073,772.302002,931.527832,1010.255798,738.918091,991.63678,1006.832947,786.518005,990.456665,1033.322876,828.26123,940.550659,1015.993347,848.756897,909.986267,1007.162598,852.859619,878.113647,1009.659668,799.09198,863.692993,995.94165,806.168884,841.605652,978.730225,818.071472,819.794189,960.416809,,,,,,,,,,461.052216,-392.960083,947.608643,522.183105,-391.968994,949.77301,519.469238,-322.873749,948.763794,458.236542,-325.758698,949.0224,465.569702,-392.182007,739.55835,526.080139,-390.914429,741.107544,522.300232,-320.42337,741.427124,465.851044,-320.881836,743.22406,190.542038,118.73262,764.007202,221.681259,118.936287,757.946533,243.852631,121.388863,752.471313,119.52581,74.456741,764.272827,150.157654,61.117374,758.511047,183.334579,54.113724,751.529663,142.997192,130.711639,772.744873,130.106308,159.558014,763.04425,94.572617,140.725754,772.253174,31.524315,137.385468,785.250244
00093_color_1715720059.668155.png,838,1715720059.673073,771.854065,920.332581,1012.97699,741.905212,982.05481,1009.185059,789.292664,978.416992,1035.886108,828.047729,926.337952,1018.872498,846.631531,895.049622,1010.350464,849.395447,862.459412,1012.862061,795.357422,851.153259,998.307678,800.970825,828.452271,981.922913,811.491394,806.252075,963.880066,,,,,,,,,,451.728363,-391.275574,947.516296,512.760254,-389.57312,949.81134,509.390106,-320.460907,948.680481,448.091705,-323.998291,948.924866,456.100952,-390.335754,739.455688,516.724304,-388.317139,741.07251,512.233765,-318.067291,741.37854,455.779114,-319.011902,743.235474,190.517746,118.689713,763.958618,221.666916,118.923515,757.925476,243.858368,121.408562,752.469971,119.526405,74.453171,764.273254,150.141434,61.099289,758.513306,183.334152,54.127293,751.529907,143.001785,130.690994,772.706848,130.117599,159.538467,763.061218,94.598236,140.735153,772.308716,31.543974,137.364822,785.322937
00094_color_1715720059.702259.png,841,1715720059.703073,771.556641,913.681274,1013.194946,743.828064,976.563049,1009.637573,791.093689,971.005493,1036.106201,828.0047,917.270386,1018.957825,845.086426,885.52002,1010.451294,848.288086,852.010437,1012.04071,792.02301,843.622131,998.342651,796.174866,820.91687,982.278076,806.05658,798.598877,963.4245,,,,,,,,,,443.045319,-390.341492,947.332825,504.323975,-388.702515,949.796204,500.747559,-319.592316,948.626099,439.575714,-323.17627,948.926147,447.69339,-389.504974,739.382385,508.234131,-387.507935,740.994812,503.680634,-317.037842,741.321472,447.337067,-318.203278,743.089905,190.493896,118.661926,763.91217,221.76651,119.000381,758.112732,243.851364,121.410118,752.542969,119.507935,74.425858,764.268494,150.128113,61.065304,758.478394,183.2556,54.0373,751.503845,142.953751,130.658569,772.719849,130.116302,159.487869,763.032959,94.616295,140.698288,772.314209,31.554523,137.362396,785.351868
00095_color_1715720059.736026.png,844,1715720059.733073,770.524963,908.52417,1012.197754,745.690002,972.497253,1009.381287,793.042664,964.791748,1035.098511,827.32428,909.631897,1017.23468,843.052063,877.314758,1008.354309,843.956116,844.088989,1010.27594,787.82843,837.973572,997.02356,791.456665,814.994629,980.227173,800.104858,792.46405,961.227783,,,,,,,,,,433.292145,-389.635559,947.376099,494.335541,-387.920868,949.670349,490.766541,-318.755707,948.612366,429.656311,-322.44455,948.792664,437.990845,-388.498138,739.32489,498.543915,-386.446411,740.944458,493.820465,-316.053375,741.300476,437.431061,-317.23819,743.044434,190.497498,118.700943,763.904663,221.644165,118.997368,757.98053,243.8853,121.420166,752.439636,119.491318,74.482407,764.289001,150.087997,61.116508,758.525696,183.090027,53.93309,751.513733,143.04454,130.799316,772.797607,130.329803,159.424667,762.890198,94.624207,140.738373,772.31543,31.634691,137.141144,785.370117
00096_color_1715720059.770310.png,848,1715720059.773073,769.312683,903.710571,1009.329224,748.552124,968.99585,1007.536621,795.526489,958.134705,1032.820679,825.946716,901.179749,1013.713135,839.410034,868.075134,1004.199951,838.222168,834.972473,1005.385254,782.263123,832.115967,992.511047,784.049744,809.208313,975.731262,790.881775,786.711975,956.147278,,,,,,,,,,418.655151,-387.559082,947.379822,479.75473,-385.183716,949.538147,475.689941,-316.272095,948.510254,414.503601,-320.501099,948.717285,423.621002,-386.55423,739.134338,484.171509,-384.00058,740.796387,478.875122,-313.634277,741.235107,422.470215,-315.252655,742.9505,190.474518,118.588013,763.847046,221.615845,118.97271,757.961121,243.833557,121.341393,752.442688,119.484436,74.356537,764.271118,150.072556,61.361076,758.825745,183.225479,54.21386,751.675293,143.033829,130.646408,772.854065,130.523209,158.941116,762.574463,94.701172,140.521851,772.252625,31.60574,137.181961,785.376526
00097_color_1715720059.804377.png,851,1715720059.8030732,768.611633,900.984375,1006.933716,751.387756,967.51416,1006.060608,797.697693,954.030701,1030.546875,824.497314,895.802734,1010.878113,836.209534,862.168945,1000.838745,833.380859,829.086548,1001.786255,777.164307,829.526428,989.134094,778.438293,806.474365,971.541992,782.955139,784.148804,952.161743,,,,,,,,,,406.5336,-385.631134,947.326782,467.732422,-383.073792,949.543396,463.184326,-313.976562,948.502869,402.021301,-318.627472,948.551697,411.700073,-384.737946,739.12146,472.149658,-381.743195,740.835388,466.36853,-311.425446,741.132629,410.083954,-313.371307,742.81427,190.314835,118.865028,764.0672,221.57785,118.888084,757.890015,243.834396,121.321785,752.403137,119.437187,74.488647,764.471558,150.022278,61.221409,758.725769,183.22908,54.144066,751.693359,143.001373,130.67691,772.856018,130.476242,159.01178,762.629028,94.668518,140.564468,772.286499,31.578142,137.249207,785.398987
00098_color_1715720059.838293.png,855,1715720059.8430731,768.026001,899.653442,1002.858032,756.223572,967.135315,1003.209106,801.380127,949.755249,1026.905029,823.69928,889.978821,1005.583313,832.542358,855.510803,994.904419,826.264648,823.387573,995.890625,770.634033,827.997681,983.832153,768.803528,805.767334,966.342957,772.238159,783.088867,946.23877,,,,,,,,,,389.268158,-383.603333,947.127075,450.436462,-380.226746,949.376587,444.989532,-311.164642,948.335999,383.919708,-316.536041,948.400452,394.440643,-382.744476,739.003662,454.974945,-378.90448,740.808105,448.253876,-308.639771,740.996216,391.952515,-311.284485,742.672913,190.197693,118.834877,764.050232,221.47789,118.885834,757.903687,243.73468,121.291695,752.451233,119.329361,74.457726,764.479126,149.920837,61.193611,758.710083,183.061386,54.381813,752.022949,142.952225,130.655075,772.841492,130.43045,158.975769,762.617981,94.238297,141.217041,773.150513,31.517315,137.295639,785.486389
00099_color_1715720059.872484.png,858,1715720059.873073,768.307373,899.557007,999.825623,760.687012,967.731995,1001.811279,804.881897,946.59729,1025.020386,822.988647,886.119568,1002.301208,829.811768,851.508484,990.572388,822.674561,819.123657,990.39624,766.285217,828.3797,979.194336,763.110596,806.640503,961.127258,765.259033,784.920471,940.600769,,,,,,,,,,374.816406,-381.582123,947.007263,435.851898,-377.428284,949.285156,429.72403,-308.475342,948.242065,368.679596,-314.639038,948.220947,380.034119,-380.679718,738.875977,440.661743,-376.23999,740.67572,433.095856,-305.999634,740.881104,376.769348,-309.271851,742.535828,190.13353,118.656189,763.903442,221.413635,118.829002,757.873413,243.653061,121.233139,752.472229,119.247208,74.446037,764.47168,149.81987,61.202339,758.711304,182.837326,54.201279,751.870972,142.92598,130.941086,773.266418,130.0439,159.375748,763.04541,94.559196,140.969025,772.666809,31.501089,137.386642,785.513
00100_color_1715720059.906405.png,861,1715720059.903073,769.12262,900.189148,998.234985,766.266357,968.660095,1001.70636,809.058838,944.067993,1024.539429,823.457397,882.819458,1000.199585,827.751038,847.972595,987.717834,817.755371,816.571655,987.001404,762.086975,829.983032,975.733765,757.580139,808.940308,957.043091,758.306885,789.047546,935.499817,,,,,,,,,,359.288361,-379.27951,946.761169,420.337952,-374.627716,949.192749,413.532806,-305.782043,948.02887,352.610535,-312.284546,948.105347,364.727722,-378.42157,738.692139,425.515015,-373.484711,740.618591,417.143951,-303.248199,740.734131,360.885559,-307.064819,742.327209,190.009094,118.649002,763.8797,221.292755,118.789345,757.873474,243.545227,121.208374,752.477112,119.136017,74.484581,764.504395,149.620255,61.361942,758.82428,182.653595,54.192104,751.910095,142.677307,130.760452,772.894714,129.985703,159.42923,763.038696,94.480698,141.001953,772.613159,31.40505,137.506485,785.491394
00101_color_1715720059.940618.png,865,1715720059.943073,771.783691,901.133545,1000.307434,774.922119,969.383728,1004.841553,815.144897,940.643616,1027.615479,824.43988,878.649475,1002.595215,825.864685,843.826782,989.574524,813.103149,813.429077,988.422058,758.705872,832.105957,976.625488,752.043518,811.929138,957.988953,750.420593,790.521118,935.737061,,,,,,,,,,337.442749,-377.444672,946.488586,398.457489,-372.452087,948.981689,391.311646,-303.492157,948.117371,330.481598,-310.485626,947.830811,342.891693,-376.405914,738.446777,403.803101,-371.288086,740.553284,395.006989,-300.964783,740.621704,338.735107,-305.02655,742.154175,189.757385,118.542221,763.850281,221.054031,118.701172,757.897217,243.28508,121.13324,752.49823,118.937675,74.65033,764.82074,149.334808,61.277397,758.802124,182.351593,53.992283,751.815613,142.313278,130.755615,773.106445,129.897751,159.533096,763.309448,94.309235,141.037506,772.761475,31.217142,137.585007,785.655273
00102_color_1715720059.974568.png,868,1715720059.973073,775.185913,900.402466,1003.923279,781.514832,968.316284,1008.891357,820.361145,937.471619,1031.517212,826.737488,875.316101,1006.046997,826.387939,840.677979,992.885254,812.163208,810.814758,991.506165,758.653625,832.218872,979.985474,751.288086,812.432434,961.004272,749.357605,793.462463,939.138855,,,,,,,,,,319.677521,-376.026917,946.285522,380.673828,-370.910614,948.800659,373.438843,-302.092987,947.766418,312.556885,-309.041016,947.711182,325.31189,-374.980499,738.290466,386.152832,-369.652893,740.350281,377.207947,-299.355194,740.451965,320.95929,-303.502808,741.96759,189.549423,118.542656,763.825684,220.854584,118.764954,757.913818,243.085144,121.129509,752.528564,118.599159,74.744621,764.729004,149.138809,61.42704,758.891907,182.00351,53.95097,751.887268,142.357468,130.745178,772.808777,129.733322,159.671265,763.23877,94.180885,141.214813,772.76825,30.921589,138.203827,786.039673
00103_color_1715720060.008113.png,872,1715720060.013073,780.232788,897.084167,1009.303589,789.36322,964.741882,1015.241516,827.075562,932.040649,1037.240845,830.776978,870.170349,1010.88324,829.076355,835.646729,997.226379,813.685974,806.631104,995.718201,760.796265,830.037659,984.598328,752.681763,810.733032,965.289185,750.357605,792.483887,943.419006,,,,,,,,,,295.478973,-373.954742,946.015747,356.586945,-368.570465,948.600525,348.876862,-299.760925,947.631653,288.140503,-306.808441,947.399292,301.347656,-372.801392,737.984741,362.136475,-367.206116,740.09845,352.950409,-296.938843,740.221069,296.740112,-301.255646,741.669861,189.286407,118.535889,763.853516,220.572266,118.729546,757.902771,242.827194,121.046989,752.525208,118.347435,74.831718,764.802063,148.880234,61.362232,758.817749,181.69986,53.969837,751.881042,142.172562,130.48671,772.52655,129.605423,159.398041,762.908997,93.997101,141.351578,772.955811,30.807835,138.362732,786.036804
00104_color_1715720060.042323.png,875,1715720060.0430732,783.403625,893.913025,1013.324402,794.305603,961.410034,1019.816284,831.2948,927.295837,1041.227539,833.190796,865.722107,1014.616516,830.935303,831.220825,1000.754578,815.124573,802.139893,998.939758,762.183167,827.45282,988.365234,753.611145,808.376343,969.032898,750.828186,790.371704,947.563293,,,,,,,,,,276.992615,-373.017883,945.692139,338.125336,-367.73288,948.555359,330.429352,-298.851654,947.351562,269.579742,-305.927216,947.121094,283.104462,-371.749878,737.732056,343.932343,-366.304382,739.983521,334.70816,-295.938751,740.093872,278.524292,-300.279907,741.392029,189.10643,118.549042,763.891174,220.412262,118.663956,757.915955,242.654678,120.963448,752.493896,118.198059,74.747063,764.678406,148.729523,61.351673,758.80426,181.544739,53.917938,751.854919,142.041031,130.458725,772.551697,129.513199,159.386398,762.944824,93.888947,141.219177,772.814697,30.685022,138.360062,786.064392
00105_color_1715720060.077177.png,878,1715720060.0730731,785.604736,890.367188,1016.910767,798.553711,957.375854,1023.474426,834.624817,922.132935,1044.551514,834.613281,860.706543,1017.993896,831.40863,826.528564,1004.363403,814.950684,797.806946,1002.502075,762.425964,824.467224,991.961243,752.869629,805.822998,972.946899,748.019653,785.545166,950.225098,,,,,,,,,,257.091858,-372.149261,945.532471,318.247772,-367.033264,948.314758,310.862946,-298.09729,947.201965,250.015701,-304.956909,946.779663,263.535889,-370.989838,737.495117,324.375092,-365.821167,739.827576,315.498779,-295.412048,739.817932,259.328522,-299.935028,741.02948,189.016052,118.559006,763.90271,220.43721,118.742516,758.05365,242.661789,121.089149,752.643738,118.130394,74.853889,764.755127,148.662933,61.396465,758.841614,181.448944,53.944901,751.848816,141.976822,130.79866,772.848206,129.417053,159.715622,763.230286,93.850342,141.271271,772.82074,30.61618,138.446518,786.097107
00106_color_1715720060.116674.png,882,1715720060.113073,786.954224,885.140686,1019.879333,802.523926,951.578918,1026.655762,837.3349,914.674133,1047.246704,834.7771,853.547424,1020.797363,830.79834,819.163818,1007.13739,813.257263,791.243164,1005.66803,760.865417,820.191711,995.271362,750.790527,801.736389,976.106018,745.104553,781.923889,953.498718,,,,,,,,,,230.784103,-370.698761,945.112366,292.163788,-365.808228,948.044617,284.839233,-296.932037,946.733337,223.916779,-303.481384,946.372864,237.213684,-369.489716,737.058472,298.152893,-364.549988,739.377625,289.543884,-294.187744,739.36322,233.063766,-297.59024,740.869263,189.020905,118.67189,763.99585,220.324158,118.734871,758.064575,242.529938,121.081131,752.621887,118.031845,74.829865,764.733765,148.589294,61.399792,758.800232,181.319702,53.957207,751.853943,141.87323,130.796249,772.85083,129.273865,159.847275,763.363098,93.719284,141.277176,772.834351,30.510065,138.193222,785.989197
00107_color_1715720060.150520.png,886,1715720060.153073,786.235291,879.119995,1020.527466,804.007141,944.913635,1027.898804,837.747498,906.736084,1047.904175,832.991882,846.236206,1021.457336,828.228577,812.285583,1007.819153,810.263916,784.461792,1006.217957,757.590942,815.482178,995.982056,746.964355,797.248352,976.623962,740.193665,777.500244,954.372009,,,,,,,,,,204.88443,-369.672058,944.650452,266.284637,-364.576172,947.606934,258.443665,-295.411621,946.413391,197.60144,-302.364288,945.979736,211.537628,-368.54364,736.635315,272.296539,-363.168213,739.065063,263.361145,-292.711243,739.045715,206.996536,-296.516754,740.503418,189.000473,118.622368,763.986877,220.308151,118.714798,758.085327,242.486176,120.974533,752.548889,118.014511,74.755615,764.697815,148.577927,61.360264,758.787109,181.45607,53.969456,751.893188,141.842529,130.770065,772.864014,129.466934,159.628021,763.157654,93.686584,141.153854,772.808105,30.726957,137.851135,785.935669
00108_color_1715720060.184986.png,889,1715720060.183073,783.345703,874.518372,1020.100952,802.537903,939.813049,1028.127197,835.5578,900.708801,1047.543579,829.729248,840.69574,1020.543579,824.779968,807.007935,1006.929504,806.716248,779.137451,1005.086914,753.987183,811.230957,994.891663,742.762756,793.657471,975.681274,735.657104,773.686584,953.177307,,,,,,,,,,184.797073,-368.751129,944.327209,246.299789,-363.748596,947.359436,238.570694,-294.697449,946.075134,177.71759,-301.46991,945.615906,191.611755,-367.59668,736.274475,252.602753,-363.162384,738.904053,243.68605,-292.041443,738.576782,187.187805,-295.569458,740.138794,188.929138,118.592422,764.018372,220.172485,118.569069,758.008972,242.384369,120.992783,752.597778,117.940231,74.699966,764.703552,148.624619,61.39315,758.825562,181.386292,53.970993,751.902588,141.76622,130.750122,772.887817,129.184143,159.767975,763.392456,93.613815,141.08992,772.862122,30.467846,137.997803,786.054016
00109_color_1715720060.219006.png,893,1715720060.223073,774.90155,868.857117,1018.881104,795.466003,934.010132,1028.43042,827.986328,894.031006,1046.998657,821.233276,834.606201,1018.925049,816.183716,801.427551,1005.158447,798.415283,773.31311,1003.034363,745.356873,806.220032,992.76593,734.756042,790.438477,974.131714,726.406433,768.251587,951.088928,,,,,,,,,,159.072754,-366.96579,943.835022,220.677216,-361.577881,946.999573,212.486588,-292.485474,945.705505,151.637238,-299.600464,945.203369,165.917282,-365.558319,735.855957,226.859863,-360.774384,738.595032,217.663986,-289.831451,738.172974,161.20256,-293.657562,739.666321,188.814621,118.531548,763.941711,220.104172,118.577171,758.023682,242.357239,120.967201,752.589905,118.027153,74.834816,764.821472,148.589523,61.448399,758.871033,181.358185,53.991657,751.917053,141.735794,130.788422,772.900024,129.162994,159.818451,763.394958,93.4674,141.218628,772.936768,30.478487,138.209579,786.24115
00110_color_1715720060.256116.png,896,1715720060.253073,765.892212,865.779907,1018.863464,787.737976,930.376892,1029.281372,819.486816,889.643982,1047.368652,811.420105,830.854614,1018.834717,806.213257,797.656494,1004.564758,787.921631,769.761475,1002.245056,734.593689,804.003845,992.522217,722.205261,789.078735,971.467834,715.156616,768.033508,950.020813,,,,,,,,,,141.813705,-365.368805,943.47229,203.396881,-359.425995,946.727905,194.532059,-290.455688,945.355835,133.708206,-297.928711,944.854675,148.902084,-363.983551,735.500305,209.603302,-358.573822,738.288086,199.842834,-287.575317,737.964355,143.47757,-292.145996,739.280334,188.840988,118.570107,763.981689,220.105423,118.586891,758.021973,242.361389,120.97834,752.580811,118.054184,74.853722,764.836243,148.633942,61.452209,758.874329,181.307236,53.988247,751.896729,141.76384,130.789124,772.887146,129.194748,159.835526,763.401062,93.717308,141.287872,773.008972,30.462584,138.203506,786.231995
00111_color_1715720060.293737.png,900,1715720060.2930732,753.074768,861.000732,1020.494568,776.419312,925.048401,1031.30188,806.951477,883.420227,1049.29895,797.719116,824.875488,1020.389465,792.200684,791.784058,1005.96405,773.215576,764.467224,1003.59729,720.148926,800.721252,993.428406,707.302307,784.175598,973.487061,699.021667,765.356628,950.746826,,,,,,,,,,122.606262,-363.720612,943.155884,183.971176,-357.000397,946.317688,174.618988,-288.164795,944.693787,113.772522,-296.436432,944.414795,129.882172,-362.393341,735.185547,190.522934,-356.211792,738.023621,179.927582,-285.233307,737.634949,123.654503,-290.461487,738.985718,188.863388,118.500435,763.98877,220.136963,118.532097,757.989319,242.390198,120.958664,752.559387,118.080139,74.792618,764.838867,148.70842,61.382313,758.80481,181.33812,53.942234,751.843689,141.964355,130.565796,772.705933,129.246445,159.768097,763.40271,93.793541,141.228729,773.029053,30.522556,138.232666,786.308044
00112_color_1715720060.329721.png,904,1715720060.3330731,741.182983,854.244263,1022.907959,764.65155,918.282288,1034.142334,795.169189,876.461487,1051.575439,785.498901,818.072388,1022.590881,779.951416,785.0896,1008.301025,761.058411,757.807312,1005.97168,707.451782,794.231812,995.562866,694.705383,778.550537,976.035828,685.748047,757.847839,954.254639,,,,,,,,,,108.107605,-362.173126,942.885376,169.323807,-354.786407,946.153015,159.223282,-286.033295,944.533936,98.510254,-294.815063,944.169189,115.468674,-360.875244,734.992432,175.906189,-353.793518,737.812378,164.649231,-283.210815,737.299377,108.44825,-288.964935,738.578003,188.94545,118.416443,763.976746,220.214981,118.48127,757.95343,242.480316,120.90255,752.525452,118.139137,74.745369,764.866272,148.623779,61.28968,758.808777,181.386246,53.89035,751.788208,141.92569,130.674789,772.914917,129.304031,159.711502,763.406494,93.908615,141.198151,773.040344,30.622044,138.326981,786.333862
00113_color_1715720060.364266.png,907,1715720060.363073,732.811462,848.671204,1024.275146,756.059631,912.677551,1035.907715,787.056274,870.87323,1052.499512,777.499939,812.923401,1023.04364,772.076233,779.918457,1008.504028,753.681824,752.210876,1005.962463,699.259155,788.37616,996.727966,686.439575,772.646667,977.21936,677.655884,753.24646,954.972595,,,,,,,,,,100.607994,-361.412415,942.70282,161.931931,-354.02005,945.982788,151.781799,-285.124481,944.412231,91.050529,-294.096161,944.018799,108.093285,-360.080872,734.774841,168.492783,-353.109985,737.708801,157.182938,-282.341492,737.198303,101.028915,-288.174835,738.455933,188.936798,118.422348,763.997192,220.238312,118.477814,757.970398,242.49382,120.899879,752.516785,118.170509,74.769463,764.909058,148.618927,61.320721,758.810791,181.374527,53.901459,751.799805,141.921448,130.411224,772.653809,129.39917,159.38913,763.056152,93.937164,141.246292,773.06311,30.535971,138.545639,786.490967
00114_color_1715720060.398373.png,911,1715720060.403073,722.659973,841.092468,1024.926147,745.835144,905.044983,1037.585938,776.685669,863.00885,1053.642212,767.338684,805.517517,1022.822754,762.016602,772.876892,1007.885315,743.666565,745.729736,1005.262146,689.194885,781.25116,996.528564,676.307434,765.399536,976.765015,666.841125,745.219238,954.723389,,,,,,,,,,95.458458,-360.743988,942.542786,156.654175,-353.618378,945.957153,146.355392,-284.547699,944.373291,85.688705,-293.644104,943.868774,102.742989,-359.562958,734.72821,163.254257,-352.504761,737.565674,151.765854,-281.76767,737.113892,95.600349,-287.656464,738.434448,188.93457,118.374329,763.991089,220.211578,118.442413,757.976746,242.485962,120.880669,752.530273,118.191978,74.600975,764.788818,148.600479,61.221291,758.765076,181.373779,53.867176,751.78656,141.928543,130.632507,772.960327,129.331177,159.646652,763.442688,93.896805,141.131821,773.091064,30.463251,138.582352,786.738525
00115_color_1715720060.432737.png,914,1715720060.433073,715.95575,835.498718,1025.848511,739.68335,899.143066,1039.197632,770.206604,856.63678,1054.882935,760.349915,799.549866,1023.517029,754.617432,767.198853,1008.213867,736.075623,739.098145,1005.140808,682.007263,776.084595,997.017944,669.374878,763.494934,976.573792,659.726257,742.554993,954.20752,,,,,,,,,,94.237991,-360.646973,942.586731,155.592117,-353.737183,945.991699,145.152313,-284.395691,944.270691,84.431061,-293.381561,943.91748,101.610741,-359.415375,734.676147,161.990463,-352.263245,737.543518,150.559433,-281.520325,737.080444,94.406174,-287.438904,738.435913,188.854431,118.393272,764.002319,220.144745,118.442261,757.995239,242.412262,120.885223,752.566711,118.106743,74.541786,764.764709,148.571686,61.248569,758.749084,181.327667,53.873959,751.80603,141.853622,130.63974,772.991333,129.281281,159.63504,763.477234,93.816551,141.078094,773.106079,30.660967,138.189087,786.445862
00116_color_1715720060.466398.png,917,1715720060.463073,710.302795,829.605713,1027.812134,734.836609,892.884766,1041.111084,764.80719,850.042114,1057.125244,754.237549,792.871948,1025.551392,747.885742,760.623657,1010.32959,728.745667,732.997742,1007.359497,675.488831,770.940857,998.827881,662.212402,755.291443,978.967468,652.856201,736.547302,956.590332,,,,,,,,,,94.391518,-360.650757,942.594849,155.909393,-353.981262,945.923401,145.460571,-284.362549,944.275208,84.740089,-293.321564,943.915588,101.758087,-359.310394,734.690308,162.14119,-352.297882,737.534607,150.797165,-281.507141,737.08197,94.633514,-287.350067,738.453125,188.646835,118.416191,764.090759,219.921036,118.419395,758.020691,242.180817,120.889931,752.57312,117.945183,74.557144,764.734192,148.421112,61.249809,758.756958,181.176636,53.934616,751.822083,141.640549,130.654404,773.02478,129.094055,159.635117,763.507324,93.587029,140.988754,773.172119,30.288542,138.205063,786.700745
00117_color_1715720060.499980.png,921,1715720060.503073,704.302063,820.550354,1030.708618,729.709717,883.335938,1043.248169,758.899658,840.110657,1060.03186,747.529053,782.940369,1029.109375,740.407166,751.093445,1014.485352,720.810242,724.371338,1011.597778,667.773804,761.637085,1002.802002,655.234009,746.479614,982.148193,646.109009,728.094177,959.852783,,,,,,,,,,96.791138,-360.279663,942.65625,158.531143,-353.860107,945.975037,148.196854,-284.271759,944.318115,87.457932,-293.059662,943.940369,104.251511,-359.031036,734.772339,164.730957,-352.207489,737.592712,153.633835,-281.413971,737.130981,97.429283,-287.158844,738.420471,188.22316,118.354294,764.221008,219.500946,118.371346,758.065552,241.773056,120.825691,752.591125,117.60762,74.574135,764.821045,148.082611,61.272858,758.727295,180.828827,53.942146,751.779663,141.152451,130.640686,773.170776,128.73082,159.603363,763.590576,93.179466,140.824997,773.235229,29.848976,137.892441,786.70105
00118_color_1715720060.533628.png,924,1715720060.533073,700.775146,812.633301,1031.661499,726.170288,875.41687,1044.142456,755.277466,832.023315,1061.177734,744.071167,774.684082,1030.239502,736.595032,742.214417,1015.504211,716.66571,715.66333,1012.44104,664.525269,753.333618,1003.989563,652.070557,738.209351,983.582642,642.602295,720.024231,961.081299,,,,,,,,,,100.427765,-360.146545,942.724182,161.98996,-353.450195,946.088501,151.654373,-283.980927,944.38623,90.931831,-292.975677,944.010132,107.732704,-358.824127,734.813354,168.23317,-351.85202,737.698914,156.941528,-281.172363,737.119934,100.739891,-286.935486,738.51947,187.933258,118.386223,764.285156,219.193039,118.325577,758.037842,241.46521,120.8125,752.58374,117.336975,74.541718,764.783752,147.833023,61.291679,758.744507,180.531128,53.98283,751.746277,140.798523,130.661118,773.216858,128.431107,159.639206,763.622131,92.872063,140.80658,773.214417,29.573549,137.712341,786.605652
00119_color_1715720060.567243.png,927,1715720060.5630732,697.817566,804.400085,1031.94751,722.75354,866.655029,1043.813721,751.949585,823.489136,1060.995728,740.981567,766.419983,1030.127075,733.637207,733.70575,1015.189148,713.786865,707.535645,1012.398865,661.613098,744.17157,1003.674255,649.441101,729.447937,982.951111,640.380676,711.071899,960.322815,,,,,,,,,,105.310829,-360.044617,942.879517,166.776474,-353.115082,946.202271,156.248245,-283.667297,944.452637,95.596474,-292.652893,944.2547,112.550041,-358.735718,734.975769,172.927582,-351.483002,737.76709,161.506531,-280.812836,737.251709,105.247643,-286.781281,738.62793,187.709503,118.343689,764.315796,218.984268,118.285194,758.035156,241.242249,120.74659,752.567871,117.116707,74.479736,764.784973,147.645889,61.312508,758.759521,180.307098,53.964493,751.737671,140.560852,130.611664,773.225037,128.222961,159.658463,763.64856,92.671509,140.794556,773.227844,29.417269,137.539703,786.527588
00120_color_1715720060.600756.png,931,1715720060.6030731,693.199768,791.057251,1029.388062,718.473633,854.748169,1042.085571,747.303589,811.427551,1059.33313,736.500244,754.382935,1028.411865,729.093445,721.668945,1013.239014,709.11261,695.511414,1010.401489,657.592651,732.652039,1001.611328,645.388733,717.344238,980.670593,636.582703,698.880859,957.822937,,,,,,,,,,113.811043,-359.873322,942.966431,175.292236,-352.875702,946.347656,164.590469,-283.473236,944.635925,103.951614,-292.615875,944.309937,121.039993,-358.475983,735.038025,181.435791,-351.247345,737.872131,169.852264,-280.565125,737.450806,113.644638,-286.594025,738.800781,187.676498,118.3601,764.339478,218.937683,118.288406,758.032104,241.193314,120.713615,752.541565,117.083305,74.556465,764.806763,147.622101,61.361202,758.775024,180.262604,53.997044,751.74646,140.370224,130.592545,773.184937,128.169678,159.732941,763.674011,92.600822,140.849579,773.213074,29.360373,137.483688,786.503479
00121_color_1715720060.634093.png,934,1715720060.633073,689.42572,782.238037,1027.776001,714.951355,845.048828,1039.776978,743.532166,801.495178,1057.265503,732.254517,743.564392,1026.525513,724.696594,711.378967,1011.332764,704.594116,685.803955,1008.732788,653.543884,723.296448,999.533203,641.178711,707.812866,978.863098,632.201294,689.356079,956.060669,,,,,,,,,,121.971115,-360.006683,943.167664,183.320969,-352.92691,946.51947,172.594543,-283.537933,944.714783,111.935181,-292.915985,944.53186,129.057693,-358.633636,735.266357,189.519882,-351.333221,738.028625,177.764206,-280.621216,737.597107,121.605225,-286.923706,738.963623,187.695007,118.377022,764.353394,218.960724,118.288948,758.051819,241.21521,120.734734,752.560364,117.122223,74.569412,764.814331,147.770126,61.391537,758.80603,180.276962,53.992783,751.754883,140.762207,130.474365,773.013733,128.194336,159.74942,763.665894,92.605919,140.856384,773.222412,29.367613,137.464447,786.485901
00122_color_1715720060.667991.png,937,1715720060.663073,684.66272,771.258423,1024.672363,711.149109,834.815186,1036.946045,739.35199,790.86969,1054.610352,727.240173,733.320984,1024.742188,719.383545,701.39502,1009.799011,698.892944,675.462402,1007.083679,648.323303,713.569214,997.652344,635.847534,697.841919,976.95343,626.350098,679.482056,954.400513,,,,,,,,,,131.430084,-360.419586,943.406128,192.822357,-353.031433,946.697449,181.72757,-283.741364,944.902222,121.094696,-293.277496,944.721497,138.568726,-359.048737,735.448792,198.947403,-351.382568,738.243896,186.810791,-280.693237,737.868225,130.715271,-287.238464,739.135864,187.714005,118.369698,764.370728,218.970596,118.274269,758.067078,241.226639,120.719788,752.544006,117.144562,74.55307,764.814087,147.769699,61.393837,758.813049,180.299347,53.990364,751.753906,140.605209,130.710876,773.266296,128.201202,159.742432,763.666199,92.614655,140.847122,773.219788,29.385561,137.444122,786.487793
00123_color_1715720060.701650.png,941,1715720060.703073,677.526245,757.450562,1020.903137,705.808655,820.427307,1032.128784,732.86731,776.438843,1050.105103,719.198059,719.247253,1021.865601,710.260376,686.48584,1007.068542,689.128662,660.984741,1004.873169,639.578491,700.210632,994.767273,626.510315,684.593872,974.524841,616.773499,666.044556,952.231262,,,,,,,,,,146.841354,-361.273743,943.826538,208.153473,-353.329468,946.957886,196.671371,-284.221619,945.146179,136.070099,-294.299286,945.12561,153.3526,-360.038269,735.866272,213.744766,-351.883636,738.434509,201.084671,-281.317566,738.031311,145.054504,-288.307617,739.579224,187.723175,118.401062,764.386902,218.98378,118.308487,758.061523,241.230179,120.728836,752.558594,117.153328,74.603546,764.843445,147.777679,61.434223,758.828613,180.344925,54.033981,751.770203,140.606903,130.738052,773.267151,128.202408,159.772064,763.645081,92.633392,140.901947,773.18103,29.397091,137.562683,786.472839
00124_color_1715720060.737467.png,944,1715720060.733073,671.735535,746.846863,1017.355103,701.800659,809.31366,1027.516602,727.660156,764.744446,1045.844849,711.975525,706.723755,1018.179077,702.56311,674.524414,1004.544373,680.708618,649.431335,1002.821777,632.311401,689.822327,992.132324,618.358887,674.608459,972.490356,608.475159,655.521606,950.147095,,,,,,,,,,160.020691,-362.564545,943.879272,221.814011,-354.408691,947.287476,209.565155,-285.27948,945.471619,149.053986,-295.635529,945.197754,166.937927,-361.257324,735.995117,227.273605,-352.886536,738.708801,214.429459,-282.414459,738.301575,158.402435,-289.601074,739.608887,187.846512,118.504227,764.482727,219.000168,118.330315,758.06073,241.24295,120.754364,752.550049,117.164177,74.640083,764.862366,147.775803,61.47068,758.848145,180.394836,54.086765,751.82135,140.625977,130.778351,773.280457,128.207977,159.786423,763.639771,92.489578,140.904922,773.149353,29.415613,137.646545,786.449951
00125_color_1715720060.775682.png,948,1715720060.773073,663.603394,731.977295,1010.535461,695.98822,792.29071,1018.805054,720.444458,747.267151,1038.328369,702.372498,690.409485,1012.388733,691.670227,657.889771,999.455139,669.097656,633.552002,998.559631,622.127319,675.601074,986.418884,607.427429,660.175354,967.623474,596.615601,641.012268,945.843567,,,,,,,,,,180.520584,-365.041962,944.495911,241.847504,-356.951172,947.462219,229.975525,-287.723969,945.773987,169.417389,-298.08728,945.812439,186.58873,-363.722992,736.428528,246.835754,-355.412781,738.959045,233.891907,-284.807648,738.595215,177.870224,-292.018982,740.188721,187.885605,118.526871,764.491577,219.051575,118.320885,758.056335,241.275742,120.772675,752.545166,117.107384,74.656853,764.842224,147.805084,61.497444,758.857056,180.422607,54.101246,751.812195,140.655136,130.809906,773.277832,128.225723,159.816391,763.625061,92.634132,140.941956,773.090393,29.458292,137.656082,786.357544
00126_color_1715720060.809814.png,952,1715720060.8130732,655.265991,715.922424,1001.081848,690.116455,775.153809,1007.592468,712.99646,730.0,1028.0,692.486206,672.917053,1003.761536,680.454285,640.546509,992.021912,657.182434,616.853088,991.876404,611.895996,660.042603,978.953735,596.088867,645.041138,960.513306,584.431152,625.88562,939.266968,,,,,,,,,,202.795898,-368.159912,944.761902,264.464081,-359.695923,947.891052,252.076355,-290.769043,946.168823,191.566895,-301.148346,946.096008,209.040894,-366.677643,736.712219,269.419556,-358.198212,739.317383,256.322571,-287.77533,739.015259,200.390717,-295.04483,740.441956,187.90567,118.529694,764.476318,219.230942,118.405502,758.152832,241.34906,120.711571,752.471924,117.107323,74.673058,764.827637,147.73204,61.461929,758.82489,180.450134,54.088512,751.810059,140.585785,130.859344,773.393555,128.330673,159.431732,763.263489,92.610626,140.90979,773.046326,29.498192,137.432877,786.120728
00127_color_1715720060.844493.png,955,1715720060.8430731,649.085876,703.421692,992.302002,685.699768,761.524475,997.33844,707.434692,716.442017,1018.554321,685.154907,659.306213,995.567017,672.416931,626.948792,984.692139,648.303406,603.993896,985.244141,604.04895,648.149353,971.490173,587.796143,633.130371,953.165833,575.537354,614.012085,932.565552,,,,,,,,,,220.277496,-370.714172,944.992493,282.246948,-362.888977,948.157593,269.950134,-293.465546,946.483215,209.327789,-303.785614,946.311279,226.545593,-369.201141,736.998413,286.903809,-360.983582,739.534851,274.144867,-290.486023,739.314453,218.091721,-297.726868,740.658081,187.900711,118.569572,764.503357,219.130463,118.466949,758.185486,241.423187,120.952354,752.705139,117.118149,74.678146,764.812012,147.760056,61.471642,758.832947,180.469315,54.104053,751.81897,140.592316,130.843491,773.31842,128.222382,159.837662,763.614014,92.580513,140.922394,773.042053,29.488657,137.397842,786.086914
00128_color_1715720060.879985.png,959,1715720060.883073,640.955811,686.035034,978.979919,679.817322,743.023682,982.585388,700.166077,697.860535,1004.705444,675.328369,641.484924,983.647888,662.102295,608.709717,973.405884,637.476562,586.320923,974.850525,594.027527,631.678528,959.868286,577.170898,616.800354,942.008667,564.471619,597.325439,921.747314,,,,,,,,,,244.284348,-374.629791,945.288452,305.947784,-367.48465,948.420044,294.757263,-298.41748,946.538635,234.136261,-307.596985,946.728699,250.235535,-373.027771,737.333557,310.882385,-365.649048,739.84729,298.885223,-295.122009,739.534241,242.653,-301.629303,741.096191,187.848816,118.541878,764.459534,219.167603,118.5028,758.185608,241.389008,120.893555,752.604919,117.14534,74.691856,764.798645,147.775879,61.485966,758.862,180.455963,54.098476,751.7948,140.595123,130.902924,773.344482,128.210388,159.906921,763.624939,92.54393,140.916534,773.007874,29.391672,137.786896,786.524536
00129_color_1715720060.913951.png,962,1715720060.913073,635.455139,672.921814,969.042664,675.719727,728.383423,971.198975,695.221924,683.798279,994.220276,669.453308,627.071716,973.737976,655.171265,594.98938,964.830627,630.157898,573.010986,966.824402,587.420837,619.226196,951.076111,570.639282,604.35791,933.192627,557.335388,584.915222,913.383545,,,,,,,,,,262.928375,-377.270477,945.526306,324.376709,-369.978607,948.628967,313.245361,-300.56134,946.955017,252.653,-310.02771,946.981995,268.924042,-375.665649,737.471313,329.48468,-368.186279,740.001038,317.413239,-297.609314,739.718872,261.226288,-303.967346,741.309631,187.912781,118.552094,764.468323,219.206848,118.505974,758.183105,241.436981,120.904877,752.564514,117.16185,74.685684,764.773987,147.809113,61.448116,758.823975,180.524216,54.097683,751.763672,140.612823,130.901169,773.345764,128.230728,159.859726,763.603882,92.555115,140.841003,772.959412,29.453568,137.354492,786.241699
00130_color_1715720060.954388.png,966,1715720060.953073,629.471069,656.150757,956.809509,671.823547,711.657715,957.89502,689.75116,665.883728,981.485474,661.879883,609.563599,962.90918,647.224731,577.542053,954.888916,621.917664,556.110962,957.59259,579.652161,603.432861,940.74585,561.772888,588.713257,923.671875,547.754578,569.163696,904.428772,,,,,,,,,,287.650024,-379.842133,946.010986,348.838776,-372.29538,948.588379,338.432922,-303.450165,947.280823,277.689209,-312.795105,947.393555,293.29248,-378.38739,737.837341,353.998474,-371.252899,740.187195,342.134949,-300.711914,739.955383,285.88681,-306.834595,741.675903,187.996094,118.468147,764.479858,219.277466,118.406586,758.142517,241.395065,120.809937,752.501953,117.260612,74.490479,764.635437,147.8815,61.300648,758.742493,180.645386,53.96191,751.683777,140.684784,130.750946,773.346802,128.253937,159.759781,763.645874,92.568214,140.600464,772.886902,29.504721,136.968445,786.169922
00131_color_1715720060.989053.png,970,1715720060.993073,625.32605,640.404541,946.451294,669.405334,694.799561,946.105591,686.041443,649.009583,970.805298,656.745789,592.999268,953.825928,641.622742,561.052002,946.700256,615.773804,540.244324,950.218506,574.166321,588.522095,931.572876,555.996338,573.8927,914.937805,541.588867,554.147034,896.161987,,,,,,,,,,312.12674,-382.606598,946.345154,373.249725,-375.280396,948.765259,362.975067,-306.534637,947.615234,302.489716,-315.611572,947.723328,317.322632,-381.227539,738.172974,377.977173,-374.04657,740.263306,366.464996,-303.835602,740.19989,310.274811,-309.778198,741.96167,188.08905,118.431763,764.416321,219.377625,118.442474,758.137024,241.626022,120.865791,752.500549,117.339783,74.60672,764.742065,147.977982,61.252525,758.720215,180.765091,53.932758,751.642578,140.777252,130.741058,773.324341,128.324677,159.740189,763.600464,92.748711,140.755768,772.847778,29.591923,136.842499,786.06665
00132_color_1715720061.024152.png,973,1715720061.023073,623.781677,629.233948,940.118103,668.788452,682.965027,938.543762,684.74884,637.550781,964.371582,654.683289,581.714172,948.77002,639.370178,549.753906,942.616699,613.445496,529.089844,946.623596,572.005493,577.687744,926.395691,553.735474,562.904358,910.019653,538.809204,543.008545,891.727905,,,,,,,,,,330.017151,-384.232361,946.435852,391.062317,-376.594604,949.131897,380.960785,-308.045776,947.710693,320.201477,-317.260864,947.774292,335.404297,-382.98999,738.365906,395.957092,-375.529572,740.495544,384.354584,-305.441345,740.474854,328.219299,-311.431854,742.169189,188.194321,118.372787,764.349426,219.489441,118.403175,758.092529,241.750015,120.844528,752.478882,117.510574,74.907845,764.974976,148.003189,61.310291,758.849609,180.873795,53.849529,751.620361,140.913147,130.641617,773.257935,128.445267,159.625046,763.549255,92.761703,140.668839,772.865601,29.723907,136.566116,785.917358
00133_color_1715720061.058550.png,977,1715720061.0630732,624.088135,615.076355,933.460999,669.520569,668.652405,930.16925,685.326111,623.778259,957.096924,654.905029,567.908447,943.749023,639.877563,535.538635,938.959534,614.022095,514.958801,943.933899,572.034485,563.359802,921.827454,553.489014,548.19104,906.098022,538.572266,527.709045,888.471191,,,,,,,,,,352.721252,-386.227386,946.654114,413.777527,-379.353149,949.189819,404.209778,-310.597321,948.042175,343.614014,-319.206879,948.028687,357.965393,-385.061005,738.63855,418.610992,-378.038818,740.594299,407.821014,-308.048187,740.552917,351.517914,-313.424835,742.427368,188.445847,118.356674,764.253174,219.735672,118.389267,758.051392,241.98259,120.786003,752.45459,117.707138,74.339302,764.529846,148.203812,61.207516,758.801147,181.088821,54.000141,751.850708,141.120773,130.654648,773.284119,128.631378,159.36528,763.263977,92.939651,140.60257,772.807739,29.914831,136.291397,785.836548
00134_color_1715720061.092639.png,980,1715720061.0930731,625.394592,605.277527,928.765869,670.81958,658.925232,923.92334,686.980164,614.65802,951.639404,656.547241,558.659546,939.923828,641.963867,526.041504,936.203247,616.425293,505.125153,942.183777,573.56543,552.90863,918.8078,555.079041,537.189697,903.593872,540.111694,516.161377,886.632324,,,,,,,,,,368.869812,-387.569092,946.872192,429.779663,-381.050934,949.174011,421.036926,-312.473938,947.884644,360.098083,-320.52887,948.262451,374.076202,-386.406494,738.782288,434.879303,-379.954712,740.676514,424.447723,-309.810272,740.664429,368.082733,-314.882782,742.495911,188.662003,118.316757,764.165222,219.972977,118.390678,758.026917,242.200363,120.81311,752.438477,117.938431,74.170845,764.398315,148.458847,60.957439,758.65033,181.330643,53.861366,751.830994,141.499985,130.6353,773.402405,128.791885,159.251205,763.286926,93.087852,140.378662,772.777039,30.103474,135.862289,785.865295
00135_color_1715720061.126935.png,983,1715720061.123073,627.391174,595.960266,923.692078,672.332275,650.122009,917.220764,689.332703,606.504395,945.337402,659.706543,549.759216,935.180664,645.434387,517.312195,932.923828,620.557434,495.781677,939.471191,576.23114,542.53125,915.394409,557.908997,526.188232,900.697327,543.235413,504.605713,884.226868,,,,,,,,,,384.85672,-388.910248,946.946716,445.708038,-382.147522,949.309265,437.264404,-314.551483,947.834839,375.877686,-321.90097,948.310852,390.00058,-387.785645,738.83252,450.637054,-380.920532,740.773682,439.918182,-310.935181,740.902588,383.609711,-316.259094,742.693726,188.890045,118.305069,764.102051,220.194443,118.37397,757.962219,242.424683,120.838669,752.441467,118.175835,73.95401,764.260864,148.675568,60.755741,758.559265,181.601273,53.675518,751.822571,141.703796,130.295822,773.090759,128.964188,159.082733,763.288635,93.257301,140.16597,772.794678,30.319237,135.348724,785.949341
00136_color_1715720061.160978.png,987,1715720061.163073,630.529968,584.665833,916.337097,674.225708,639.608643,907.36908,692.934875,596.494751,935.311768,664.779297,539.703979,927.619873,651.80426,506.006195,926.32666,627.630249,484.213806,934.38147,580.867126,529.293091,910.575806,563.014221,511.967896,896.572449,548.892822,489.440033,880.665283,,,,,,,,,,403.20047,-391.009064,947.276245,464.243927,-385.496155,949.43042,456.916779,-316.895996,948.281006,395.747284,-323.471436,948.63269,408.44516,-389.708557,739.062134,469.359344,-384.250549,740.980469,460.066742,-313.959412,741.010498,403.606812,-318.13089,742.847229,189.095657,118.474754,764.218872,220.443481,118.499222,757.943787,242.671341,120.86364,752.442017,118.429283,73.815224,764.184326,148.92482,60.6068,758.517761,181.851517,53.493637,751.700378,141.929733,130.204666,773.06958,129.142853,158.941101,763.276611,93.412361,139.72142,772.60675,30.550554,134.797562,786.077209
00137_color_1715720061.194718.png,990,1715720061.193073,632.79303,577.219177,910.477295,674.897217,632.946106,899.213135,695.096619,590.207825,926.860962,668.554626,533.146545,920.881348,656.53009,499.134247,920.512512,633.281555,476.676025,929.817261,584.478088,520.258911,907.187683,567.035461,502.074249,893.787048,553.361633,479.067719,878.52832,,,,,,,,,,416.109375,-392.417725,947.112061,477.145355,-388.064514,949.545105,470.808075,-319.319916,948.350098,409.647003,-325.145569,948.696472,420.983215,-391.250427,739.135376,481.974945,-387.251648,741.034241,473.917145,-316.601349,741.085083,417.476196,-319.529633,742.992004,189.270309,118.518906,764.162781,220.648514,118.682198,757.9646,242.828232,120.936211,752.425476,118.71875,73.405159,763.802734,149.100952,60.50563,758.479187,182.046265,53.41869,751.659241,142.101761,130.100266,772.98468,129.242554,158.877518,763.30896,93.523056,139.537292,772.585388,30.696936,134.346252,786.162354
00138_color_1715720061.228842.png,994,1715720061.233073,635.077148,569.816833,903.80542,674.686829,625.931519,888.398621,697.147583,583.538452,914.708496,673.165527,526.852783,911.555298,661.661499,492.291168,912.348694,639.976196,468.955963,923.418335,588.632507,510.941864,904.998413,571.420654,491.815338,892.727783,558.182861,467.862244,878.300476,,,,,,,,,,431.612396,-393.852051,947.317566,492.664459,-390.855408,949.500305,487.832001,-321.868347,948.479858,426.590149,-326.410431,948.886841,436.296204,-392.79303,739.211487,497.966248,-391.505646,741.524048,490.813629,-319.324066,741.133606,434.218628,-321.074738,743.205322,189.448502,118.304703,763.893311,220.68396,118.754295,758.033752,242.947937,120.973602,752.419067,118.860222,73.232048,763.657104,149.359329,60.033627,758.050659,182.206741,53.325356,751.631775,142.234055,129.996765,772.92688,129.324951,158.76088,763.326904,93.6064,139.295563,772.567139,30.833523,133.764206,786.34552
00139_color_1715720061.263167.png,997,1715720061.263073,635.277039,566.550171,898.64447,673.283691,622.566711,880.631714,697.3349,579.842773,905.184509,674.27655,523.59021,904.310791,663.158569,488.919769,906.187195,642.325562,465.468536,918.710388,589.807068,506.556091,902.749695,572.600281,486.940491,891.337891,559.031555,462.840698,877.814392,,,,,,,,,,441.205414,-394.588379,947.428589,502.348846,-392.67514,949.67218,498.558044,-323.579437,948.610596,437.202972,-327.189331,948.898682,445.80777,-393.662506,739.335999,506.142792,-390.776733,740.754456,501.514435,-321.048523,741.168213,444.848785,-321.863892,743.276062,189.492859,118.30928,763.84314,220.736862,118.811272,758.075378,243.122742,121.326591,752.568787,118.90094,73.244507,763.620667,149.342575,60.19199,758.204407,182.221298,53.034153,751.412537,142.280975,129.910233,772.84198,129.346252,158.733109,763.317566,93.619324,139.201263,772.526306,30.568176,134.095459,786.697571
00140_color_1715720061.297166.png,1000,1715720061.2930732,635.11377,563.808228,891.778076,671.663147,618.584167,869.985413,696.486145,577.029175,894.813416,674.071777,521.572021,896.194092,663.12616,486.770416,899.383362,642.846436,463.827637,913.588196,589.780212,504.196777,899.728333,571.961548,484.595947,889.542114,557.899353,460.19989,876.631348,,,,,,,,,,449.740112,-395.030243,947.603333,510.970245,-393.516663,949.669434,507.514465,-324.359497,948.601685,446.13739,-327.560577,949.087219,454.184509,-394.193512,739.413086,514.686401,-391.819305,740.793335,510.335938,-321.976471,741.201172,453.631683,-322.49884,743.300781,189.474747,118.345482,763.823669,220.76384,118.938927,758.239136,242.929077,121.17997,752.649475,118.893578,73.265396,763.60968,149.355957,60.186104,758.185486,182.301743,53.205776,751.489014,142.345474,129.835281,772.718872,129.349411,158.778702,763.31897,93.595596,139.138611,772.509644,30.766558,133.455795,786.554443
00141_color_1715720061.331285.png,1004,1715720061.3330731,634.350769,561.319885,882.594299,668.051758,615.481689,857.496216,694.986694,572.940369,879.239685,673.54425,518.578003,883.064087,662.106628,484.449921,888.504028,642.939819,461.767029,904.661926,589.8396,501.707855,894.776428,571.690796,481.539581,885.96637,556.67804,457.151489,874.096985,,,,,,,,,,460.169495,-395.227325,947.609436,521.18396,-393.340302,949.792175,517.57428,-324.253143,948.693604,456.24649,-327.737549,949.0755,464.607971,-394.329376,739.423035,525.016724,-391.477478,740.728699,520.405273,-321.825897,741.232788,463.745819,-322.670502,743.38623,189.499313,118.361694,763.822815,220.775284,118.647736,757.846741,242.951355,121.067162,752.49762,118.898125,73.244621,763.551636,149.358643,60.130821,758.119507,182.286438,53.093727,751.422546,142.368881,129.802948,772.676025,129.351685,158.767838,763.335693,93.479164,139.283066,772.630676,30.757381,133.148376,786.618896
00142_color_1715720061.365424.png,1007,1715720061.363073,634.154358,559.534973,875.812744,665.634216,612.841003,847.939697,693.841248,569.637207,867.411926,672.518005,516.057678,872.946228,661.26593,482.037506,879.374207,642.543884,460.1185,897.293701,590.013184,500.069214,890.57666,571.200134,480.028717,882.710693,555.452576,455.84552,871.454956,,,,,,,,,,466.683502,-395.124786,947.578491,527.783142,-393.00235,949.767395,523.731262,-323.934937,948.723328,462.61203,-328.33316,949.14325,471.137573,-394.360748,739.556641,531.570801,-391.373199,740.99231,526.531616,-321.50412,741.349792,469.852844,-322.618011,743.436584,189.526978,118.355049,763.814453,220.790848,118.684853,757.85968,242.994156,121.079941,752.497009,118.931595,73.27166,763.542908,149.416443,60.098499,758.099365,182.349731,53.033234,751.348267,142.30748,129.958481,772.844482,129.299576,158.561584,763.100342,93.539894,139.156845,772.574829,30.753548,133.026535,786.636658
00143_color_1715720061.399561.png,1011,1715720061.403073,635.672729,556.451843,865.345154,664.93811,607.723511,834.0177,693.579834,564.362732,851.657227,672.598267,512.58606,860.448975,660.32666,479.122223,868.902283,642.560547,458.192963,888.860901,591.062134,498.632996,885.111084,571.22998,478.91626,878.732239,553.673401,455.561493,869.029846,,,,,,,,,,473.740997,-395.145874,947.662903,534.856873,-392.648254,949.855408,530.290771,-323.529938,948.708435,469.160248,-328.263184,949.04895,478.122345,-394.352905,739.616882,538.498596,-390.778595,740.925964,532.993347,-321.110413,741.330078,476.303101,-322.61145,743.447083,189.69165,118.442505,763.822449,220.969574,118.709541,757.8573,243.138977,121.078842,752.468018,119.030106,73.52121,763.634949,149.57132,60.179379,758.151001,182.476349,52.991196,751.352234,142.529114,129.981049,772.679321,129.49231,158.95108,763.311646,93.650017,139.241089,772.546143,30.87302,133.030197,786.645752
00144_color_1715720061.433569.png,1014,1715720061.433073,639.108398,553.792969,857.821289,666.340698,603.359009,823.950195,695.2854,559.257263,839.566284,674.324646,509.171722,851.053101,661.653198,476.002899,861.288086,643.918884,456.593964,883.172241,594.142944,497.587433,881.184021,573.263306,478.350372,876.029114,554.776306,455.313782,866.783997,,,,,,,,,,477.808868,-395.434387,947.681824,538.890381,-392.528748,949.860535,533.95166,-323.500946,948.685791,472.834351,-328.458527,949.173279,482.13562,-394.652527,739.602539,542.429565,-390.696411,740.947083,536.586914,-320.972839,741.32843,479.925018,-322.911102,743.470276,189.818787,118.388031,763.687927,220.956818,118.888756,757.952881,243.230942,121.079521,752.435181,119.098244,73.556267,763.648804,149.554581,60.298622,758.220642,182.553589,52.970284,751.330017,142.607666,130.010941,772.6604,129.569077,158.970566,763.2995,93.723862,139.273148,772.535095,30.947781,132.989456,786.655212
00145_color_1715720061.467721.png,1017,1715720061.463073,645.092651,550.012146,849.909607,669.952576,598.044128,813.769592,698.87616,553.996948,827.930359,678.360718,504.623657,841.505127,664.953125,471.947723,853.367493,647.496216,454.511841,877.421814,600.452148,495.606995,877.248657,578.747986,476.483368,873.172974,559.482605,454.054016,864.492676,,,,,,,,,,480.933441,-395.847076,947.75708,542.008118,-392.835205,949.889465,536.898193,-323.754608,948.756042,475.743347,-328.98642,949.194946,485.155609,-395.153046,739.647522,545.42926,-390.884033,740.904602,539.294495,-321.232666,741.413452,482.809326,-323.419312,743.482239,189.874176,118.379143,763.667419,221.094742,118.772964,757.85907,243.275299,121.14286,752.467041,119.141739,73.617554,763.675659,149.607635,60.360939,758.243958,182.554642,53.005066,751.374207,142.633179,130.054382,772.653442,129.608368,159.018768,763.28186,93.746567,139.307739,772.499695,30.990278,133.022202,786.661621
00146_color_1715720061.502131.png,1021,1715720061.503073,658.535767,543.346924,839.516968,679.461426,589.57373,800.524475,708.870911,544.55658,811.571716,689.637268,497.343018,828.611511,675.977356,465.335266,842.814148,659.618469,448.843414,868.691345,614.830139,489.980225,871.202759,592.238708,471.334259,867.699768,571.927185,449.735535,859.051147,,,,,,,,,,483.641266,-396.334503,947.843079,544.77948,-392.754089,949.961548,539.035706,-323.807281,948.765137,477.968079,-329.356445,949.177002,487.76712,-395.427032,739.662109,548.069824,-391.028656,741.061707,541.420349,-321.302429,741.348694,484.800354,-323.925323,743.536011,189.814865,118.18589,763.505676,221.116684,118.79319,757.847534,243.314713,121.172455,752.474976,119.158485,73.691261,763.70166,149.606812,60.40564,758.263611,182.577225,53.006531,751.372864,142.60585,129.81955,772.342224,129.627762,158.742554,762.938293,93.77845,139.344849,772.491882,31.007879,133.04422,786.641357
00147_color_1715720061.536106.png,1024,1715720061.533073,673.021179,536.456726,831.205139,690.681763,581.574768,790.609924,720.228577,536.254822,799.607727,702.058716,488.962921,817.554443,689.084595,459.062561,834.811462,673.499695,442.818481,861.762329,630.649231,483.747589,866.017639,607.601074,465.188965,863.10321,586.760193,444.029877,854.463074,,,,,,,,,,485.138611,-396.982483,947.777893,546.151855,-392.614807,949.930908,539.625427,-323.663666,948.833374,478.614716,-330.127258,949.142944,489.470001,-396.178009,739.643066,549.597595,-390.627869,740.96051,542.061096,-321.192383,741.410767,485.596161,-324.599823,743.499023,189.867935,118.254021,763.461609,221.14386,118.82299,757.836365,243.33606,121.19136,752.484985,119.175301,73.771683,763.747375,149.618469,60.485119,758.288818,182.578842,53.03793,751.403442,142.629532,129.872421,772.316772,129.661209,158.836456,762.944702,93.793388,139.422531,772.447083,31.032452,133.187042,786.595947
00148_color_1715720061.570294.png,1028,1715720061.5730731,695.654358,524.829773,819.699707,710.10498,568.758484,777.86438,739.463501,522.81543,784.835449,722.506409,476.668335,804.200867,710.149048,447.932587,823.659058,695.015381,432.161102,851.803833,654.630432,472.744202,857.46814,631.182312,454.479279,855.322083,610.057434,433.56424,846.347351,,,,,,,,,,486.52948,-398.258942,947.882385,547.354187,-392.364471,949.98761,539.19574,-323.625854,948.861023,478.376862,-331.441162,949.137268,490.878387,-397.253326,739.671936,551.123718,-390.614441,741.192383,541.704285,-321.022369,741.526794,485.384583,-325.862244,743.473267,189.956558,118.326782,763.407654,221.220718,118.8769,757.840454,243.421783,121.233009,752.479004,119.230469,73.951454,763.852295,149.693573,60.647789,758.388611,182.6259,53.112549,751.450623,142.779999,130.235916,772.543274,129.752762,159.271408,763.208496,93.877228,139.634933,772.431946,31.080341,133.372986,786.533325
00149_color_1715720061.604613.png,1031,1715720061.6030731,713.186279,514.042114,811.476379,726.707397,557.163452,768.983582,755.671448,510.764008,775.59082,738.778076,465.168274,795.657288,725.742615,436.518402,815.946533,710.584351,422.140106,845.047668,672.135498,462.452423,850.242493,648.462708,444.331268,847.882812,627.03479,423.766663,838.65271,,,,,,,,,,486.513733,-398.304932,947.870239,547.341003,-392.37207,949.977417,539.161926,-323.628418,948.838562,478.321259,-331.489014,949.128601,490.874969,-397.296204,739.658264,551.145203,-390.707581,741.211731,541.668518,-321.026062,741.520081,485.331177,-325.896759,743.491394,189.957764,118.298805,763.345276,221.260635,118.862427,757.795959,243.462967,121.243729,752.473816,119.278648,73.993492,763.854065,149.716873,60.671791,758.384216,182.632263,53.09832,751.440918,142.813431,130.273804,772.525146,129.780762,159.307159,763.179749,93.906616,139.672455,772.399109,31.082876,133.387268,786.52063
00150_color_1715720061.639068.png,1035,1715720061.643073,735.034851,498.01767,804.527344,749.877808,539.60498,761.216614,778.278992,493.136169,769.310425,759.870972,448.098083,790.511292,745.322571,420.508484,811.417419,728.986267,407.497833,840.653564,691.957214,448.248016,843.617615,667.995911,430.385651,841.536194,646.312256,410.141815,832.122925,,,,,,,,,,486.496613,-398.281952,947.877441,547.32373,-392.397095,950.003052,539.124084,-323.644226,948.874573,478.301605,-331.484619,949.154358,490.835999,-397.305939,739.678772,551.160767,-390.72702,741.235107,541.635864,-321.029175,741.550354,485.319397,-325.897736,743.500977,189.924896,118.328781,763.347107,221.233643,118.876961,757.815491,243.436737,121.239227,752.478027,119.261635,74.012917,763.862793,149.713257,60.679966,758.397888,182.615829,53.122387,751.462463,142.791336,130.286438,772.518127,129.766663,159.314911,763.191833,93.886604,139.693756,772.411926,31.058506,133.417023,786.511047
00151_color_1715720061.672812.png,1038,1715720061.673073,750.259216,485.897064,803.383362,767.585388,526.850159,759.982849,795.656372,480.559052,769.977173,775.576477,436.10318,791.980896,759.920898,408.576141,812.351318,742.311279,396.478485,841.105164,705.002197,437.415344,841.978699,680.688538,420.294098,839.351562,658.942322,400.003082,830.020569,,,,,,,,,,486.479767,-398.300964,947.872192,547.30658,-392.400757,950.005066,539.102051,-323.646027,948.874207,478.287903,-331.509399,949.142395,490.833191,-397.320953,739.657837,551.198853,-390.777649,741.244324,541.654541,-321.038177,741.507507,485.310181,-325.905487,743.483459,189.918701,118.346672,763.304199,221.201218,118.880112,757.793274,243.518127,121.36956,752.679504,119.250748,74.017525,763.87146,149.690659,60.701389,758.383301,182.572418,53.1236,751.460571,142.78624,130.305023,772.48822,129.749939,159.332489,763.172729,93.878586,139.721008,772.403748,31.036072,133.42572,786.504822
00152_color_1715720061.707044.png,1041,1715720061.703073,766.057678,474.909943,806.126099,785.495483,516.041382,763.171753,813.275635,469.842285,774.00238,792.073608,425.490723,795.873596,775.415649,397.893677,815.518982,756.88916,385.985748,843.665955,718.89624,426.703888,842.730469,694.797546,409.619629,839.219177,672.985107,389.483185,829.849365,,,,,,,,,,486.454071,-398.303772,947.900024,547.280823,-392.393707,950.023621,539.103943,-323.641663,948.868896,478.266144,-331.513916,949.15033,490.809937,-397.303741,739.68042,551.187256,-390.790924,741.281372,541.648193,-321.053406,741.5047,485.299469,-325.906982,743.493286,189.911804,118.350395,763.317322,221.173615,118.906487,757.809082,243.416595,121.32888,752.591614,119.222069,74.047562,763.899902,149.660324,60.718159,758.399414,182.531387,53.161766,751.483643,142.768997,130.300262,772.482544,129.737427,159.322556,763.160034,93.859138,139.743088,772.416321,31.011623,133.465759,786.479614
00153_color_1715720061.741052.png,1045,1715720061.743073,787.849426,462.891724,814.050232,808.957153,505.349579,772.523132,836.488708,458.936951,782.479797,813.834045,413.568207,802.786438,796.878357,385.793701,821.767273,777.629578,373.323883,848.995911,739.720215,413.88147,848.274597,715.239868,396.970825,844.507385,693.620117,377.285095,834.005249,,,,,,,,,,486.455383,-398.325897,947.898193,547.272705,-392.389893,950.021118,539.089966,-323.658234,948.867676,478.250854,-331.513824,949.154236,490.797729,-397.319397,739.687317,551.186646,-390.766357,741.267944,541.639954,-321.055695,741.489441,485.278412,-325.909576,743.49176,189.855362,118.356544,763.260071,221.145187,118.956993,757.843079,243.376907,121.321922,752.569458,119.197884,74.142059,763.961182,149.635742,60.772915,758.435852,182.496384,53.17049,751.517944,142.761047,130.337708,772.445312,129.732712,159.364029,763.13562,93.883278,139.861252,772.398804,30.995245,133.707565,786.436584
00154_color_1715720061.775233.png,1048,1715720061.773073,803.512207,456.610992,821.344421,825.50061,499.939453,780.72937,852.760925,453.167603,789.961914,829.452087,407.593292,809.621094,812.318176,379.612396,827.751038,792.903503,366.751221,854.828674,754.915588,407.295624,854.488037,730.394958,390.56778,850.454895,708.704346,371.0336,839.470032,,,,,,,,,,486.441528,-398.320984,947.907837,547.275269,-392.384216,950.030762,539.080261,-323.664001,948.877686,478.242706,-331.520508,949.157288,490.801514,-397.318207,739.700073,551.259766,-390.87146,741.343994,541.610962,-321.025818,741.544556,485.275177,-325.911346,743.5177,189.850143,118.475906,763.354736,221.123581,118.97213,757.850891,243.368088,121.318604,752.577332,119.194138,74.21743,764.006836,149.621109,60.797298,758.473022,182.438843,53.152386,751.529541,142.714035,130.151093,772.155212,129.720306,159.114655,762.769348,93.926971,140.003448,772.385132,31.002535,133.994461,786.37323
00155_color_1715720061.809356.png,1052,1715720061.8130732,822.480408,451.652008,830.942444,845.623962,495.176331,790.757019,872.254639,447.972015,799.517578,847.916443,402.512939,818.966492,830.496277,374.9133,837.100342,810.482178,361.974762,863.664673,772.611694,402.930603,863.47937,747.929504,386.537018,859.032104,725.986572,367.649963,848.047852,,,,,,,,,,486.430908,-398.323944,947.90918,547.250061,-392.402863,950.034912,539.062866,-323.661011,948.892151,478.085846,-331.258423,949.249512,490.788269,-397.32312,739.686646,551.180176,-390.84024,741.311462,541.626648,-321.057892,741.522278,485.264832,-325.909973,743.511658,189.839951,118.520767,763.293518,221.150497,118.996254,757.833801,243.393646,121.354347,752.588196,119.220352,74.367752,764.131042,149.605988,60.914368,758.53656,182.399628,53.263996,751.646973,142.834534,130.495834,772.392334,129.801056,159.530167,763.071777,94.028618,140.293106,772.351379,31.021038,134.540619,786.204773
00156_color_1715720061.843570.png,1055,1715720061.8430731,834.90863,449.850525,836.953796,859.132385,493.106384,796.771545,885.305481,445.718109,805.599121,860.011475,400.531647,825.196838,841.689697,372.702698,842.986694,821.885498,360.53891,869.879517,784.389282,401.794952,869.205688,759.327148,385.972687,865.099731,736.834656,367.255981,854.336182,,,,,,,,,,486.425446,-398.322083,947.904358,547.247864,-392.388123,950.019958,539.640198,-324.773865,948.638916,478.076111,-331.251984,949.264526,490.769653,-397.315338,739.688843,551.232056,-390.837524,741.329224,541.595032,-321.01709,741.541199,485.259888,-325.898895,743.528137,189.882477,118.570541,763.268799,221.205292,119.014297,757.827881,243.455444,121.339653,752.585571,119.29451,74.525917,764.255127,149.595413,61.124073,758.678955,182.409317,53.294819,751.672913,142.934631,130.708618,772.489929,129.888504,159.627182,763.036499,94.127121,140.530319,772.320374,31.029119,134.946747,786.121582
00157_color_1715720061.878045.png,1058,1715720061.873073,846.154541,448.730591,841.598511,871.214355,491.769409,801.307434,896.788269,444.034088,809.591919,871.102478,400.29483,830.791504,852.187378,371.806091,847.419617,831.915527,359.615173,874.131531,794.820129,401.356476,873.912354,769.538696,386.074341,869.818848,746.81781,367.588928,859.053711,,,,,,,,,,486.426666,-398.325012,947.916199,547.247131,-392.387726,950.042664,539.124084,-323.68988,948.708435,478.068573,-331.238312,949.26123,490.770966,-397.311676,739.701477,551.180298,-390.818115,741.31189,541.595093,-321.023956,741.541626,485.260376,-325.90683,743.518982,189.958954,118.646301,763.239441,221.29158,119.050316,757.788879,243.545319,121.372818,752.592773,119.371048,74.710495,764.391602,149.675003,61.266388,758.775269,182.449188,53.382843,751.733276,142.982559,130.794815,772.332886,130.108307,160.02478,763.355469,94.266747,140.795914,772.309143,31.093964,135.398834,786.040588
00158_color_1715720061.911845.png,1062,1715720061.913073,859.701782,446.635742,844.815735,885.670959,489.847961,804.741028,910.398682,441.303772,811.953735,883.225708,397.201843,832.504211,864.519897,369.901062,850.095703,844.11731,357.636505,876.800415,807.656189,400.159912,877.062317,782.022766,385.32074,873.141541,758.720764,367.575958,862.335632,,,,,,,,,,486.414948,-398.30423,947.917358,547.617676,-393.489624,950.285095,539.118286,-323.690765,948.723206,478.069824,-331.246155,949.274536,490.775574,-397.319519,739.698792,551.15918,-390.834473,741.337097,541.588257,-321.018066,741.556458,485.266785,-325.899109,743.535889,189.947327,118.575401,763.203552,221.301926,119.003166,757.763306,243.552917,121.345505,752.597778,119.329247,74.716934,764.454956,149.641479,61.207504,758.763245,182.453629,53.341244,751.724304,142.985367,130.709457,772.31543,130.047348,159.724747,763.086975,94.328499,140.73526,772.35968,31.159035,135.514526,786.091431
00159_color_1715720061.946269.png,1065,1715720061.943073,869.046692,444.53241,845.735962,895.441833,487.597626,805.475708,919.508484,438.613251,811.993286,891.69458,394.747101,832.777649,872.255005,367.047333,849.890442,852.373596,355.701141,877.297058,816.440369,398.609528,878.20459,790.439697,384.155334,873.923279,766.910889,366.795715,862.829224,,,,,,,,,,486.420166,-398.309479,947.934998,547.143982,-391.969879,949.896729,539.138489,-323.711731,948.707153,478.069153,-331.251404,949.268005,490.764618,-397.304932,739.711243,551.173706,-390.817657,741.335022,541.600342,-321.026215,741.56488,485.248505,-325.904968,743.521545,189.924088,118.539909,763.204163,221.246796,118.975754,757.78064,243.502609,121.32502,752.625305,119.279381,74.677063,764.471252,149.594528,61.159294,758.745911,182.4216,53.353912,751.753418,142.953094,130.647263,772.321106,130.048355,159.676407,763.110291,94.369987,140.734726,772.519958,31.143343,135.65448,786.149231
00160_color_1715720061.980345.png,1069,1715720061.983073,880.388062,440.550385,844.978699,907.798828,483.051483,804.130188,930.974915,433.66449,810.616821,902.069031,390.421631,831.661926,882.409058,363.435211,849.438293,862.256531,352.003052,876.423645,826.998657,394.962494,877.003723,800.940308,381.271637,872.993042,776.981018,364.621948,861.905029,,,,,,,,,,486.405334,-398.313416,947.931274,547.137512,-392.007446,949.926208,539.131226,-323.734192,948.690979,478.059204,-331.27121,949.259094,490.761871,-397.298065,739.71759,551.201233,-390.860931,741.362122,541.580505,-321.02124,741.56311,485.249573,-325.915222,743.529724,189.93306,118.505493,763.197083,221.218216,118.934944,757.768738,243.490433,121.311707,752.635986,119.243912,74.633514,764.475098,149.551788,61.110493,758.724915,182.405716,53.318569,751.722107,142.97644,130.569687,772.283813,130.070465,159.630142,763.131531,94.408737,140.741364,772.586975,31.208918,135.85965,786.157776
00161_color_1715720062.014916.png,1072,1715720062.013073,888.166077,436.546844,843.112488,916.648132,478.638916,802.101807,939.05011,428.99765,808.97406,909.39624,386.245331,830.42926,889.087463,359.202332,847.621277,868.796997,348.689697,875.177795,834.081848,391.817841,875.195618,807.873169,378.33786,870.761719,783.890686,361.85498,859.639465,,,,,,,,,,486.424713,-398.333649,947.910339,547.153381,-392.012726,949.904419,539.129028,-323.716187,948.706299,478.05368,-331.256226,949.265808,490.76416,-397.314728,739.704224,551.179993,-390.843292,741.355774,541.579895,-321.029999,741.561157,485.240479,-325.898712,743.530457,189.898254,118.400375,763.161743,221.184555,118.86087,757.758972,243.45871,121.260132,752.652161,119.200645,74.510612,764.392273,149.492264,60.980652,758.6427,182.379898,53.263153,751.689819,142.930069,130.435852,772.294434,130.068802,159.531372,763.175354,94.407349,140.604446,772.644897,31.34955,135.743637,786.301575
00162_color_1715720062.049081.png,1076,1715720062.0530732,898.15448,430.235748,839.947083,928.235718,471.325562,798.466858,949.88678,421.592072,806.226685,919.008545,379.458466,828.19397,898.255676,353.71524,846.13623,877.195068,343.18103,872.789734,842.99585,386.574219,871.488586,816.521851,373.517059,866.744385,792.645935,356.862427,855.116577,,,,,,,,,,486.42334,-398.3349,947.916382,547.141907,-391.971741,949.894653,539.094604,-323.703094,948.738098,478.045807,-331.257202,949.282898,490.771759,-397.322906,739.712158,551.170898,-390.83429,741.350098,541.575867,-321.030151,741.570496,485.344849,-325.980194,743.352966,189.805954,118.365715,763.163574,221.067154,118.864433,757.796265,243.334488,121.261574,752.723755,119.08815,74.399567,764.33606,149.438705,60.93417,758.597534,182.303329,53.281528,751.723755,142.816162,130.355621,772.309631,130.029327,159.450195,763.20752,94.323418,140.451462,772.769653,31.145536,135.574814,786.528259
00163_color_1715720062.083610.png,1079,1715720062.0830731,905.121643,424.603027,837.26416,936.79718,465.421875,795.776245,958.067017,415.472687,804.174194,925.850464,373.648132,826.142395,904.560974,348.095123,843.738892,883.005981,337.893402,870.080078,848.90564,381.510956,867.687439,822.516846,368.566071,862.624573,798.655151,352.222443,850.596191,,,,,,,,,,486.411621,-398.351807,947.910278,547.140442,-391.996246,949.888977,539.099609,-323.721954,948.720459,478.047729,-331.282166,949.263794,490.773132,-397.33313,739.696716,551.199646,-390.8815,741.344849,541.571899,-321.026703,741.545898,485.434998,-326.219116,743.36676,189.711227,118.388893,763.17218,220.964844,118.896339,757.800781,243.251953,121.306915,752.740601,119.055435,74.35862,764.2724,149.401993,60.924438,758.570557,182.25264,53.298542,751.721436,142.730347,130.340866,772.305725,129.971649,159.408371,763.221436,94.205704,140.291534,772.85437,31.06081,135.290924,786.712463
00164_color_1715720062.117465.png,1082,1715720062.113073,911.315125,418.507141,834.595703,945.26825,459.593445,793.720825,965.974609,409.551849,802.233704,931.970703,367.596954,823.783752,910.106018,342.052246,840.285095,887.809082,331.754486,866.182678,853.783325,375.658752,863.03186,827.406006,362.773254,857.101562,803.703979,346.88739,844.53949,,,,,,,,,,486.40567,-398.343781,947.921387,547.140503,-391.972443,949.867859,539.137512,-323.752228,948.696655,478.051147,-331.288727,949.259949,490.766632,-397.327332,739.693298,551.113403,-390.780914,741.2948,541.551392,-321.003296,741.591431,485.45578,-326.25943,743.348389,189.713348,118.559883,763.325256,220.907043,118.944519,757.828552,243.195923,121.336777,752.756287,119.020866,74.329117,764.24292,149.396713,60.940807,758.563843,182.221558,53.313747,751.757629,142.682953,130.323212,772.352112,129.934326,159.40538,763.261108,94.110878,140.177856,772.977417,31.017656,135.001465,786.974487
00165_color_1715720062.151224.png,1086,1715720062.153073,918.243713,411.778809,830.57019,955.831604,452.792572,790.616638,975.850281,402.637604,799.970886,939.53418,361.683075,821.934082,916.316895,335.540192,836.653992,893.261597,325.706207,861.449951,858.972473,369.635345,856.288025,832.746521,357.041199,849.556396,809.192932,341.372742,836.487793,,,,,,,,,,486.411407,-398.351715,947.915771,547.151428,-391.982117,949.876709,539.155579,-323.74585,948.707275,478.071564,-331.275482,949.271729,490.785095,-397.329437,739.694153,551.187439,-390.856812,741.341797,541.59613,-321.087738,741.625854,485.496552,-326.312592,743.312988,189.675278,118.566444,763.273315,220.932938,118.999275,757.870911,243.221573,121.352676,752.77124,119.106331,74.647659,764.470825,149.437241,61.198151,758.725708,182.112823,53.44907,751.852417,142.707596,130.586868,772.443726,130.003586,159.659637,763.302185,94.216476,140.526291,773.127502,31.048599,135.283264,787.243774
00166_color_1715720062.185347.png,1089,1715720062.183073,923.37262,407.9935,826.992249,963.197937,448.376984,787.595093,982.729065,398.380371,798.121887,944.433838,357.067169,819.322144,920.756042,331.559143,833.82666,896.75769,322.472076,858.141113,862.837158,366.594818,851.315918,836.70105,354.375641,844.191956,813.271179,338.644989,830.85614,,,,,,,,,,486.408142,-398.345306,947.909668,547.153015,-391.969208,949.86731,539.143311,-323.761902,948.695496,478.058075,-331.292969,949.264954,490.779022,-397.327332,739.687927,551.169556,-390.856049,741.327576,541.616638,-321.099091,741.622498,485.487793,-326.312531,743.322876,189.590012,118.704895,763.342346,220.862,119.103638,757.914246,243.144333,121.384193,752.813721,119.048965,74.984779,764.724426,149.376663,61.551888,758.938782,181.922699,53.653103,751.964172,142.693207,130.857834,772.519897,130.015961,159.932953,763.319458,94.200813,140.922089,773.290771,30.973726,135.703156,787.440735
00167_color_1715720062.218799.png,1093,1715720062.223073,929.637817,402.993835,821.650452,972.206177,443.18045,783.265564,991.437683,393.180756,794.636902,950.859741,351.999298,814.957031,926.68042,326.797211,828.780457,902.097473,317.557678,851.966125,867.842346,361.825287,843.766357,841.792969,349.754639,835.816223,818.993164,333.851807,821.772583,,,,,,,,,,486.412476,-398.354431,947.923645,547.14679,-391.960052,949.86853,539.140137,-323.752472,948.703918,478.053619,-331.311096,949.255249,490.771851,-397.332428,739.703613,551.111145,-390.770172,741.294861,541.596436,-321.11026,741.649536,485.487732,-326.320557,743.322266,189.421967,118.644569,763.304688,220.644028,119.019547,757.869812,242.982025,121.350906,752.834412,118.882858,75.065506,764.796814,149.173401,61.603638,758.951904,181.694733,53.721035,751.952393,142.605011,130.895325,772.563904,130.010437,159.990601,763.392883,94.114723,141.019669,773.583862,30.827375,135.777557,787.781921
00168_color_1715720062.252851.png,1096,1715720062.253073,933.414185,399.135468,816.827698,978.089966,439.858398,779.688049,997.009705,389.859619,791.544922,955.026794,348.339172,810.796265,930.59082,323.096954,823.671021,905.531616,313.706512,846.171448,871.173279,357.515198,836.772766,845.489807,345.198792,828.120544,822.811035,329.463989,813.858643,,,,,,,,,,486.367584,-398.403259,947.927246,547.091553,-392.01828,949.884277,539.082764,-323.811981,948.695679,477.892822,-331.088806,949.299011,490.742737,-397.337891,739.704468,551.148743,-390.870728,741.348572,541.5625,-321.136932,741.65387,485.445679,-326.342621,743.3255,189.127563,118.721344,763.264038,220.350204,119.03801,757.816284,242.712021,121.357712,752.889587,118.603874,75.242767,764.861572,148.894531,61.729412,759.008179,181.360413,53.838131,751.992004,142.378723,130.871628,772.400879,129.829117,159.962875,763.158447,93.932304,141.267853,773.681763,30.59104,136.009689,787.865234
00169_color_1715720062.286627.png,1099,1715720062.283073,936.692566,395.760223,811.643555,983.19812,436.490784,775.409912,1001.899353,386.519897,787.939087,958.464905,344.755249,806.249634,933.648132,319.538605,818.184204,907.90387,310.062317,839.846313,873.822693,354.216003,829.223999,848.35553,341.904816,820.307922,826.150696,326.111145,805.290466,,,,,,,,,,486.391296,-398.373535,947.917664,547.131348,-391.980499,949.876831,539.115662,-323.753906,948.711426,478.117096,-331.499786,949.198059,490.747192,-397.320099,739.682617,551.004089,-389.909698,740.755127,541.587891,-321.108185,741.647583,485.468872,-326.325653,743.328064,188.733185,118.945946,763.185547,219.949341,119.125336,757.780945,242.310104,121.458023,752.932556,118.264931,75.468262,764.910706,148.531281,61.96944,759.071899,180.967072,54.019505,752.008057,142.062607,131.093002,772.381409,129.514145,160.200546,763.197205,93.681992,141.531876,773.741333,30.364922,136.321335,788.051819
00170_color_1715720062.320010.png,1103,1715720062.3230731,940.461975,391.0513,804.072449,988.634155,431.78949,769.190125,1007.079956,382.00531,782.815308,962.373108,340.091492,800.249817,937.204773,314.848541,811.34082,910.619507,305.491974,832.026794,877.006226,349.87088,819.953979,851.763916,337.465057,810.141846,830.085327,321.658844,794.35199,,,,,,,,,,486.54007,-398.362488,947.850708,547.279724,-391.949982,949.783752,539.265991,-323.713623,948.653442,478.32666,-331.52478,949.129395,490.902893,-397.318726,739.626526,551.2724,-390.775177,741.156677,541.699829,-321.097443,741.606628,485.612823,-326.300629,743.276794,187.954361,119.236191,762.810913,219.052872,119.330078,757.585449,241.482086,121.758293,752.934998,117.648567,75.772598,764.734924,147.922226,62.225864,758.920898,180.270966,54.307163,751.892883,141.393845,131.486267,772.510803,129.01239,160.66217,763.520508,93.236465,141.633621,774.036255,30.042847,136.111725,788.924316
00171_color_1715720062.353863.png,1106,1715720062.3530731,942.275635,387.015259,799.371094,991.554443,427.625641,764.799133,1010.056519,378.19043,779.349487,964.704468,335.869537,796.151672,939.423157,310.758728,806.849304,912.3573,301.188324,826.811096,878.700439,345.20285,813.612366,853.897949,332.540314,802.844788,832.882874,316.254669,786.665588,,,,,,,,,,486.768341,-398.249359,947.794739,547.513733,-391.755157,949.71521,539.243896,-322.997406,948.650391,478.603607,-331.437897,949.076843,491.124268,-397.180176,739.59845,551.58551,-390.821472,741.224731,541.915222,-321.00882,741.544739,485.839417,-326.203888,743.230164,186.541443,119.482361,762.0495,217.439255,120.069946,757.31366,239.866776,122.634521,752.917786,116.36718,75.886696,764.262451,146.664185,62.478531,758.577087,179.006454,54.741329,751.79071,140.054153,131.400711,772.102966,127.623405,160.752457,763.634277,92.094986,141.23732,774.540283,29.229572,135.188416,790.24823
00172_color_1715720062.387498.png,1109,1715720062.383073,943.569336,381.326721,794.937378,993.18457,422.329193,760.976746,1012.046326,373.210449,776.201843,966.457153,330.240692,792.289246,941.18335,304.459564,802.34613,913.462341,294.727844,821.441223,880.043579,339.236237,807.6297,855.473755,326.216736,796.659241,834.848083,309.748688,780.11145,,,,,,,,,,487.112152,-398.049408,947.723877,547.886292,-391.552002,949.678894,539.500916,-322.584717,948.793457,478.962097,-331.331207,949.083923,491.446747,-397.022919,739.651123,551.921265,-390.788147,741.263306,542.202637,-320.828491,741.529053,486.126343,-326.064087,743.236633,183.696213,120.336281,761.120911,214.437897,121.34153,756.786377,236.986755,124.284668,753.000488,113.943298,75.878273,763.764709,144.160767,62.75843,758.064453,176.523331,55.365997,751.686951,137.67395,131.449219,771.549316,124.793755,160.635162,763.539917,89.747902,140.854706,775.489502,27.334063,133.988144,792.067932
