mbdulkadiroglu/VisualAffordanceDataset/synchronized_frames_8.csv
RealSense_frame,Vicon_frame,Vicon_timestamp,RightHand1:Wrist1_X,RightHand1:Wrist1_Y,RightHand1:Wrist1_Z,RightHand1:Wrist2_X,RightHand1:Wrist2_Y,RightHand1:Wrist2_Z,RightHand1:Wrist3_X,RightHand1:Wrist3_Y,RightHand1:Wrist3_Z,RightHand1:Thumb1_X,RightHand1:Thumb1_Y,RightHand1:Thumb1_Z,RightHand1:Thumb2_X,RightHand1:Thumb2_Y,RightHand1:Thumb2_Z,RightHand1:Thumb3_X,RightHand1:Thumb3_Y,RightHand1:Thumb3_Z,RightHand1:IndexFinger1_X,RightHand1:IndexFinger1_Y,RightHand1:IndexFinger1_Z,RightHand1:IndexFinger2_X,RightHand1:IndexFinger2_Y,RightHand1:IndexFinger2_Z,RightHand1:IndexFinger3_X,RightHand1:IndexFinger3_Y,RightHand1:IndexFinger3_Z,Pringles:Corner1_X,Pringles:Corner1_Y,Pringles:Corner1_Z,Pringles:Corner2_X,Pringles:Corner2_Y,Pringles:Corner2_Z,Pringles:Corner3_X,Pringles:Corner3_Y,Pringles:Corner3_Z,Pringles:Corner4_X,Pringles:Corner4_Y,Pringles:Corner4_Z,Pringles:Corner5_X,Pringles:Corner5_Y,Pringles:Corner5_Z,Pringles:Corner6_X,Pringles:Corner6_Y,Pringles:Corner6_Z,Pringles:Corner7_X,Pringles:Corner7_Y,Pringles:Corner7_Z,Pringles:Corner8_X,Pringles:Corner8_Y,Pringles:Corner8_Z,LeftHand1:IndexFinger1_X,LeftHand1:IndexFinger1_Y,LeftHand1:IndexFinger1_Z,LeftHand1:IndexFinger2_X,LeftHand1:IndexFinger2_Y,LeftHand1:IndexFinger2_Z,LeftHand1:IndexFinger3_X,LeftHand1:IndexFinger3_Y,LeftHand1:IndexFinger3_Z,LeftHand1:Thumb1_X,LeftHand1:Thumb1_Y,LeftHand1:Thumb1_Z,LeftHand1:Thumb2_X,LeftHand1:Thumb2_Y,LeftHand1:Thumb2_Z,LeftHand1:Thumb3_X,LeftHand1:Thumb3_Y,LeftHand1:Thumb3_Z,LeftHand1:Wrist1_X,LeftHand1:Wrist1_Y,LeftHand1:Wrist1_Z,LeftHand1:Wrist2_X,LeftHand1:Wrist2_Y,LeftHand1:Wrist2_Z,LeftHand1:Wrist3_X,LeftHand1:Wrist3_Y,LeftHand1:Wrist3_Z,LeftHand1:Wrist4_X,LeftHand1:Wrist4_Y,LeftHand1:Wrist4_Z,Realsense:Camera1_X,Realsense:Camera1_Y,Realsense:Camera1_Z,Realsense:Camera2_X,Realsense:Camera2_Y,Realsense:Camera2_Z,Realsense:Camera3_X,Realsense:Camera3_Y,Realsense:Camera3_Z
00237_color_1715971777.628502.png,1360,1715971777.633075,677.292847,180.476028,834.084961,731.163025,232.93338,795.491638,749.364746,181.617371,805.52655,688.918823,126.361282,817.361694,663.143066,95.894485,811.563049,634.543213,73.921402,813.538879,609.151611,148.299133,849.010681,579.880676,144.073624,847.932129,550.759033,135.817032,841.019714,441.31131,-510.841614,740.901733,394.485687,-512.861755,739.508484,383.234802,-439.337708,740.759216,449.220459,-439.546082,743.386047,449.885498,-506.661896,948.154541,389.364716,-511.051605,946.916138,384.062744,-441.502533,949.805542,449.006226,-442.215363,948.814575,195.062973,62.401314,761.966248,224.832413,56.892448,755.809631,247.261566,53.975685,751.527283,114.795143,37.546192,760.967651,136.943726,16.155375,754.384338,162.577866,-3.32102,747.063721,154.798691,84.763908,773.217957,149.932846,117.221886,764.508667,113.137894,105.046043,776.832092,47.667789,109.674927,791.275208,165.691177,985.962769,1494.13623,217.816788,980.968994,1516.428589,268.705078,993.86676,1498.808838
00238_color_1715971777.663728.png,1363,1715971777.663075,677.017944,181.17334,832.612793,730.877686,233.747437,794.378601,749.01593,182.236008,804.078369,688.506409,127.134117,815.698669,662.616882,96.630417,809.914856,633.943237,74.820587,811.906494,608.812073,149.191574,847.610596,579.50116,145.06662,846.563782,550.403625,136.835098,839.507812,456.772705,-512.733459,741.056458,410.078979,-514.696899,739.695557,398.763123,-441.231842,740.91394,464.571442,-441.446747,743.518555,465.168823,-508.659973,948.23114,405.002167,-512.988586,947.096558,399.71933,-443.359375,950.00061,464.629791,-444.320679,948.932373,195.053421,62.467056,761.977112,224.826691,56.9426,755.835938,247.266281,54.010815,751.541443,114.803322,37.597759,760.99469,137.016647,16.493793,754.647095,163.187943,-2.253298,747.585754,154.796585,84.875557,773.212524,149.917755,117.335999,764.496094,113.138756,105.426987,777.005981,47.687008,109.879509,791.154724,165.710403,985.958008,1494.129761,217.812271,980.972046,1516.434814,268.710327,993.894958,1498.833374
00239_color_1715971777.698878.png,1367,1715971777.703075,676.333374,181.89975,830.849976,730.400391,234.558289,792.99292,748.328186,182.693161,802.297119,687.567932,127.855659,813.565491,661.532104,97.627174,807.706543,632.742493,75.883202,809.361816,607.949036,150.054977,845.542419,578.645203,146.095291,844.428467,549.500549,138.035767,837.302979,474.05542,-515.190796,741.184326,427.368073,-517.025574,739.878662,416.2565,-443.440369,741.098145,482.160278,-443.905518,743.661194,482.671936,-511.23465,948.323486,422.481262,-515.312927,947.216064,417.459137,-445.705261,950.158325,482.407135,-446.954285,949.097778,195.067093,62.426331,761.960876,224.829773,56.926357,755.820923,247.272491,54.007042,751.526001,114.8134,37.580162,760.974121,137.003265,16.441122,754.62616,162.798981,-2.773239,747.528564,154.80455,84.956268,773.298828,149.891602,117.349747,764.532715,113.128922,105.394157,776.954651,47.673939,109.800461,791.064819,165.690765,985.979919,1494.14502,217.810471,980.973022,1516.435425,268.70639,993.880798,1498.826172
00240_color_1715971777.746422.png,1371,1715971777.743075,675.602783,182.381546,829.489807,729.983154,234.82338,791.931702,747.731201,183.160858,801.420471,686.761047,128.332016,812.196289,660.726868,98.092125,805.847107,631.849609,76.491371,807.505249,607.065674,150.641861,843.774414,577.702026,146.670258,842.428772,548.579224,138.818863,835.25177,487.854553,-516.776062,741.33429,440.952728,-518.533264,740.01355,430.092407,-445.04126,741.240723,495.97226,-445.715485,743.78894,496.44397,-512.757935,948.417908,436.188049,-516.902466,947.375549,431.324677,-447.33609,950.239502,496.21701,-448.659668,949.226624,195.079498,62.464542,761.965149,224.850235,56.938457,755.811951,247.279022,54.005501,751.510864,114.720688,37.375645,760.775269,136.782791,16.008787,754.29303,162.933426,-2.311592,747.386536,154.783051,84.98597,773.291992,150.148529,117.728264,765.017944,113.13958,105.409241,776.869324,47.685246,109.892876,790.988892,165.701263,985.967529,1494.13855,217.812805,980.971436,1516.432373,268.706482,993.88678,1498.820068
00241_color_1715971777.781358.png,1375,1715971777.783075,675.252502,182.296967,828.734497,729.689941,234.72818,791.173279,747.418152,182.932846,800.647949,686.563049,128.269073,811.551819,660.602661,97.846222,805.264526,631.739197,76.346848,806.847961,606.752136,150.462769,842.92395,577.405945,146.606415,841.511353,548.328918,138.603699,834.243591,497.676788,-518.049561,741.356628,450.97699,-519.655273,740.130859,439.960266,-446.190704,741.420105,505.930298,-446.746979,743.895508,506.264496,-513.905762,948.496582,446.197571,-518.105713,947.436157,441.14566,-448.509064,950.434937,506.069946,-449.732178,949.281189,195.140823,62.651588,762.123413,224.924255,57.06636,755.873291,247.314926,54.019466,751.512756,114.726898,37.35693,760.674133,137.013931,16.479731,754.621033,162.935165,-2.291853,747.370544,154.885971,85.430779,773.764771,150.008133,117.812996,764.929565,113.180595,105.49115,776.76416,47.772446,110.090271,790.86792,165.702927,985.960449,1494.138672,217.808945,980.96637,1516.435059,268.703766,993.880737,1498.820923
00242_color_1715971777.816850.png,1378,1715971777.813075,675.226379,181.757324,828.295349,729.536255,234.36557,790.778076,747.424561,182.605103,800.288269,686.733276,127.760246,811.199097,660.749329,97.377991,804.985718,632.00177,75.709373,806.52948,606.842834,149.779648,842.47821,577.559692,145.705307,841.148621,548.482727,137.710495,833.928162,502.655853,-518.676208,741.342896,455.968536,-520.440552,740.11853,444.920044,-447.001495,741.412659,510.827972,-447.527527,743.938049,511.295013,-514.267334,948.350159,451.130463,-518.784729,947.502869,446.240204,-449.251038,950.488525,511.056122,-450.803894,949.173584,195.184113,62.680618,762.121521,224.940445,57.005173,755.850891,247.347824,53.963097,751.492798,114.743073,37.327541,760.668518,137.005295,16.414881,754.58783,162.952744,-2.300946,747.367432,154.989563,85.60051,773.916565,150.042908,117.838737,764.894226,113.258667,105.564911,776.67041,47.873203,110.272499,790.782288,165.695099,985.961365,1494.133301,217.817444,980.96106,1516.435547,268.701904,993.869873,1498.829102
00243_color_1715971777.851495.png,1382,1715971777.853075,675.253662,180.572968,827.618103,729.389282,233.616058,790.417297,747.453796,181.819199,799.786499,686.91571,126.526146,810.351624,660.985046,96.171791,804.09845,632.03363,74.232986,805.23468,606.927429,148.41951,841.6521,577.607727,144.254135,840.288574,548.552185,136.064804,833.067139,506.208008,-519.15564,741.444458,459.557739,-520.995483,740.215698,448.451447,-447.461731,741.46051,514.328796,-447.954132,743.937683,514.640869,-514.192017,948.218079,454.744354,-519.22113,947.568237,449.742065,-449.72171,950.489807,514.571472,-451.183014,949.191284,195.216324,62.679871,762.138672,224.957077,56.931049,755.759399,247.363632,53.933601,751.474854,114.745583,37.355259,760.618225,137.038254,16.461819,754.61322,162.829941,-2.777082,747.516602,155.042053,85.726723,773.971191,150.106277,117.876472,764.846924,113.332825,105.660622,776.580444,47.951317,110.459763,790.707336,165.69838,985.967712,1494.121338,217.815964,980.967041,1516.43335,268.705688,993.868469,1498.826416
00244_color_1715971777.886424.png,1385,1715971777.883075,675.182251,179.734024,827.016479,729.108948,232.763199,789.615295,747.449097,181.398087,799.49939,687.046631,125.741196,809.744751,661.376953,95.19397,803.473633,632.589722,73.365746,804.842102,606.993103,147.285431,840.824951,577.671448,142.952835,839.416199,548.687561,134.732712,832.200806,506.78598,-519.189636,741.466614,460.07785,-521.003174,740.24054,449.018616,-447.466431,741.505615,514.718262,-447.971191,743.923096,515.248291,-514.053955,948.157471,455.286957,-519.341614,947.597961,450.260559,-449.865692,950.477173,515.059448,-451.051971,949.357727,195.24942,62.707745,762.136475,224.982056,57.015083,755.836182,247.38298,53.911789,751.471069,114.79068,37.437828,760.653381,137.068893,16.549629,754.657043,162.840652,-2.761521,747.547424,155.050415,85.537811,773.708252,150.144547,117.91835,764.83606,113.356895,105.737045,776.552612,47.988556,110.564278,790.666687,165.684418,985.975586,1494.13501,217.815063,980.963684,1516.430908,268.710907,993.881775,1498.828735
00245_color_1715971777.921124.png,1389,1715971777.923075,674.955811,178.68103,825.967896,728.85199,231.911789,788.782043,747.351562,180.723419,798.753296,687.182617,124.819847,808.842346,661.679443,94.245018,802.35022,633.033569,72.100159,803.569824,606.87561,146.002853,839.439087,577.676025,141.350174,837.981873,548.707275,132.857574,830.637695,506.790985,-519.177246,741.4729,460.068481,-521.001038,740.230774,448.990112,-447.502075,741.49054,514.698975,-447.990051,743.910278,515.223022,-513.978638,948.119202,455.274811,-519.345032,947.588318,450.248932,-449.865021,950.477661,515.048218,-451.058014,949.362427,195.24794,62.739136,762.153076,224.97464,56.938206,755.766113,247.37088,53.900738,751.458618,114.80407,37.44936,760.672363,137.070755,16.526934,754.648315,162.836868,-2.75163,747.536682,155.03508,85.681328,773.83551,150.13768,117.976143,764.820496,113.362541,105.768196,776.516113,48.003048,110.608955,790.640198,165.686371,985.969055,1494.137573,217.820343,980.958374,1516.424194,268.707947,993.864502,1498.818604
00246_color_1715971777.955514.png,1392,1715971777.953075,674.759827,178.084335,825.131165,728.62262,231.587723,788.19873,747.239319,180.414551,798.125,687.251953,124.291275,808.007751,661.785156,93.66185,801.351135,633.205566,71.434494,802.568665,606.685181,145.16243,838.408447,577.587524,140.461838,836.90271,548.630554,131.962158,829.512634,506.76532,-519.19696,741.481079,460.059998,-520.987244,740.243652,448.982086,-447.486267,741.494507,514.746216,-447.930817,743.951416,515.16333,-513.857666,948.105835,455.255737,-519.339233,947.602722,450.241455,-449.852264,950.477234,515.033508,-451.048523,949.348328,195.229233,62.771,762.169678,224.96701,56.956425,755.77002,247.365036,53.934608,751.494202,114.795822,37.479504,760.690002,137.103104,16.623953,754.698792,162.849503,-2.699755,747.589905,154.972107,85.401291,773.447998,150.129425,117.998398,764.828491,113.341461,105.80986,776.53241,47.979427,110.617889,790.660217,165.683823,985.98291,1494.149536,217.821884,980.962585,1516.42688,268.714905,993.882874,1498.826416
00247_color_1715971777.989852.png,1396,1715971777.993075,674.434326,177.875977,824.136475,728.267883,231.584702,787.49823,746.987244,180.191589,797.086975,687.106506,124.030388,807.004456,661.836792,93.524506,800.210815,633.323853,71.113724,801.438843,606.303467,144.573807,837.03125,577.276917,139.897751,835.593994,548.469482,131.280807,828.013733,506.762207,-519.185303,741.47052,460.048309,-520.989563,740.236938,448.988678,-447.507904,741.480042,514.709229,-447.964569,743.913025,515.171753,-513.788574,948.054321,455.27066,-519.353577,947.599609,450.246338,-449.872589,950.475342,515.05365,-451.068695,949.349976,195.231979,62.818771,762.187561,224.957748,56.991329,755.804504,247.381699,54.000908,751.531494,114.853065,37.535854,760.74292,136.891876,16.379223,754.618408,162.848557,-2.674362,747.620178,154.914215,85.314529,773.255676,150.241547,118.093124,764.919617,113.325699,105.866219,776.562378,47.967884,110.604805,790.698975,165.696777,985.961792,1494.139404,217.814072,980.965515,1516.431641,268.708344,993.878235,1498.823608
00248_color_1715971778.024776.png,1399,1715971778.023075,674.071716,178.069672,823.482788,727.871704,231.73819,786.79126,746.775696,180.49144,796.666931,686.786621,124.276398,806.357056,661.563477,93.746521,799.580017,632.812195,71.018013,800.332825,606.007812,144.757767,836.24353,577.005859,140.053833,834.785706,548.150208,131.39949,827.163818,506.771149,-519.227417,741.46814,460.066071,-521.001221,740.235046,448.999603,-447.506744,741.497253,514.698242,-447.989929,743.91748,515.162476,-513.621948,947.981262,455.267761,-519.365601,947.609436,450.24646,-449.884552,950.473938,515.052185,-451.077148,949.357788,195.22522,62.793514,762.17981,224.967026,56.99107,755.816589,247.37262,53.958958,751.537537,114.835678,37.503445,760.748047,136.875595,16.337854,754.619629,162.8452,-2.6785,747.646667,154.869324,85.147377,773.164368,150.135483,117.853638,764.667969,113.337326,105.814941,776.591614,47.971165,110.564407,790.747803,165.684174,985.968384,1494.144043,217.81839,980.970154,1516.44043,268.70575,993.869324,1498.825195
00249_color_1715971778.060592.png,1403,1715971778.063075,673.582092,178.598831,822.593628,727.414368,232.380493,786.047302,746.286499,181.060547,795.942505,686.374634,124.849876,805.686157,661.188416,94.4039,798.944153,632.674561,71.758034,800.008179,605.576782,145.410751,835.408997,576.468018,140.692062,833.93988,547.70105,131.966599,826.425476,506.773712,-519.197754,741.463013,460.066071,-521.006775,740.241394,448.992889,-447.492828,741.491089,514.710815,-447.967865,743.914795,515.092285,-513.385437,947.888489,455.27066,-519.345154,947.596497,450.24054,-449.873016,950.479553,515.0401,-451.066345,949.361633,195.207153,62.848038,762.200745,224.945816,57.031467,755.816528,247.338074,53.997299,751.572754,114.843414,37.593281,760.834534,136.887604,16.409739,754.691528,163.091827,-2.504476,747.866882,154.89946,85.252853,773.174316,150.079498,117.741951,764.440125,113.503784,105.940826,776.749451,47.973167,110.65229,790.789185,165.702194,985.964355,1494.139771,217.81105,980.967957,1516.439819,268.706329,993.875488,1498.827759
00250_color_1715971778.095571.png,1406,1715971778.093075,673.259705,179.102478,821.986328,727.098755,232.799423,785.530945,745.860107,181.612656,795.694153,686.000366,125.311989,805.211548,660.74762,94.620537,798.378357,632.295898,72.227692,799.492432,605.28479,145.868515,834.923889,576.121094,141.209808,833.348389,547.306702,132.501694,825.762817,506.776581,-519.201477,741.450256,460.076996,-521.012024,740.234314,449.003052,-447.513519,741.492188,514.71936,-447.981567,743.935791,515.220093,-513.521179,947.872253,455.276947,-519.393127,947.589355,450.24942,-449.873718,950.505676,515.049805,-451.083893,949.368042,195.219955,62.898003,762.23761,224.939529,57.044437,755.835144,247.357025,54.018105,751.594727,114.878998,37.613014,760.864502,136.965714,16.365046,754.699097,162.678467,-2.938992,747.384949,154.930695,85.272766,773.18866,150.080246,117.727608,764.431091,113.394798,105.778824,776.550598,47.970451,110.636223,790.851318,165.722321,985.945007,1494.126709,217.811813,980.966919,1516.437134,268.707489,993.870972,1498.832886
00251_color_1715971778.130486.png,1410,1715971778.133075,672.959656,180.030609,821.311218,726.742126,233.446793,784.59314,745.457031,182.353622,794.988037,685.671326,126.103622,804.525696,660.367004,95.272064,797.985657,631.637085,72.961365,798.912476,604.959412,146.767944,834.33313,575.874878,142.124756,832.780579,546.997437,133.47049,825.317566,506.784424,-519.212463,741.459167,460.079437,-521.017456,740.239502,449.009979,-447.508789,741.49939,514.716309,-447.988007,743.908447,515.339783,-513.605591,947.822693,455.284027,-519.371033,947.593445,450.258881,-449.889465,950.477783,515.038696,-451.086914,949.363159,195.219543,62.8269,762.221924,224.939941,57.009361,755.832458,247.352402,53.986248,751.578796,114.799088,37.406952,760.702026,136.776382,16.106113,754.449341,162.654892,-3.05811,747.292236,154.926697,85.085388,773.07489,150.088821,117.634575,764.417725,113.357384,105.686447,776.583252,47.971268,110.539574,790.946289,165.718216,985.952087,1494.118286,217.816208,980.967346,1516.43457,268.718384,993.877563,1498.830933
00252_color_1715971778.165436.png,1413,1715971778.163075,672.844299,180.687332,820.772949,726.519226,233.885666,783.843933,745.147766,182.940552,794.454346,685.578857,126.810013,804.311096,660.332031,96.085899,797.999695,631.89502,73.761253,799.783142,604.736267,147.535599,833.855347,575.712952,142.779877,832.419556,546.896606,134.149399,824.998169,506.789734,-519.207031,741.446594,460.070404,-521.03418,740.224731,449.009338,-447.500458,741.497314,514.725647,-447.979218,743.917908,515.647888,-515.212952,948.445862,455.2883,-519.382629,947.58728,450.256042,-449.87854,950.476135,515.053345,-451.070526,949.36853,195.220215,62.815174,762.210632,224.945969,57.017864,755.823975,247.355652,53.976215,751.571228,114.802696,37.437996,760.725769,136.77121,16.094786,754.428711,162.646301,-3.07428,747.258606,154.935364,85.053261,773.032593,150.115875,117.59774,764.391846,113.391647,105.67981,776.619934,47.982265,110.55439,790.996826,165.714951,985.951416,1494.124756,217.816345,980.965637,1516.429199,268.712433,993.85321,1498.804688
00253_color_1715971778.200442.png,1417,1715971778.203075,672.906433,181.938873,819.978149,726.060242,234.689392,782.723938,744.764954,183.756882,793.671143,686.027283,128.242325,804.943298,661.029663,97.50106,800.602112,633.24469,75.160553,805.177734,604.945007,148.617386,834.073486,575.949402,143.765915,832.748352,547.08905,135.018616,825.533752,506.790466,-519.187744,741.454651,460.075073,-521.013367,740.225586,449.017792,-447.512024,741.492981,514.73175,-447.979431,743.91626,515.65155,-515.219055,948.442627,455.293823,-519.396484,947.589233,450.267914,-449.880554,950.474548,515.06427,-451.087036,949.341858,195.24852,62.730007,762.221436,224.967361,56.912045,755.815857,247.388184,53.928059,751.54425,114.794243,37.308502,760.693054,136.775589,15.97492,754.371033,162.644745,-3.159539,747.183533,154.991913,84.929642,773.050476,150.145432,117.466667,764.436401,113.417755,105.514862,776.720886,48.113583,110.433998,791.14978,165.701691,985.965271,1494.13855,217.812897,980.970764,1516.430054,268.711548,993.859558,1498.808105
00254_color_1715971778.235472.png,1420,1715971778.233075,673.180847,182.958984,819.738525,725.710938,234.86763,781.558594,744.548828,184.193832,793.188721,686.463684,129.237976,805.812683,661.358215,98.399323,803.127502,633.629944,76.990967,809.441162,605.280579,149.459091,834.641235,576.305725,144.69841,833.437866,547.36554,135.893234,826.403809,506.801727,-519.204163,741.45636,460.080536,-520.999695,740.230164,449.018036,-447.492432,741.488831,514.728333,-447.991547,743.900269,515.652222,-515.206543,948.441345,455.286102,-519.379456,947.591187,450.270508,-449.898956,950.463562,515.06543,-451.069794,949.354187,195.276169,62.663204,762.227661,224.9785,56.869251,755.819153,247.375793,53.866428,751.529541,114.761589,37.220966,760.644287,136.908554,16.018074,754.294006,162.653854,-3.214093,747.131592,155.017014,84.850113,773.110352,150.1642,117.266487,764.370667,113.431625,105.372452,776.812683,48.05027,110.188004,791.099487,165.703751,985.94989,1494.123779,217.809174,980.972656,1516.43103,268.709351,993.882812,1498.823364
00255_color_1715971778.270243.png,1424,1715971778.273075,673.642578,183.525299,819.786621,725.645874,234.968048,781.037537,744.498901,184.432831,792.818115,686.875488,129.798416,806.339722,661.699646,99.166092,804.605408,633.998413,78.235435,812.173584,605.72644,150.076706,835.408997,576.723755,145.372925,834.293274,547.789856,136.597214,827.210876,506.800049,-519.199097,741.452454,460.07785,-520.999268,740.23822,449.016113,-447.528168,741.469727,514.73053,-447.972565,743.913452,515.647095,-515.211853,948.43866,455.290375,-519.364014,947.586426,450.268372,-449.899231,950.469788,515.065857,-451.078857,949.359253,195.285965,62.617012,762.23822,225.003662,56.849194,755.838196,247.39093,53.866756,751.542236,114.79792,37.16217,760.649231,136.796967,15.871197,754.300049,162.669266,-3.23536,747.130615,155.102234,84.96653,773.31012,150.172867,117.293968,764.501343,113.42926,105.320282,776.928284,48.045605,110.036636,791.193237,165.725952,985.956177,1494.130615,217.800674,980.970154,1516.430298,268.706451,993.874878,1498.818726
00256_color_1715971778.305037.png,1427,1715971778.303075,673.946838,183.643219,819.910522,725.647461,235.049194,780.90918,744.503418,184.337616,792.482361,687.132141,129.896652,806.382507,661.894348,99.281136,804.834839,634.215088,78.365173,812.581787,606.053711,150.100922,835.828247,577.015503,145.411011,834.694702,548.167908,136.79921,827.640747,506.820801,-519.190063,741.450867,460.098053,-520.996033,740.226929,449.02887,-447.493896,741.496338,514.735107,-447.998962,743.904724,515.671936,-515.166016,948.416504,455.302551,-519.391541,947.579285,450.28476,-449.911194,950.463013,515.061218,-451.121399,949.34375,195.334747,62.597221,762.262329,225.036148,56.856064,755.856079,247.433624,53.845615,751.548767,114.82795,37.150532,760.694824,136.829956,15.860286,754.317749,162.712204,-2.742976,747.525146,155.08902,84.993446,773.455505,150.198715,117.272552,764.545837,113.473305,105.270088,777.006226,48.056866,109.893555,791.290344,165.703415,985.963135,1494.135376,217.804413,980.971985,1516.437256,268.699799,993.8703,1498.818848
00257_color_1715971778.340145.png,1431,1715971778.343075,674.243896,183.82457,820.008606,725.679077,235.15744,780.697815,744.538635,184.489075,792.320618,687.398865,130.039291,806.463745,662.170898,99.539276,805.197327,634.621277,78.651855,813.275635,606.312622,150.184235,836.112305,577.270386,145.507919,834.757568,548.469421,136.854874,827.57019,506.813171,-519.207703,741.445251,460.096802,-520.999268,740.2229,449.016724,-447.509644,741.492737,514.739197,-447.994659,743.906494,515.662659,-515.19281,948.424866,455.299561,-519.4021,947.582275,450.276855,-449.904297,950.476379,515.070007,-451.099548,949.352295,195.330048,62.639019,762.312744,225.013565,56.864285,755.868347,247.427811,53.870972,751.560974,114.866005,37.18858,760.748108,136.850357,15.859383,754.353333,162.746155,-3.065252,747.299744,155.087387,85.026299,773.509338,150.203369,117.221275,764.492493,113.426277,105.242432,777.111389,47.981567,109.657555,791.396667,165.697205,985.965759,1494.13147,217.806534,980.972351,1516.433105,268.708679,993.859619,1498.819946
00258_color_1715971778.375197.png,1434,1715971778.373075,674.373657,183.853043,819.937134,725.753418,235.183517,780.581238,744.630554,184.675705,792.378113,687.497009,130.082123,806.350708,662.215637,99.561829,805.088928,634.64917,78.750107,813.202454,606.412964,150.202835,836.036011,577.387268,145.524017,834.608093,548.571838,136.861176,827.33844,506.82074,-519.207031,741.440369,460.101715,-521.018799,740.217651,449.028961,-447.504028,741.496155,514.740845,-447.998016,743.910217,515.677917,-515.208496,948.414307,455.317688,-519.408569,947.572144,450.290894,-449.911102,950.469666,515.076843,-451.100708,949.355652,195.339081,62.628902,762.324707,225.038574,56.852737,755.867981,247.443665,53.841339,751.561523,114.910728,37.188389,760.782227,136.868805,15.846502,754.362,162.753357,-3.091457,747.28125,155.085052,84.956306,773.505493,150.226028,117.338562,764.639282,113.422203,105.206284,777.18457,47.935989,109.49041,791.49408,165.708267,985.959778,1494.127075,217.805954,980.961975,1516.428711,268.701263,993.846558,1498.795776
00259_color_1715971778.410648.png,1438,1715971778.413075,674.429077,183.678619,819.686096,725.904236,235.084442,780.496216,744.755066,184.57135,792.219116,687.478821,129.898697,805.83429,662.092896,99.430664,804.349243,634.380066,78.682808,812.216248,606.382019,150.122696,835.481812,577.360229,145.461349,833.901978,548.514038,136.669907,826.352844,506.826111,-519.204529,741.434143,460.101837,-521.012085,740.211121,449.022949,-447.510345,741.486206,514.744568,-447.990753,743.89856,515.677002,-515.208862,948.405945,455.323547,-519.42157,947.574524,450.291321,-449.910278,950.485413,515.072388,-451.085663,949.364502,195.332169,62.644764,762.343262,225.015717,56.847504,755.897705,247.425827,53.872002,751.589478,114.907768,37.194649,760.774109,136.860214,15.8689,754.378662,162.718475,-3.137285,747.22821,155.060043,85.01519,773.614624,150.216232,117.34024,764.675537,113.348503,105.173775,777.296997,47.802761,109.162514,791.597473,165.703842,985.954773,1494.125977,217.803482,980.972961,1516.427612,268.70816,993.854309,1498.807007
00260_color_1715971778.445296.png,1441,1715971778.443075,674.472412,183.582535,819.407654,725.939453,235.025436,780.311523,744.797791,184.497894,792.010376,687.475586,129.805283,805.517517,662.127686,99.380753,803.975403,634.349854,78.552956,811.715759,606.325378,149.980194,835.075745,577.336548,145.32692,833.393066,548.523071,136.605698,825.868958,506.80603,-519.22699,741.43866,460.087341,-521.0177,740.210571,449.040833,-447.519104,741.478516,514.742981,-447.99057,743.893127,515.682434,-515.232666,948.42218,455.302673,-519.406494,947.573547,450.291656,-449.904846,950.468262,515.058899,-451.107758,949.351013,195.316437,62.66769,762.35083,225.010742,56.882805,755.918396,247.412903,53.908432,751.612976,114.88179,37.190536,760.745728,136.848877,15.878044,754.359741,162.700623,-3.165769,747.209412,155.061813,85.068977,773.617554,150.192963,117.291733,764.598877,113.233429,105.097626,777.306274,47.664398,108.778748,791.63678,165.68132,985.967834,1494.143555,217.81427,980.975952,1516.428833,268.712433,993.882751,1498.830933
00261_color_1715971778.479918.png,1445,1715971778.483075,674.569946,183.469131,819.168762,726.023315,234.915222,780.115601,744.912903,184.419022,791.863281,687.615601,129.673157,805.357727,662.266785,99.274887,803.863708,634.498474,78.488876,811.629089,606.388733,149.843674,834.837646,577.443054,145.139893,833.113281,548.628906,136.487289,825.65918,506.823669,-519.217346,741.443054,460.099274,-521.003479,740.222107,449.034088,-447.522369,741.471619,514.739563,-447.989868,743.897583,515.681396,-515.232422,948.430542,455.312256,-519.4021,947.569153,450.297333,-449.909515,950.468994,515.074036,-451.091217,949.360901,195.284439,62.720245,762.36853,224.992767,56.92873,755.929321,247.399963,53.964401,751.658447,114.87693,37.156986,760.698364,136.869736,15.892813,754.354309,162.691971,-3.156617,747.203003,155.042328,84.974998,773.461304,150.141907,117.388275,764.72522,113.078781,104.982353,777.32489,47.446217,108.128555,791.689636,165.68248,985.983093,1494.148438,217.815704,980.972656,1516.43396,268.712036,993.876587,1498.824097
00262_color_1715971778.514822.png,1448,1715971778.513075,674.691467,183.333679,819.147705,726.138733,234.799866,780.127014,745.010925,184.310715,791.852112,687.700073,129.481903,805.278381,662.323608,99.185402,803.759949,634.536377,78.38028,811.482361,606.490173,149.737808,834.830139,577.538208,145.029129,833.120239,548.73407,136.359985,825.643799,506.823944,-519.229187,741.438721,460.101318,-520.998291,740.21936,449.028381,-447.513031,741.490601,514.828064,-447.955444,743.935852,515.678833,-515.227234,948.418945,455.325958,-519.405212,947.579224,450.293152,-449.925598,950.461548,515.061523,-451.153381,949.317749,195.292816,62.712029,762.354126,224.999542,56.912483,755.924988,247.415985,53.947639,751.63562,114.888107,37.104118,760.61322,136.90036,15.824575,754.305847,162.778946,-3.180428,747.172302,155.005844,84.855858,773.382874,150.151779,117.335732,764.718933,113.029198,104.83033,777.357239,47.31905,107.606804,791.749939,165.678268,985.980591,1494.14978,217.813019,980.975281,1516.434814,268.714966,993.886841,1498.829102
00263_color_1715971778.549968.png,1452,1715971778.553075,674.728821,183.232071,819.184387,726.237366,234.725006,780.231506,745.100525,184.237213,791.942017,687.769348,129.371857,805.301819,662.360474,99.084503,803.763,634.609314,78.251404,811.458008,606.529358,149.64566,834.800537,577.566528,144.886597,833.044067,548.775269,136.208206,825.565552,506.837311,-519.201782,741.440857,460.113434,-521.002075,740.228943,449.04895,-447.516663,741.472717,514.781677,-447.959595,743.910339,515.709229,-515.204407,948.425476,455.321472,-519.406189,947.585327,450.309967,-449.913452,950.463135,515.087097,-451.093628,949.354431,195.3228,62.752457,762.281982,225.020477,56.94408,755.899719,247.445694,53.996071,751.661621,114.933807,37.056568,760.534668,136.964584,15.785835,754.272156,162.888626,-3.165158,747.193909,155.005295,84.841011,773.27533,150.134094,117.318542,764.674316,113.006531,104.737701,777.295593,47.305759,106.979004,791.792969,165.699997,985.964172,1494.139038,217.813782,980.980835,1516.431152,268.706726,993.874756,1498.824341
00264_color_1715971778.586681.png,1455,1715971778.583075,674.65625,183.198547,819.16626,726.280945,234.67627,780.261108,745.110168,184.187363,791.966125,687.735718,129.359314,805.305969,662.360901,99.070641,803.757935,634.617432,78.209595,811.409607,606.432556,149.613113,834.656067,577.475403,144.863968,832.843079,548.708862,136.198441,825.308472,506.850647,-519.188477,741.444214,460.107788,-521.022827,740.215149,449.044891,-447.519104,741.486389,514.774292,-447.973145,743.922302,515.703491,-515.175598,948.40155,455.330505,-519.420044,947.574646,450.31134,-449.917694,950.473572,515.086426,-451.105408,949.360046,195.251785,62.778652,762.189819,224.985458,56.988667,755.874023,247.406647,54.003712,751.653076,114.927917,37.027256,760.485535,136.95047,15.765652,754.249084,162.862869,-3.178616,747.182251,154.947601,84.924431,773.254639,150.087646,117.33342,764.654724,112.940697,104.671623,777.249268,47.207008,106.517822,791.87915,165.702911,985.956787,1494.124756,217.811584,980.971069,1516.438721,268.706451,993.859558,1498.828125
00265_color_1715971778.622815.png,1459,1715971778.623075,674.555908,183.145844,819.018127,726.280518,234.606293,780.224304,745.077698,184.110825,791.931458,687.624878,129.298981,805.179138,662.264771,99.033928,803.606995,634.487,78.167763,811.210449,606.267273,149.583267,834.398621,577.317017,144.880386,832.584167,548.568542,136.245071,825.033203,506.849457,-519.192566,741.441467,460.130432,-521.015686,740.217712,449.053894,-447.51413,741.482483,514.752136,-447.973267,743.908691,515.707642,-515.19281,948.40094,455.341766,-519.410339,947.568787,450.31015,-449.915588,950.476196,515.088989,-451.10025,949.365112,195.124252,62.898888,761.986694,224.917084,57.094555,755.801758,247.326324,54.084454,751.681091,114.89727,37.014717,760.359131,136.946487,15.826405,754.211243,162.902283,-3.146677,747.189087,154.843079,85.215118,773.290161,150.003006,117.38147,764.541016,112.857361,104.61245,777.001343,47.156693,105.782272,791.938721,165.696335,985.970764,1494.141602,217.811325,980.967041,1516.432861,268.704102,993.872742,1498.834229
00266_color_1715971778.657362.png,1462,1715971778.653075,674.475952,183.08606,818.931091,726.264282,234.568176,780.210754,745.028931,184.045593,791.896851,687.508667,129.259384,805.059387,662.107117,98.955856,803.416687,634.304016,78.069717,810.901428,606.151184,149.525818,834.224426,577.202454,144.843063,832.391724,548.444397,136.230209,824.836731,506.831879,-519.197144,741.424622,460.108704,-521.015137,740.2099,449.055023,-447.526123,741.473145,514.757996,-447.973175,743.914856,515.712036,-515.195312,948.403564,455.334229,-519.420654,947.580017,450.306458,-449.923492,950.466614,515.093445,-451.100952,949.353149,195.055496,62.99202,761.893127,224.87262,57.149239,755.779175,247.286652,54.159473,751.723816,114.887306,36.924938,760.160706,137.015457,15.72573,754.114868,163.130951,-3.066483,747.215393,154.75296,85.166481,773.133606,149.830688,117.318916,764.478333,112.682854,104.399033,776.762329,47.089062,104.856552,792.02594,165.699142,985.960693,1494.122559,217.813507,980.964355,1516.436279,268.716217,993.871094,1498.838867
00267_color_1715971778.697113.png,1466,1715971778.693075,674.312927,183.011093,818.842468,726.192932,234.46376,780.193787,744.940186,183.95163,791.872742,687.352539,129.179352,804.958374,661.909302,98.831619,803.2099,634.057495,77.947205,810.537842,605.963745,149.429642,833.990662,577.020508,144.785248,832.137634,548.276611,136.163254,824.503967,506.84787,-519.195129,741.419434,460.122375,-521.00769,740.20459,449.059631,-447.515808,741.473633,514.777771,-447.974091,743.911621,515.702759,-515.218811,948.415771,455.341888,-519.427856,947.564392,450.314026,-449.93042,950.46521,515.107483,-451.110962,949.346802,195.034973,63.024082,761.660095,224.853546,57.166489,755.681885,247.294342,54.199059,751.716187,114.941422,36.611427,759.861145,137.091141,15.440951,753.900085,163.795135,-2.490394,747.242371,154.710495,84.96003,772.875488,149.756042,117.040947,764.3974,112.645882,103.952187,776.626831,47.204865,103.458122,792.475403,165.690262,985.970337,1494.134644,217.809738,980.964478,1516.432739,268.706818,993.837036,1498.801147
00268_color_1715971778.734395.png,1470,1715971778.733075,674.136414,182.802689,818.680603,726.12561,234.331116,780.138184,744.877014,183.845581,791.851562,687.237305,129.025116,804.767395,661.668213,98.614723,802.837646,633.780273,77.797379,810.010986,605.777954,149.261917,833.710815,576.851624,144.633438,831.765198,548.100281,135.996109,824.002319,506.836578,-519.210022,741.43103,460.116486,-521.013,740.202576,449.06488,-447.504272,741.490234,514.763611,-447.970947,743.911499,515.716492,-515.207336,948.410095,455.35318,-519.421021,947.568176,450.321045,-449.935516,950.458923,515.109619,-451.114349,949.339233,195.07341,63.063972,761.345337,224.898651,57.220222,755.584961,247.397614,54.2551,751.738464,115.427818,37.074581,759.820984,137.476044,15.819624,753.851685,163.6642,-3.202977,747.114807,154.769318,84.88121,772.605408,149.75412,117.189316,764.694397,112.793365,103.662216,776.516357,47.503777,102.492188,792.904968,165.71254,985.954956,1494.118164,217.809357,980.961365,1516.432617,268.707001,993.855225,1498.810059
00269_color_1715971778.768476.png,1474,1715971778.773075,674.019104,182.547028,818.492798,726.100708,234.165512,780.078857,744.828552,183.661911,791.730347,687.117065,128.736481,804.436646,661.516602,98.308708,802.253662,633.556702,77.425751,809.101624,605.66217,148.974411,833.287109,576.685303,144.268982,831.236267,547.94342,135.617661,823.333008,506.849121,-519.204773,741.437256,460.125427,-521.023926,740.216187,449.054749,-447.509216,741.497009,514.829895,-447.950439,743.938171,515.719604,-515.198242,948.396667,455.338715,-519.412292,947.565002,450.314636,-449.92923,950.462158,515.120972,-451.108215,949.334351,195.010391,63.001179,761.163635,224.82164,57.167995,755.521729,247.323074,54.230709,751.729553,114.956665,36.299778,759.626831,137.194504,15.202884,753.761536,164.080109,-2.541012,747.224731,154.727188,84.655922,772.368958,149.684906,116.983932,764.641174,112.749237,103.405739,776.539978,47.483791,101.739082,793.106323,165.685196,985.967041,1494.119995,217.814972,980.962952,1516.431763,268.706635,993.852844,1498.810791
00270_color_1715971778.803071.png,1477,1715971778.803075,673.960693,182.37973,818.286255,726.065979,234.007385,779.907104,744.809692,183.54071,791.592407,687.119446,128.573029,804.230652,661.597717,98.154221,802.002502,633.682861,77.213287,808.879944,605.65332,148.757782,833.013672,576.65155,143.990265,830.925171,547.933289,135.324051,822.941589,506.835999,-519.201782,741.437439,460.106293,-520.997375,740.22345,449.055145,-447.504974,741.476868,514.846558,-447.944336,743.937622,515.703125,-515.196167,948.410583,455.336823,-519.396118,947.572937,450.325836,-449.927185,950.455017,515.107361,-451.097626,949.347412,195.032959,63.064159,761.223145,224.870987,57.240829,755.54718,247.360168,54.264469,751.749329,115.029617,36.395309,759.678162,137.265854,15.325701,753.841187,163.998352,-2.4373,747.012146,154.742065,84.843002,772.467163,149.708282,117.111465,764.641357,112.713486,103.54467,776.509216,47.370029,101.815201,792.90033,165.694626,985.973999,1494.13562,217.810974,980.969849,1516.433594,268.712982,993.878357,1498.829346
00271_color_1715971778.837532.png,1480,1715971778.833075,673.96991,182.174423,818.098572,726.062622,233.83873,779.765686,744.834534,183.367004,791.451782,687.153076,128.351318,804.054688,661.630005,97.933868,801.756287,633.740173,76.972862,808.64386,605.683655,148.513412,832.783447,576.694397,143.768829,830.741028,547.944519,135.067947,822.75116,506.852448,-519.197937,741.455444,460.119171,-521.000061,740.237549,449.054108,-447.508423,741.483032,514.759399,-447.951172,743.919739,515.698975,-515.166992,948.428894,455.327423,-519.396851,947.586914,450.309723,-449.916107,950.470886,515.110107,-451.109528,949.349426,195.045349,63.087933,761.30304,224.858704,57.286602,755.642212,247.352707,54.284771,751.783203,115.047897,36.458145,759.75415,137.253708,15.376627,753.880981,163.641846,-3.188759,747.102844,154.734161,84.884766,772.509888,149.686584,117.171974,764.668701,112.657867,103.66066,776.568237,47.15033,101.95977,792.643677,165.69194,985.966919,1494.14624,217.809525,980.972961,1516.437134,268.711609,993.890137,1498.846436
00272_color_1715971778.875038.png,1484,1715971778.873075,673.966736,181.874298,817.955261,726.070801,233.63887,779.728027,744.872498,183.119141,791.366333,687.1828,128.061172,803.887512,661.733093,97.587433,801.536316,633.877075,76.619995,808.385376,605.694702,148.13533,832.548645,576.74176,143.38472,830.488586,547.975952,134.694427,822.525513,506.826111,-519.182251,741.450256,460.091583,-521.005615,740.229126,449.036682,-447.516663,741.477966,514.747437,-447.958191,743.927063,515.386108,-513.680237,947.823486,455.312805,-519.39679,947.597168,450.310394,-449.920135,950.473389,515.083008,-451.110718,949.348267,194.962967,63.102425,761.585388,224.744446,57.19453,755.693726,247.206421,54.208805,751.792542,114.971031,36.645138,759.918213,137.18042,15.574747,753.97876,163.42836,-3.106889,747.149658,154.639084,85.049843,772.733093,149.623199,117.26049,764.553772,112.406311,103.97303,776.599731,46.752663,102.564056,792.16394,165.674088,985.992249,1494.157471,217.810593,980.974609,1516.439331,268.714661,993.883545,1498.837036
00273_color_1715971778.909222.png,1488,1715971778.913075,673.976929,181.588928,817.905334,726.106628,233.455887,779.757019,744.934082,182.921753,791.357422,687.243103,127.818245,803.832092,661.818726,97.324852,801.433289,633.970886,76.333305,808.229797,605.704712,147.815582,832.429321,576.774048,143.061371,830.308472,547.980591,134.373489,822.346069,506.828125,-519.188049,741.455139,460.108826,-521.003784,740.235046,449.042328,-447.516907,741.476685,514.748047,-447.95755,743.923279,515.361877,-513.449341,947.71814,455.315125,-519.38324,947.592896,450.294586,-449.912811,950.478882,515.077515,-451.109619,949.357361,194.91272,63.352341,762.083984,224.629486,57.311581,755.905457,247.002457,54.134331,751.796692,114.975159,37.229061,760.281311,137.17955,16.163,754.357605,163.30484,-2.622377,747.242676,154.511841,85.424538,772.950378,149.557907,117.917397,764.57312,112.234268,104.82412,776.591919,46.489479,103.991524,791.69928,165.701126,985.967651,1494.138794,217.81485,980.96637,1516.431152,268.711273,993.868591,1498.834229
00274_color_1715971778.946377.png,1491,1715971778.943075,674.019653,181.459076,817.9328,726.108582,233.370819,779.760742,744.964478,182.820175,791.355103,687.318542,127.693298,803.821045,661.912292,97.130135,801.401794,634.09198,76.103035,808.157349,605.782349,147.584549,832.458862,576.856201,142.877396,830.365967,548.086487,134.143005,822.402832,506.841492,-519.190063,741.453979,460.098328,-521.022217,740.23291,449.035675,-447.498291,741.498596,514.837524,-447.933289,743.963013,515.68396,-515.203613,948.433533,455.321167,-519.403503,947.581604,450.297943,-449.911163,950.471924,515.073181,-451.095093,949.363037,194.861252,63.422859,762.302307,224.502945,57.301201,756.040405,246.854645,54.055595,751.762695,114.96727,37.630276,760.529114,137.11496,16.446663,754.506714,163.23201,-2.345317,747.257874,154.470276,85.825142,773.262817,149.599365,118.243584,764.57959,112.180611,105.256714,776.574341,46.420135,104.810257,791.505188,165.688156,985.970581,1494.135742,217.810318,980.957703,1516.431885,268.711029,993.867126,1498.836182
00275_color_1715971778.981418.png,1495,1715971778.983075,673.956665,181.221512,817.946045,726.027161,233.244675,779.815186,744.912476,182.66925,791.349792,687.270386,127.497093,803.741089,661.873413,96.919182,801.259705,634.068787,75.884407,807.934998,605.735046,147.297546,832.436035,576.80603,142.638733,830.342407,548.061035,133.871017,822.343872,506.83432,-519.195312,741.456604,460.106689,-520.998047,740.228027,449.035553,-447.511566,741.494995,514.751465,-447.973175,743.929199,515.372925,-514.058289,948.060608,455.326935,-519.396301,947.58252,450.302124,-449.911835,950.477722,515.0625,-451.130859,949.339722,194.800812,63.439251,762.437134,224.399124,57.298237,756.10376,246.751221,54.028572,751.766235,114.907684,37.864933,760.591125,137.05899,16.626377,754.527344,163.182877,-2.152974,747.228638,154.380737,86.067795,773.499817,149.623825,118.400871,764.63855,112.156067,105.519829,776.595703,46.382938,105.452652,791.45813,165.712463,985.964355,1494.140869,217.809494,980.967041,1516.434082,268.713135,993.875549,1498.839233
00276_color_1715971779.015681.png,1498,1715971779.013075,673.80249,180.907974,817.836792,725.821777,232.980194,779.742371,744.762939,182.429977,791.31488,687.104675,127.190231,803.573059,661.716309,96.540985,801.000122,633.853516,75.519363,807.567749,605.520813,146.903992,832.210938,576.626099,142.30011,830.130981,547.905457,133.523315,822.11908,506.836548,-519.196167,741.444031,460.103149,-521.025879,740.215454,449.03894,-447.516602,741.487427,514.745911,-447.962952,743.92395,515.371338,-514.071289,948.052246,455.322876,-519.396912,947.579224,450.296936,-449.923004,950.471985,515.100952,-451.073425,949.360901,194.870819,63.460419,762.483826,224.484009,57.291252,756.112732,246.795929,54.016602,751.74353,115.008896,37.938583,760.650757,137.130341,16.675209,754.580627,163.251648,-2.090162,747.266357,154.422668,85.92588,773.357483,149.656845,118.420128,764.622925,112.19561,105.587822,776.598511,46.453461,105.6903,791.425232,165.677811,985.980286,1494.152832,217.816193,980.969177,1516.431641,268.716797,993.880371,1498.83728
00277_color_1715971779.050434.png,1502,1715971779.053075,673.386536,179.537979,817.3172,725.195862,231.735138,779.366028,744.404297,181.352615,791.039429,686.843384,125.839264,803.060242,661.462524,95.051743,800.38501,633.571777,73.959351,806.569336,605.180847,145.597137,831.671753,576.193359,140.947479,829.574341,547.603699,132.108673,821.534058,506.828064,-519.212097,741.440369,460.104492,-521.00061,740.231567,449.047485,-447.516571,741.486206,514.826294,-447.946899,743.950867,515.2229,-513.659119,947.931519,455.328796,-519.419495,947.585632,450.299805,-449.91153,950.48053,515.102905,-451.066833,949.36261,194.946396,63.406116,762.534058,224.552689,57.281216,756.127319,246.864807,53.987915,751.7052,115.079506,37.922199,760.69281,137.186722,16.634615,754.567566,163.330399,-2.09442,747.246887,154.512161,85.911751,773.386719,149.669632,118.479851,764.74469,112.248924,105.537674,776.614014,46.496716,105.703003,791.434692,165.705612,985.947815,1494.124634,217.814026,980.966003,1516.432983,268.712769,993.863342,1498.824707
00278_color_1715971779.084514.png,1505,1715971779.083075,672.766846,177.239716,816.846558,724.226562,229.505707,778.90918,743.762634,179.233688,790.854675,686.450378,123.404686,802.774536,661.477478,92.430542,800.101257,633.586121,71.07357,806.196289,604.677612,143.299103,831.13678,575.74762,138.416611,828.960388,547.096863,129.516205,821.014404,506.836945,-519.207031,741.458252,460.101624,-520.999329,740.23053,449.055695,-447.506653,741.484314,514.836609,-447.942963,743.954712,515.256653,-513.797424,948.024719,455.314331,-519.398987,947.592224,450.305847,-449.89917,950.467102,515.091675,-451.097626,949.343811,195.087128,63.511082,762.632751,224.751526,57.441162,756.217102,246.966156,54.00481,751.711182,115.239182,37.980431,760.744202,137.318008,16.730774,754.657776,163.48465,-2.001689,747.292847,154.547287,86.158058,773.675537,149.735092,118.581612,764.741272,112.337067,105.669472,776.60968,46.61087,105.861847,791.409729,165.682175,985.974304,1494.157593,217.815048,980.968506,1516.433594,268.716644,993.879944,1498.832031
00279_color_1715971779.118519.png,1509,1715971779.123075,671.149414,170.171021,816.571289,721.605652,222.686218,778.696472,742.113159,173.035553,791.297974,685.568542,116.13195,803.459961,661.638611,85.048637,800.845337,633.964478,62.584064,806.503296,603.584045,136.875397,831.170532,574.434387,131.385666,828.985535,545.81012,122.209129,821.290527,506.831757,-519.200134,741.462463,460.095276,-520.994812,740.229797,449.04007,-447.509491,741.48938,514.845642,-447.954803,743.944885,515.166382,-514.111328,948.265259,455.31485,-519.390259,947.599243,450.301575,-449.9039,950.472473,515.070801,-451.15033,949.313721,195.150909,63.484318,762.658264,224.785934,57.387554,756.198059,247.035736,54.00034,751.712036,115.294113,38.006893,760.796326,137.383316,16.772587,754.725464,163.509781,-1.975341,747.302856,154.616013,86.178207,773.715515,149.784531,118.599327,764.743896,112.418388,105.726593,776.648926,46.678219,106.035347,791.46936,165.69693,985.961548,1494.15979,217.815155,980.967407,1516.434082,268.716736,993.889526,1498.834961
00280_color_1715971779.152909.png,1512,1715971779.153075,668.846619,160.544205,816.897461,717.92804,213.751572,779.09198,739.83075,164.791183,792.493652,684.525696,106.380989,804.784912,661.661682,74.576599,802.499695,634.833679,51.134552,807.742004,601.93396,126.712021,831.865662,572.900146,120.999939,829.920471,544.442749,111.26683,822.535156,506.830994,-519.198303,741.466858,460.095276,-521.010193,740.242065,449.03186,-447.516571,741.487671,514.733154,-447.968048,743.911316,515.396179,-514.687683,948.391357,455.315582,-519.388489,947.593323,450.290863,-449.89621,950.482727,515.074463,-451.114014,949.342407,195.157242,63.489326,762.661804,224.806442,57.391167,756.219238,247.035034,53.980289,751.701294,115.318352,38.050545,760.856628,137.376907,16.779413,754.740234,163.502182,-1.979421,747.327271,154.628082,86.175369,773.744812,149.776169,118.617722,764.742798,112.457504,105.797935,776.686768,46.714504,106.278969,791.472229,165.689789,985.970215,1494.143311,217.815811,980.962891,1516.435425,268.725769,993.891907,1498.849365
00281_color_1715971779.187531.png,1515,1715971779.183075,665.491272,146.599213,818.131531,712.613159,200.90509,780.380188,736.35376,153.181931,794.516785,682.946655,92.68576,806.599915,661.771545,59.857159,804.178345,637.027649,34.704517,809.289124,599.894043,111.717621,833.280273,570.751038,105.301521,831.590271,542.516968,94.593727,824.350769,506.827362,-519.197937,741.44873,460.102173,-521.008484,740.228577,449.033142,-447.522461,741.491821,514.75061,-447.991058,743.913574,515.542358,-515.117126,948.505371,455.317383,-519.411072,947.592041,450.280487,-449.905884,950.500061,515.053223,-451.194977,949.313171,195.173813,63.483974,762.680115,224.842163,57.370514,756.206909,247.036285,53.949493,751.692078,115.344948,38.169029,760.94989,137.399307,16.858515,754.79364,163.456207,-1.947449,747.343811,154.693832,86.234619,773.759216,149.860168,118.716301,764.766724,112.551865,106.00415,776.74176,46.807121,106.745872,791.482422,165.73616,985.933044,1494.107666,217.816071,980.963379,1516.4375,268.709503,993.851746,1498.828369
00282_color_1715971779.222167.png,1519,1715971779.223075,660.49884,121.435921,820.907471,704.000977,179.271912,784.076233,730.750549,132.764267,797.503174,680.832642,68.608452,808.346619,662.770752,34.635826,805.405823,640.589905,6.729271,809.399536,597.148621,83.577187,835.826111,568.296448,75.791382,834.465942,540.479736,63.824593,827.740356,506.815186,-519.183167,741.460754,460.093414,-521.021545,740.231201,449.023468,-447.511292,741.496582,514.721313,-447.976776,743.932312,515.53479,-515.213501,948.558655,455.292511,-519.405945,947.59906,450.272736,-449.900635,950.501892,515.056396,-451.09906,949.353821,195.090576,63.468605,762.651123,224.716476,57.372837,756.253113,246.9617,53.941803,751.706177,115.23838,38.323685,761.016663,137.280319,16.976631,754.763,163.342941,-1.79668,747.304871,154.662506,86.324501,773.848511,149.887054,118.789642,764.79541,112.569023,106.171516,776.84906,46.784302,107.354095,791.620728,165.682739,985.980225,1494.151123,217.816986,980.96228,1516.43335,268.720123,993.86676,1498.830811
00283_color_1715971779.256742.png,1522,1715971779.253075,656.26123,100.022942,823.520264,696.281189,160.168625,787.031616,725.63739,115.256813,800.152649,678.821777,48.400116,810.281677,662.989685,13.623381,807.085693,643.41864,-15.649375,811.348389,594.865173,59.5201,838.428955,566.339111,50.814938,837.573303,538.841553,37.900681,831.544495,506.791412,-519.200439,741.459106,460.078522,-521.007385,740.236084,449.010712,-447.505096,741.504395,514.737366,-447.973267,743.933228,515.524658,-515.20752,948.554443,455.292511,-519.397278,947.595093,450.265991,-449.899261,950.48584,515.044189,-451.129425,949.342957,195.033661,63.536495,762.649963,224.598663,57.307438,756.150574,246.860214,53.921101,751.688171,115.135513,38.566132,761.044189,137.138016,17.159023,754.720642,163.181854,-1.651706,747.283081,154.668304,86.608025,774.051758,149.923859,118.826813,764.688599,112.607819,106.414001,776.921265,46.795895,107.775108,791.664551,165.692856,985.973633,1494.142456,217.818649,980.964294,1516.424683,268.717102,993.866577,1498.824707
00284_color_1715971779.290980.png,1526,1715971779.293075,648.941833,70.177673,826.86853,684.108398,132.817276,790.631042,716.777527,90.289429,803.818298,674.877625,20.015768,813.32251,662.411377,-15.555551,810.234009,645.966858,-46.825649,814.209473,590.472412,26.227306,841.876953,562.629333,15.839016,841.589722,535.767029,1.323642,836.591492,506.802734,-519.178162,741.463379,460.071503,-521.013977,740.241089,449.018127,-447.507141,741.499268,514.718872,-447.969666,743.934814,515.528015,-515.223755,948.563416,455.286133,-519.405396,947.592163,450.276733,-449.900513,950.48114,515.036011,-451.17984,949.315308,195.053055,63.721901,762.658936,224.641312,57.52108,756.223328,246.827881,53.9641,751.709229,115.108376,39.036148,761.076233,137.036743,17.545189,754.724976,163.026428,-1.317363,747.312134,154.74559,86.811218,773.929382,150.069366,119.291489,764.829834,112.762184,106.932892,777.005737,46.900608,108.557632,791.656677,165.69989,985.963074,1494.133057,217.819427,980.968384,1516.42688,268.710907,993.862244,1498.817993
00285_color_1715971779.326148.png,1529,1715971779.323075,642.266235,47.445625,828.985779,674.15979,111.81601,793.315308,709.030273,70.96244,806.231934,670.480347,-1.321293,815.174988,660.681458,-37.353428,811.889832,647.047974,-69.858032,815.738403,585.797241,1.073386,843.659729,558.549072,-9.975855,843.723145,532.116028,-25.69702,839.303345,506.794403,-519.191223,741.469604,460.074829,-520.992859,740.243713,449.00589,-447.51651,741.490112,514.7276,-447.971924,743.923096,515.53595,-515.190552,948.557983,455.288208,-519.377686,947.594238,450.264679,-449.884857,950.487793,515.039917,-451.155548,949.316589,195.071655,63.804047,762.683899,224.642899,57.56181,756.256714,246.841843,53.952682,751.706055,115.121048,39.322746,761.131592,137.001572,17.72683,754.732727,162.945496,-1.140933,747.314514,154.85379,86.953743,774.035522,150.188492,119.45993,764.900574,112.879425,107.199646,777.145752,46.978291,108.987755,791.710876,165.699936,985.961487,1494.130737,217.813721,980.973694,1516.434937,268.711395,993.871826,1498.825073
00286_color_1715971779.363089.png,1533,1715971779.363075,631.963196,17.414663,830.886719,659.885681,83.792198,796.041626,697.121765,45.045471,809.071106,662.85907,-29.789488,816.520386,656.37323,-65.981026,812.380676,647.036194,-99.621292,815.45166,577.924744,-31.366371,844.688904,551.231873,-43.328518,844.962708,525.382141,-59.750896,841.146179,506.804474,-519.195435,741.471191,460.072174,-520.998962,740.240356,449.017151,-447.503326,741.499084,514.832764,-447.936737,743.964722,515.532043,-515.2005,948.556641,455.278168,-519.364685,947.606567,450.274475,-449.456512,950.839172,515.041199,-451.16745,949.301086,195.098495,63.726635,762.694946,224.636398,57.478477,756.237183,246.862274,53.938622,751.692749,115.112862,39.326496,761.107544,136.973709,17.726259,754.699951,162.916794,-1.170038,747.292542,154.932251,87.065941,774.242798,150.232147,119.317947,764.805908,112.956108,107.209114,777.257507,47.067337,109.1437,791.794556,165.691071,985.967041,1494.144165,217.810745,980.965027,1516.427979,268.717438,993.880249,1498.832275
00287_color_1715971779.397974.png,1536,1715971779.393075,623.740601,-4.81247,831.983826,649.265686,62.681416,797.627869,687.923035,25.616388,811.116638,656.444824,-50.902988,817.379395,652.300171,-87.19677,812.622681,645.545593,-121.3843,814.926025,571.218262,-55.119141,844.545776,544.631592,-67.286987,844.457886,519.248779,-84.670052,840.276611,506.804169,-519.172302,741.467834,460.088562,-520.995544,740.236755,449.015686,-447.51474,741.499817,514.773071,-447.959167,743.956726,515.534119,-515.210876,948.570496,455.291016,-519.374268,947.597412,450.227722,-449.172852,951.050537,515.045044,-451.101776,949.378601,195.090866,63.661037,762.695129,224.64592,57.396214,756.195923,246.876312,53.884109,751.670227,115.105148,39.229408,761.117004,136.948303,17.664482,754.715942,162.911041,-1.257956,747.240295,154.917038,86.781586,774.058228,150.24176,119.234337,764.80249,112.998711,107.162224,777.366028,47.100147,109.124832,791.869568,165.697479,985.965576,1494.132324,217.819702,980.959473,1516.429321,268.708618,993.866699,1498.8302
00288_color_1715971779.433523.png,1540,1715971779.433075,612.987366,-33.976059,832.864258,635.282776,34.246868,798.734863,675.515076,-0.616747,813.195862,647.748413,-78.840591,818.218201,645.855835,-114.908531,812.671936,641.890991,-149.561417,814.383667,562.395447,-86.290642,844.614075,536.250916,-99.353096,844.168091,511.37149,-117.082878,839.725098,506.805603,-519.19574,741.463745,460.091492,-521.015869,740.240112,449.010162,-447.509705,741.494202,514.813477,-447.959808,743.963135,515.536621,-515.202454,948.562256,455.290497,-519.375916,947.601196,450.390839,-449.586548,950.826538,515.057678,-451.114868,949.353699,195.098068,63.665352,762.69519,224.640579,57.434944,756.211914,246.861832,53.88467,751.673767,115.089775,39.217567,761.106506,136.950836,17.662888,754.690369,162.912109,-1.245354,747.26239,154.911072,86.810219,774.080078,150.239136,119.248291,764.812317,112.968872,107.16993,777.356567,47.069626,109.153595,791.856567,165.697327,985.966919,1494.139648,217.814407,980.961731,1516.425659,268.708771,993.861938,1498.825684
00289_color_1715971779.467734.png,1543,1715971779.463075,605.067688,-55.950909,833.496887,625.531433,13.031256,800.065002,666.635437,-20.587513,814.862915,640.633606,-99.736397,818.568604,640.848999,-135.793777,813.032593,638.356262,-170.568634,813.835022,555.920105,-109.055763,845.175537,529.96167,-122.464767,844.533569,505.525055,-140.580276,840.325134,506.798981,-519.207825,741.463684,460.0849,-521.006592,740.230347,449.018188,-447.512482,741.501648,514.729431,-447.96875,743.952271,515.543518,-515.225342,948.555054,455.301941,-519.397827,947.592468,450.29776,-449.819244,950.572327,515.043762,-451.109985,949.369873,195.088318,63.681477,762.7052,224.64296,57.436523,756.228455,246.850052,53.902157,751.69043,115.091797,39.205307,761.097656,136.95813,17.679365,754.702087,162.911407,-1.259061,747.240112,154.947449,87.024689,774.28595,150.232071,119.263596,764.813232,112.960236,107.167351,777.330322,47.036098,109.081772,791.815796,165.711533,985.966858,1494.127563,217.816635,980.960144,1516.427612,268.705383,993.822998,1498.791748
00290_color_1715971779.502130.png,1547,1715971779.503075,594.447693,-84.810463,834.965454,613.017395,-15.395318,801.133667,654.905579,-46.953903,817.706421,632.046692,-127.81221,821.502197,633.685608,-163.270523,815.307617,632.650146,-198.602158,815.544861,546.895935,-138.486786,846.284912,521.070129,-152.0793,844.963928,497.122162,-171.355957,839.69574,506.82019,-519.187439,741.46405,460.088715,-521.015076,740.236084,449.006927,-447.513733,741.506531,514.721741,-447.981018,743.941528,515.530884,-515.240723,948.549683,455.296021,-519.39917,947.587524,450.321075,-449.783966,950.621033,515.062073,-451.132446,949.342529,195.081757,63.682041,762.713135,224.655228,57.44154,756.219482,246.849686,53.899883,751.698853,115.086021,39.209328,761.084106,136.953796,17.661589,754.68512,162.898178,-1.260685,747.235596,154.899185,86.787537,774.040283,150.23407,119.34156,764.915344,112.918312,107.137703,777.314575,46.996914,108.992371,791.80426,165.715515,985.939758,1494.109131,217.817291,980.966187,1516.431396,268.706085,993.850891,1498.808105
00291_color_1715971779.535108.png,1550,1715971779.533075,587.203552,-105.708328,836.082642,604.151245,-36.6441,802.194153,646.455139,-67.195389,819.595581,625.677979,-147.940948,823.191223,628.209778,-183.972092,816.333069,628.463989,-219.19075,816.221375,540.306519,-160.12323,847.065369,514.720093,-174.47403,845.280273,491.230469,-194.192886,839.622375,506.785278,-519.205078,741.466675,460.075531,-521.011963,740.239868,449.025726,-447.503754,741.489868,514.7229,-447.947021,743.938232,515.527344,-515.221375,948.55127,455.287109,-519.374329,947.59491,450.40271,-449.572571,950.820862,515.060181,-451.10495,949.362,195.080307,63.720985,762.724609,224.568207,57.364815,756.192139,246.854568,53.927483,751.697083,115.083755,39.241322,761.098328,136.960999,17.680208,754.706665,162.907578,-1.227116,747.25946,154.911102,86.856613,774.044128,150.249161,119.513649,765.062012,112.89505,107.133926,777.264587,46.994606,109.016609,791.773926,165.693756,985.973328,1494.135864,217.821503,980.970825,1516.425781,268.71579,993.866577,1498.815063
00292_color_1715971779.569331.png,1554,1715971779.573075,577.841858,-133.95491,837.395386,593.155762,-64.928558,803.668945,635.904602,-94.062698,822.221191,617.160156,-176.03627,824.587219,621.471619,-211.157288,817.343933,623.197632,-246.989792,815.685547,532.131714,-189.342697,847.898804,506.669586,-204.161972,845.81604,483.772003,-224.331146,840.108643,506.798492,-519.198425,741.461975,460.071014,-521.017334,740.241577,449.019653,-447.510193,741.493469,514.732117,-447.947327,743.938599,515.525391,-515.219788,948.547668,455.287292,-519.395569,947.605408,450.296021,-449.979553,950.436523,515.053467,-451.097351,949.366516,195.062775,63.716202,762.726318,224.580536,57.44305,756.253418,246.827667,53.931305,751.722534,115.05983,39.222309,761.076233,136.949295,17.680723,754.680298,162.905289,-1.216139,747.263428,154.890533,87.036072,774.243347,150.214005,119.369995,764.907532,112.880035,107.145851,777.27179,46.964714,108.995148,791.78949,165.719894,985.950867,1494.124268,217.819916,980.964722,1516.426025,268.71524,993.86969,1498.826904
00293_color_1715971779.603957.png,1557,1715971779.603075,570.487427,-154.577606,837.946411,585.002258,-85.851448,804.296265,627.781372,-114.048897,823.856506,610.621765,-196.24881,826.144836,615.747498,-231.377869,818.664307,618.742798,-267.086395,817.100098,525.3703,-210.130173,848.391296,500.201874,-225.167786,846.080994,477.304504,-245.466202,840.623352,506.804993,-519.201294,741.494202,460.061157,-521.000122,740.248718,449.003143,-447.517731,741.479248,514.729126,-447.955444,743.949768,515.52179,-515.210938,948.571472,455.280548,-519.394714,947.605957,450.283722,-449.857391,950.520691,515.041138,-451.097137,949.368958,195.052505,63.717583,762.735291,224.565079,57.446083,756.251465,246.811981,53.930222,751.7229,115.058578,39.232101,761.100708,136.961792,17.733242,754.710449,162.918808,-1.183111,747.293213,154.834381,86.843964,774.046326,150.20079,119.334396,764.871094,112.871681,107.174492,777.285828,46.953083,109.010948,791.779053,165.691956,985.965088,1494.148682,217.814972,980.966553,1516.437622,268.711304,993.867737,1498.832642
00294_color_1715971779.638261.png,1561,1715971779.643075,560.894775,-181.772003,838.175903,574.650024,-113.515923,804.628357,617.262146,-140.409363,825.849365,601.403992,-223.229172,826.919678,607.642883,-257.906586,819.300476,612.202637,-293.526703,817.42218,516.133423,-237.797485,847.815186,491.18866,-252.773666,845.706543,468.658051,-272.97049,840.22406,506.791412,-519.177917,741.474792,460.079681,-520.996887,740.239563,449.470459,-447.276733,741.202515,514.720337,-447.952576,743.928589,515.526672,-515.181213,948.596313,455.292938,-519.37207,947.599854,450.396912,-449.580688,950.82605,515.041443,-451.12027,949.352173,195.044891,63.72319,762.735168,224.596954,57.516575,756.304504,246.804749,53.925289,751.707825,115.054161,39.241405,761.111084,136.944962,17.702164,754.708496,162.901642,-1.174877,747.277649,154.881699,87.102554,774.281311,150.201431,119.41217,764.93457,112.859093,107.155869,777.245728,46.963913,109.046646,791.770935,165.695007,985.969971,1494.145142,217.817261,980.968628,1516.429565,268.709625,993.875,1498.83667
00295_color_1715971779.672451.png,1564,1715971779.673075,554.286865,-201.279175,838.238159,567.391724,-133.766953,804.508667,610.097412,-159.803986,826.983032,595.272095,-242.623672,827.635132,602.224426,-277.206482,820.179321,607.286743,-312.901855,818.451233,510.038208,-257.559326,847.59436,485.084442,-273.018158,845.199768,463.02359,-293.514984,839.398376,506.817505,-519.191284,741.473755,460.085846,-521.010437,740.232056,449.263092,-447.520477,741.494141,514.81189,-447.880859,743.840393,515.543762,-515.21051,948.552246,455.294708,-519.392151,947.577332,450.402832,-449.592377,950.829712,515.050354,-451.188904,949.320068,195.042618,63.703293,762.737305,224.609909,57.482594,756.269836,246.808685,53.919563,751.723816,115.061226,39.235718,761.1297,136.940948,17.714924,754.704102,162.902145,-1.220905,747.270447,154.887802,87.085426,774.287476,150.186676,119.273163,764.80542,112.862,107.143967,777.250244,46.953247,109.023254,791.780701,165.707092,985.953796,1494.133545,217.816437,980.96167,1516.430176,268.710327,993.855713,1498.829224
00296_color_1715971779.706888.png,1567,1715971779.703075,548.445984,-220.331512,837.830383,560.968506,-152.758438,804.486755,603.48175,-178.733078,827.22644,589.572754,-261.566925,827.472656,596.749451,-296.1362,819.832703,602.350159,-331.639832,817.943604,504.564117,-276.681793,847.356873,479.723389,-292.583679,845.220459,457.653778,-313.267303,839.42804,506.79303,-519.217163,741.455872,460.083862,-521.015503,740.230042,449.257294,-447.421844,741.350342,514.13678,-446.389893,743.0401,515.545837,-515.21344,948.532715,455.30246,-519.417297,947.580566,450.410767,-449.580353,950.82605,515.054932,-451.166016,949.317688,195.05571,63.707428,762.735657,224.611893,57.482758,756.264221,246.814331,53.916622,751.708313,115.077599,39.246037,761.125061,136.957672,17.727865,754.715881,162.896729,-1.213033,747.263611,154.880341,86.882538,774.065918,150.192123,119.300323,764.809448,112.868614,107.154724,777.241638,46.963612,109.029823,791.769653,165.703735,985.960999,1494.125122,217.815536,980.958801,1516.422607,268.710907,993.863098,1498.824951
00297_color_1715971779.745375.png,1571,1715971779.743075,540.862915,-244.477539,836.772827,553.013977,-177.846298,803.36145,595.174683,-202.926498,827.387024,582.640808,-285.64682,827.390564,590.168518,-320.009521,819.362549,596.220703,-355.535034,817.367493,497.703003,-301.213074,847.080017,473.285217,-317.416748,845.310608,451.598083,-339.00528,840.278381,506.79834,-519.231628,741.437866,460.087494,-521.013428,740.209106,449.167328,-447.463348,741.560303,515.457581,-448.781464,743.801331,515.557068,-515.190308,948.526306,455.30191,-519.40509,947.571777,450.343933,-449.799347,950.610962,515.050415,-451.16864,949.314514,195.059982,63.713833,762.742126,224.619049,57.478828,756.263428,246.813477,53.917114,751.697021,115.059021,39.226448,761.113037,136.939346,17.690762,754.697449,162.888031,-1.23288,747.248718,154.870407,86.894196,774.071045,150.225159,119.457611,764.986145,112.860077,107.143761,777.244446,46.94595,108.973587,791.765686,165.712158,985.953979,1494.117676,217.81308,980.964844,1516.430664,268.704987,993.847717,1498.811646
00298_color_1715971779.781338.png,1575,1715971779.783075,534.208313,-266.734375,835.620361,546.106018,-200.179504,802.648682,587.56543,-224.968903,827.397705,576.02655,-307.844238,826.729736,584.124695,-341.98941,818.788452,590.965332,-377.564209,816.534607,491.662781,-323.330627,846.763977,467.211609,-339.474365,845.298889,445.628571,-361.020752,840.943909,506.816803,-519.203735,741.44397,460.082031,-521.017578,740.219788,449.478088,-447.55014,741.153625,514.517151,-448.307312,743.230408,515.542114,-515.234192,948.536072,455.305115,-519.421082,947.592834,450.317749,-449.838165,950.563904,515.064331,-451.167114,949.317139,195.053055,63.709976,762.741028,224.616791,57.468838,756.256409,246.817413,53.930664,751.714783,115.0448,39.206345,761.091858,136.94397,17.68446,754.687439,162.887268,-1.245744,747.240356,154.857147,86.894524,774.104919,150.200012,119.346146,764.887634,112.84523,107.141823,777.272095,46.924702,108.929192,791.770325,165.720001,985.956848,1494.123291,217.819336,980.96582,1516.430908,268.706451,993.851501,1498.816772
00299_color_1715971779.818424.png,1579,1715971779.823075,528.179871,-287.101624,834.227539,540.023804,-220.982346,801.502441,581.318604,-245.73526,827.172302,570.193909,-328.162445,825.68634,578.553223,-362.228088,817.489868,585.777588,-397.734406,815.039185,485.912933,-343.715179,845.259338,461.290649,-359.71814,844.135132,439.777222,-381.259155,839.911804,506.801422,-519.20929,741.452454,460.095978,-521.03009,740.220764,449.473633,-447.54187,741.159668,514.369507,-448.222473,743.286377,515.555969,-515.23999,948.539795,455.299316,-519.416992,947.579895,450.279266,-449.87793,950.506531,515.053711,-451.15918,949.315552,195.022675,63.707924,762.748657,224.602905,57.504539,756.277344,246.788055,53.920944,751.709656,115.03112,39.211079,761.102356,136.940964,17.701483,754.694519,162.885803,-1.219744,747.255066,154.853241,87.085548,774.284424,150.185898,119.33445,764.862854,112.83252,107.155495,777.264099,46.904476,108.908058,791.763245,165.725311,985.934937,1494.122192,217.818558,980.960327,1516.427002,268.714722,993.874878,1498.8302
00300_color_1715971779.852485.png,1582,1715971779.853075,524.358521,-300.861969,833.01886,536.134827,-234.928268,800.528198,577.08606,-259.586487,826.87915,566.359314,-341.877228,825.079651,575.046021,-375.767273,816.916138,582.527527,-411.425903,814.515198,482.033112,-357.222809,844.173096,457.5672,-372.645752,842.89447,435.82486,-394.485779,839.020203,506.796173,-519.212891,741.462219,460.087036,-521.007568,740.226929,449.482178,-447.562286,741.146057,514.292419,-448.358124,743.504028,515.556702,-515.230286,948.53363,455.292786,-519.397644,947.583984,450.266022,-449.908722,950.475647,515.062866,-451.143616,949.331787,195.005127,63.73238,762.764771,224.564957,57.484222,756.299316,246.760483,53.921467,751.702271,115.027588,39.227859,761.121704,136.930817,17.711395,754.708679,162.878525,-1.199195,747.261475,154.826599,87.112419,774.295898,150.18457,119.407684,764.943909,112.800476,107.174881,777.258545,46.888294,108.940575,791.769043,165.708984,985.962708,1494.129639,217.812881,980.969604,1516.429077,268.714661,993.86676,1498.816284
00301_color_1715971779.886391.png,1585,1715971779.883075,521.134521,-313.417419,831.789795,532.732971,-247.797913,799.569031,573.599609,-272.251373,826.322205,563.306458,-354.474365,824.090454,572.099365,-388.207184,815.708374,579.959778,-423.641876,813.009216,479.108246,-369.515808,843.308228,454.41214,-384.985321,842.924377,432.998047,-407.154236,838.848938,506.800171,-519.186401,741.450562,460.082855,-521.004028,740.221802,449.377075,-447.59433,741.082458,514.401367,-448.697845,743.801758,515.557495,-515.21521,948.540771,455.292847,-519.402771,947.589233,450.260529,-449.893616,950.481262,515.044861,-451.170654,949.309753,194.979813,63.749538,762.781738,224.544327,57.518055,756.298584,246.734406,53.923969,751.697144,115.013954,39.220211,761.139221,136.924454,17.723017,754.702759,162.886948,-1.162443,747.276733,154.803543,86.948494,774.081787,150.178497,119.440071,764.951233,112.805473,107.210838,777.268372,46.887878,108.986374,791.769775,165.703247,985.965576,1494.141846,217.812561,980.965637,1516.431396,268.707153,993.864563,1498.834229
00302_color_1715971779.920525.png,1589,1715971779.923075,516.576904,-327.912567,829.667786,528.44458,-261.766632,798.505188,568.887939,-286.987976,825.153076,558.746582,-368.837463,822.226868,567.841187,-402.502899,813.723022,576.038879,-437.766724,810.843628,474.385162,-383.585297,841.09082,449.871368,-399.227936,839.736572,428.247406,-421.303162,836.015076,506.801483,-519.210144,741.462646,460.092224,-521.01709,740.225037,448.929932,-446.925476,739.824585,514.878662,-450.327271,745.115845,515.553528,-515.225647,948.531799,455.307648,-519.400452,947.582214,450.261536,-449.900238,950.48407,515.055237,-451.164032,949.315308,194.988892,63.740417,762.778442,224.563278,57.511536,756.31781,246.754364,53.944038,751.709839,115.03331,39.254967,761.140991,136.928268,17.716074,754.70636,162.881561,-1.174433,747.28241,154.818665,86.949463,774.084656,150.165039,119.334206,764.819458,112.812317,107.223404,777.264465,46.902081,109.012001,791.772888,165.703003,985.971802,1494.138672,217.813858,980.969116,1516.435913,268.705688,993.860107,1498.822266
00303_color_1715971779.954889.png,1592,1715971779.953075,512.354248,-336.778015,827.864319,525.179749,-271.264465,796.476746,565.008484,-295.989777,824.56665,554.918335,-377.855652,821.233459,564.436279,-411.304535,812.787537,573.000183,-446.559265,809.733643,470.1138,-392.109283,838.420898,445.3172,-408.112946,836.93335,424.040497,-430.049805,832.530151,506.815796,-519.228394,741.430664,460.098694,-521.01709,740.223694,448.840149,-446.504547,739.263062,515.041687,-451.382233,746.176331,515.547607,-515.223877,948.519775,455.301025,-519.421082,947.573425,450.269043,-449.90094,950.476868,515.038513,-451.188324,949.29895,194.99649,63.736282,762.789612,224.551666,57.504871,756.332092,246.757172,53.931995,751.697449,115.032242,39.235771,761.135681,136.934784,17.733356,754.721863,162.875305,-1.183525,747.260925,154.84639,87.148849,774.32312,150.184967,119.433334,764.934326,112.820404,107.21447,777.269836,46.901779,109.0028,791.774414,165.718109,985.956177,1494.124756,217.81282,980.9646,1516.428711,268.701721,993.842407,1498.805054
00304_color_1715971779.989084.png,1596,1715971779.993075,507.442291,-346.176147,825.323181,521.339172,-280.446411,794.785828,560.34668,-305.627319,823.302673,549.957947,-387.523804,819.572327,560.671997,-420.708038,810.954041,569.639465,-455.434784,808.10968,464.774628,-401.174866,835.119995,440.012054,-416.815857,833.167908,418.480865,-438.778503,828.180908,506.812286,-519.18042,741.434448,459.926422,-521.221985,740.211182,447.997772,-446.871674,738.708801,515.168335,-451.314941,746.13855,515.552917,-515.226257,948.5271,455.298981,-519.399597,947.569702,450.265961,-449.911407,950.469604,515.052856,-451.166504,949.314575,195.030701,63.757889,762.804321,224.592926,57.502842,756.315979,246.757751,53.906036,751.698486,115.051857,39.260967,761.155945,136.93364,17.713856,754.727905,162.885269,-1.164945,747.268127,154.83699,87.00544,774.160278,150.185715,119.442245,764.916199,112.834717,107.23452,777.262634,46.924889,109.074364,791.76709,165.706314,985.96167,1494.12915,217.815384,980.965698,1516.429688,268.704132,993.850952,1498.807251
00305_color_1715971780.023289.png,1599,1715971780.023075,503.888184,-351.912964,823.382202,518.350098,-286.100098,793.177734,556.930298,-311.380981,822.231506,546.706238,-392.881592,818.058716,557.941223,-425.980133,809.408875,567.858215,-460.700897,806.355591,461.399139,-407.173859,832.534912,436.660309,-423.068024,829.938293,415.331848,-445.445496,824.315125,506.796967,-519.199768,741.43457,459.776001,-522.672302,740.964478,448.063782,-446.871948,738.749695,515.24408,-451.247253,746.119385,515.55365,-515.221436,948.529114,455.29895,-519.403259,947.578613,450.275055,-449.897217,950.480408,515.060303,-451.133209,949.335754,195.028107,63.759052,762.810608,224.56723,57.494061,756.30542,246.760818,53.923046,751.708557,115.059341,39.309341,761.188721,136.937759,17.739691,754.732605,162.878784,-1.171471,747.270752,154.833115,86.974869,774.08728,150.209473,119.524315,764.989502,112.849144,107.266579,777.254395,46.929451,109.112595,791.767273,165.714386,985.953491,1494.127808,217.81694,980.967712,1516.425171,268.711487,993.876221,1498.834106
00306_color_1715971780.057970.png,1602,1715971780.053075,500.169037,-356.508636,821.31488,515.171387,-290.505463,791.494873,553.466309,-315.831879,821.15625,543.325623,-397.410126,816.870117,555.077698,-430.515961,808.234863,565.803589,-464.583282,805.176147,457.814697,-412.235535,829.525208,433.306641,-428.012848,826.757507,412.421509,-450.686005,820.344299,506.796173,-519.203979,741.464355,460.004028,-520.808228,740.045837,448.054047,-446.919922,738.778748,515.244812,-451.252167,746.066101,515.543701,-515.226196,948.538025,455.289764,-519.376282,947.590393,450.270386,-449.890656,950.479065,515.049194,-451.154083,949.32196,195.036423,63.755058,762.809692,224.536819,57.419846,756.26062,246.757141,53.931652,751.705322,115.04747,39.28521,761.182739,136.925461,17.755184,754.732666,162.864944,-1.144688,747.284912,154.81488,86.984406,774.109131,150.192154,119.415352,764.851685,112.847687,107.297737,777.266663,46.927711,109.183243,791.781677,165.709015,985.963196,1494.132202,217.820145,980.960205,1516.428955,268.702362,993.856506,1498.815552
00307_color_1715971780.094522.png,1606,1715971780.093075,495.150452,-361.444733,818.222534,511.201508,-295.263794,788.820251,548.666748,-320.75058,819.414124,538.519043,-401.800995,814.622131,550.903564,-434.180725,805.90741,563.026062,-468.471405,802.819092,453.302429,-417.439789,826.097473,428.812897,-433.555573,822.773438,408.417389,-456.460938,815.904114,506.783295,-519.311707,741.555969,460.002716,-520.7948,740.043579,448.110016,-446.959167,738.808838,515.314575,-451.201599,746.007141,515.552429,-515.224976,948.534851,455.289856,-519.3927,947.583557,450.260193,-449.892731,950.469055,515.068909,-451.137451,949.316406,195.036926,63.783684,762.830444,224.566467,57.540829,756.342773,246.763123,53.934654,751.70636,115.071663,39.325485,761.238464,136.962021,17.800493,754.760376,162.883652,-1.116585,747.297729,154.839752,87.009865,774.118469,150.18045,119.359055,764.782898,112.839211,107.311638,777.258484,46.94133,109.205124,791.769714,165.711304,985.958801,1494.138672,217.819275,980.958679,1516.422241,268.715637,993.874207,1498.821655
00308_color_1715971780.131499.png,1610,1715971780.133075,489.788696,-365.269928,815.583801,507.285248,-299.595551,785.781921,543.536194,-324.347809,818.307068,533.544312,-405.29834,813.354614,546.479614,-437.435089,804.564514,560.153992,-471.261932,802.083862,448.261719,-421.011078,822.40509,424.410919,-438.739838,818.270386,405.21759,-462.72821,810.140991,506.717499,-519.543396,741.733643,460.014893,-520.775818,740.041809,448.192566,-446.985443,738.85376,515.410095,-451.134979,745.974304,515.553284,-515.223694,948.527588,455.297394,-519.402344,947.585571,450.260925,-449.905151,950.473633,515.044922,-451.140717,949.336853,195.032364,63.771168,762.820557,224.500488,57.432415,756.284363,246.764908,53.944416,751.715332,115.051529,39.304977,761.223328,136.949524,17.792519,754.752136,162.872055,-1.136529,747.279846,154.831406,87.028915,774.125793,150.217346,119.615677,765.0448,112.828117,107.302231,777.270447,46.932236,109.201584,791.775635,165.700012,985.969299,1494.145874,217.814438,980.966553,1516.431519,268.719238,993.887573,1498.844238
00309_color_1715971780.166223.png,1613,1715971780.163075,486.379059,-367.841095,814.40155,504.47113,-301.85672,784.61908,540.220764,-326.507629,817.796326,530.60321,-408.376312,813.160828,544.249023,-439.997864,803.965881,558.62323,-472.80722,800.925476,445.368286,-424.691284,821.035217,422.16745,-442.493591,815.975586,404.239532,-467.101776,806.843933,506.664215,-519.815735,741.970764,460.018677,-520.788391,740.054504,448.156189,-447.01236,738.891907,515.386047,-451.114929,745.91449,515.557922,-515.202026,948.539551,455.311005,-519.407593,947.593323,450.268433,-449.888672,950.481384,515.063782,-451.162628,949.316711,195.039337,63.772022,762.83075,224.601318,57.526363,756.330139,246.763412,53.9324,751.712769,115.075005,39.30777,761.265991,136.936142,17.754158,754.752258,162.864838,-1.143866,747.282104,154.847244,87.034698,774.170593,150.209793,119.472221,764.901978,112.855225,107.340454,777.288696,46.9655,109.223412,791.782959,165.702271,985.959839,1494.132324,217.817963,980.967651,1516.428467,268.706482,993.864563,1498.820923
00310_color_1715971780.200403.png,1617,1715971780.203075,482.911224,-370.381012,814.053833,501.065186,-304.177002,783.95459,536.593018,-328.776886,817.462646,527.768066,-410.697205,813.432373,542.124878,-441.780762,803.914795,557.231812,-474.134064,800.413025,442.99646,-427.881104,821.629517,420.078827,-446.983765,816.251099,403.696838,-472.241913,806.887695,506.626129,-520.094666,742.187439,460.022766,-520.781006,740.036926,448.267242,-447.038055,738.916687,515.509033,-451.054169,745.868652,515.557129,-515.220825,948.536987,455.300415,-519.393616,947.583679,450.263885,-449.901489,950.465698,515.078552,-451.132416,949.324341,195.040573,63.768787,762.838989,224.603638,57.520714,756.337341,246.78067,53.940941,751.702698,115.070152,39.320961,761.245667,136.936188,17.784746,754.755798,162.885254,-1.140297,747.28656,154.844391,87.050964,774.177368,150.208862,119.476517,764.888672,112.870522,107.331337,777.262939,46.983494,109.278122,791.803101,165.709335,985.964966,1494.133057,217.811432,980.970825,1516.431396,268.707153,993.872925,1498.830811
00311_color_1715971780.234951.png,1620,1715971780.233075,480.434967,-371.984039,814.443665,498.683014,-305.768677,783.687561,533.820374,-329.803314,817.818115,525.879639,-411.644104,814.125061,540.7453,-442.609619,804.5401,556.670776,-474.574432,800.602112,441.879761,-430.028656,822.812683,419.267853,-449.576508,817.141907,404.156586,-476.127655,808.160889,506.578491,-520.204712,742.272278,460.022278,-520.786499,740.051208,448.329285,-447.004486,738.956665,515.580811,-450.950653,745.848022,515.553406,-515.229919,948.538818,455.301056,-519.387268,947.578491,450.265228,-449.906036,950.474487,515.083801,-451.104767,949.34375,195.033615,63.748657,762.837524,224.598267,57.510307,756.3396,246.773666,53.923679,751.714417,115.06192,39.292969,761.244995,136.939667,17.784477,754.77771,162.868454,-1.160711,747.275696,154.867203,87.008553,774.119568,150.21347,119.527275,764.958618,112.871254,107.337296,777.275391,46.985798,109.281158,791.804199,165.689514,985.972656,1494.127197,217.814499,980.96344,1516.429199,268.709045,993.866943,1498.833496
00312_color_1715971780.269467.png,1624,1715971780.273075,477.713867,-374.352844,815.228821,496.100769,-307.591522,784.229187,531.121643,-331.216949,818.835571,524.21521,-413.009705,815.805542,540.007507,-443.624969,805.932251,556.732666,-475.14856,801.912048,440.405334,-433.535889,823.593506,419.073364,-454.492981,817.334106,405.529205,-481.517761,807.25531,506.476715,-520.471619,742.530579,460.021393,-520.781677,740.036011,448.294678,-447.052643,739.006592,515.562256,-450.920471,745.781738,515.560669,-515.229492,948.53363,455.304749,-519.410461,947.585999,450.259033,-449.911652,950.483765,515.063599,-451.140442,949.330566,195.042603,63.769444,762.85321,224.584122,57.504971,756.340637,246.769363,53.942169,751.703796,115.073158,39.3298,761.264038,136.945007,17.773361,754.762146,162.869217,-1.148455,747.286194,154.866821,87.007004,774.11554,150.224136,119.520447,764.938354,112.867355,107.359238,777.277222,46.981327,109.289322,791.801086,165.717194,985.950134,1494.117432,217.810577,980.967285,1516.427979,268.711578,993.878723,1498.833496
00313_color_1715971780.304012.png,1627,1715971780.303075,475.771484,-376.133514,815.56073,494.417542,-308.827698,784.58606,528.997192,-332.032288,819.718567,523.01709,-414.042816,817.125061,539.66571,-444.427094,807.396484,557.240173,-475.301605,803.304749,439.900085,-436.220734,823.001831,419.150787,-458.127228,816.635925,406.943878,-485.555206,806.30304,506.503876,-520.618835,742.61792,460.017303,-520.801392,740.048462,448.376862,-447.04071,739.03833,515.653687,-450.842346,745.756775,515.552917,-515.219177,948.538208,455.302185,-519.398804,947.583923,450.26889,-449.909271,950.48468,515.086243,-451.098785,949.345886,195.045258,63.756413,762.837402,224.62384,57.524166,756.315186,246.777863,53.935608,751.710876,115.072456,39.332733,761.269348,136.943176,17.797132,754.767761,162.872726,-1.137815,747.278442,154.860077,87.02523,774.1521,150.217697,119.515182,764.937927,112.868927,107.344299,777.262024,46.970722,109.282654,791.804993,165.695618,985.963623,1494.13501,217.810287,980.960571,1516.42981,268.71286,993.858337,1498.821777
00314_color_1715971780.338428.png,1631,1715971780.343075,473.932861,-378.576691,816.374329,493.049133,-310.947937,784.728882,527.030212,-333.552887,820.988953,522.249573,-415.365173,819.01355,539.818359,-445.592712,809.384033,557.807251,-476.194458,805.331177,439.435425,-439.927277,823.666626,419.978088,-462.872894,816.385193,410.02597,-491.073853,805.344849,506.780853,-519.067444,741.373535,460.014587,-520.776794,740.036743,448.378235,-447.107727,739.075317,515.669312,-450.837524,745.691101,515.558716,-515.23761,948.532654,455.298279,-519.417908,947.587524,450.268036,-449.908722,950.481689,515.044983,-451.14328,949.333374,195.059143,63.774914,762.850708,224.606079,57.541111,756.351257,246.792221,53.936398,751.718872,115.076027,39.331886,761.253967,136.936996,17.765869,754.75769,162.870377,-1.119217,747.291199,154.841919,87.011345,774.140625,150.19899,119.417046,764.815002,112.888336,107.382668,777.287598,46.987385,109.30883,791.795166,165.701813,985.970215,1494.136353,217.816376,980.96582,1516.430298,268.716583,993.874268,1498.830688
00315_color_1715971780.376975.png,1634,1715971780.373075,473.153107,-379.821777,816.964661,492.180756,-312.250214,785.245178,526.242737,-334.722717,821.465393,521.657166,-416.490448,819.92511,539.542847,-446.417297,810.170593,557.956726,-476.657227,805.981689,439.154449,-441.775635,823.96991,420.253052,-465.198547,816.066772,411.50238,-493.693481,804.570007,506.66214,-520.04718,742.104736,460.010315,-520.783997,740.056091,448.45517,-447.138489,739.100159,515.754578,-450.821625,745.65741,515.557922,-515.224976,948.538452,455.30191,-519.393494,947.591248,450.263641,-449.904572,950.476685,515.058533,-451.157654,949.338989,195.047333,63.764019,762.848877,224.610031,57.535435,756.341797,246.791824,53.943169,751.713135,115.092743,39.353718,761.285645,136.966064,17.790775,754.786011,162.887589,-1.120764,747.293457,154.87059,87.007233,774.115479,150.205643,119.415703,764.808899,112.877289,107.364616,777.271484,46.990116,109.32811,791.810181,165.719025,985.954529,1494.134155,217.813446,980.967468,1516.432373,268.71701,993.869507,1498.834473
00316_color_1715971780.412006.png,1638,1715971780.413075,471.705872,-381.12207,816.903259,491.605225,-314.236023,784.103699,524.388306,-335.548676,821.859985,520.487305,-417.476837,820.914062,538.83429,-447.46933,811.527649,557.292847,-477.984192,807.176819,438.132965,-443.104279,823.376526,419.675842,-467.535156,815.207275,413.266632,-496.860291,802.98999,506.620758,-520.072632,742.173828,460.01825,-520.77417,740.047913,448.385437,-447.184692,739.14563,515.701294,-450.797729,745.575867,515.551636,-515.243591,948.543762,455.290283,-519.405212,947.596619,450.262329,-449.90683,950.48114,515.037476,-451.184998,949.310974,195.055344,63.767456,762.859924,224.602493,57.527649,756.359131,246.794647,53.936115,751.713806,115.085655,39.359661,761.282776,136.957626,17.790121,754.771973,162.883484,-1.133703,747.302002,154.863693,87.060394,774.163025,150.221451,119.512169,764.913269,112.876701,107.368622,777.2677,46.990246,109.342773,791.817505,165.711823,985.953003,1494.132568,217.813583,980.968201,1516.432007,268.716736,993.875916,1498.832031
00317_color_1715971780.449261.png,1642,1715971780.453075,470.863068,-381.815674,817.01947,490.65979,-315.02002,784.287476,523.461304,-336.383392,821.950134,519.809631,-418.250763,821.369751,538.002014,-448.568359,811.845337,555.983704,-479.994415,806.762695,437.215637,-444.073639,823.602661,419.215515,-468.6875,815.089783,413.900635,-498.425903,802.495117,506.477234,-520.630554,742.566833,460.007294,-521.05127,740.058228,447.914398,-447.418274,739.213196,515.261475,-450.7771,745.456909,515.517761,-515.323242,948.540894,455.280487,-519.697021,947.580505,450.0289,-450.164337,950.505981,514.799011,-451.345734,949.244934,195.050751,63.755669,762.84729,224.618637,57.543262,756.343628,246.789948,53.928791,751.711609,115.083176,39.361565,761.285828,137.220062,18.079386,754.761658,162.874542,-1.119641,747.29303,154.879868,87.246902,774.361145,150.21167,119.446846,764.856079,112.874977,107.370216,777.276062,46.984379,109.312889,791.809814,165.678101,985.976562,1494.150269,217.811035,980.964661,1516.430298,268.718567,993.878601,1498.830566
00318_color_1715971780.483201.png,1645,1715971780.483075,470.370911,-382.18573,817.396179,490.123657,-315.552979,784.516174,522.99292,-336.857727,822.024658,519.400574,-418.778076,821.554138,537.491882,-449.329254,811.729736,554.115906,-482.261444,805.381165,437.017914,-445.161102,824.358459,419.728912,-470.123352,815.044495,415.54895,-499.401276,801.831848,506.188873,-520.941467,742.794556,459.917023,-521.526794,740.022339,447.399506,-448.044037,739.262207,514.778442,-450.873871,745.431641,515.370422,-515.512634,948.567932,455.198669,-520.280273,947.591125,449.463806,-450.831268,950.523254,514.389404,-451.457947,949.259888,195.047516,63.748932,762.853394,224.603958,57.525539,756.34668,246.78569,53.935402,751.726318,115.087364,39.353798,761.2948,137.226166,18.050503,754.765381,162.882309,-1.128863,747.309265,154.883209,87.236359,774.365784,150.201523,119.402687,764.801575,112.878143,107.37928,777.301819,46.992241,109.312988,791.812378,165.69194,985.968262,1494.139282,217.813339,980.96814,1516.435425,268.705048,993.85553,1498.823364
00319_color_1715971780.517117.png,1648,1715971780.513075,469.510345,-382.205475,817.411865,489.63089,-316.096619,783.909973,522.058289,-336.967316,821.951172,518.672485,-418.900665,822.077271,536.641113,-449.889496,812.421326,551.987732,-483.819061,805.167236,436.512604,-446.10498,824.192505,420.878876,-472.080444,813.876221,419.69519,-501.342224,799.424744,506.029968,-520.968323,742.690063,459.778778,-521.917847,740.010315,447.108032,-448.445953,739.291443,514.506042,-450.915192,745.415649,515.174622,-515.699646,948.562317,455.089905,-520.661743,947.589722,449.033112,-451.223785,950.523132,514.073914,-451.516449,949.283569,195.034973,63.740826,762.842896,224.623947,57.529945,756.318237,246.788086,53.939831,751.722412,115.062981,39.315536,761.256165,137.219482,18.058563,754.770386,162.876373,-1.134209,747.287415,154.864883,87.036278,774.167297,150.204239,119.398109,764.806702,112.875313,107.368256,777.29071,46.977608,109.281586,791.812378,165.713165,985.948914,1494.12146,217.81601,980.960022,1516.432861,268.70343,993.852783,1498.818359
00320_color_1715971780.551153.png,1652,1715971780.553075,469.098724,-382.296356,817.020203,489.599213,-317.124512,782.61908,521.723267,-337.704102,821.449463,517.610718,-419.322998,822.150391,535.71167,-450.97171,813.275452,548.912476,-486.61557,804.874695,435.915314,-447.521454,824.014893,421.982605,-474.10849,812.075806,424.208649,-501.998352,795.954834,505.744385,-521.081665,742.650208,459.531799,-522.435852,740.031189,447.026825,-448.922821,739.286743,514.436218,-450.905426,745.473816,514.902832,-515.87323,948.573486,454.824829,-521.186707,947.548462,448.496979,-451.726868,950.479187,513.506592,-451.495483,949.397217,195.04686,63.735893,762.830994,224.61792,57.519585,756.322144,246.798401,53.952477,751.729919,115.08197,39.335808,761.277222,137.228531,18.063988,754.766052,162.882736,-1.112174,747.311035,154.853226,87.013916,774.154053,150.202438,119.421753,764.820374,112.875572,107.360634,777.275269,46.971996,109.302742,791.803955,165.709702,985.96051,1494.139282,217.811981,980.96167,1516.435791,268.714813,993.87262,1498.827759
00321_color_1715971780.585068.png,1655,1715971780.583075,468.859467,-382.316925,816.549927,489.924377,-317.745697,781.529114,521.498108,-338.124084,821.063232,517.263367,-419.487579,822.479858,535.03363,-450.097107,813.140198,546.876282,-487.652008,804.690613,435.311249,-446.351074,822.836853,422.136414,-474.132874,810.890564,425.749359,-502.166809,794.848206,505.737488,-521.104492,742.606201,459.534088,-522.565063,740.013916,447.032715,-449.043915,739.325745,514.451965,-450.903931,745.455261,514.886414,-515.939087,948.575623,454.82547,-521.300476,947.555115,448.426605,-451.831757,950.488403,513.451904,-451.543488,949.418274,195.031555,63.730553,762.817017,224.643906,57.530098,756.307312,246.790192,53.931854,751.706848,115.078812,39.352406,761.273071,137.230392,18.066847,754.769836,162.884552,-1.124814,747.289612,154.812683,87.011803,774.142212,150.205688,119.445137,764.849731,112.874802,107.345535,777.266418,46.979538,109.278717,791.790527,165.734268,985.947205,1494.126465,217.813736,980.967163,1516.433838,268.715393,993.860596,1498.82373
00322_color_1715971780.619111.png,1659,1715971780.623075,469.037903,-382.219543,816.094482,490.587799,-318.681213,780.259705,521.557373,-338.734222,820.325745,517.194214,-419.640198,822.564453,535.047791,-451.502869,814.47937,543.992676,-490.395874,804.878357,434.862122,-446.781464,823.061218,422.151459,-474.363007,810.259521,426.576782,-502.336548,793.867126,505.850861,-520.922791,742.390198,459.508362,-522.589478,740.015686,447.145813,-449.133789,739.363342,514.575378,-450.894928,745.427124,514.88739,-515.939575,948.569824,454.821533,-521.302612,947.576782,448.427887,-451.843079,950.486084,513.42865,-451.5224,949.443481,195.024063,63.726223,762.82373,224.648727,57.519611,756.299622,246.805176,53.959194,751.71759,115.078262,39.309845,761.254761,137.225906,18.067122,754.766724,162.885391,-1.123858,747.305481,154.855026,87.031685,774.146057,150.189453,119.413536,764.817139,112.861221,107.34063,777.265259,46.970604,109.268547,791.796143,165.717056,985.947388,1494.123535,217.811996,980.96698,1516.43335,268.710632,993.862305,1498.823853
00323_color_1715971780.653075.png,1662,1715971780.653075,469.131378,-382.210205,815.925964,490.760162,-318.95694,779.923096,521.467712,-339.082764,820.115173,517.055115,-419.829163,822.523682,535.052429,-452.405823,815.280884,542.344055,-491.548798,804.376282,434.62561,-446.86911,822.932007,422.177002,-474.460693,809.785583,426.904449,-502.214081,793.23938,505.934479,-520.787292,742.28656,459.52887,-522.582642,740.013672,447.012665,-449.054504,739.404907,514.455017,-450.732819,745.361572,514.860657,-515.913269,948.582581,454.801056,-521.306458,947.552246,448.371185,-451.815277,950.496216,513.376221,-451.494843,949.417847,195.030472,63.752457,762.836792,224.641724,57.540028,756.308899,246.795837,53.964535,751.722839,115.080009,39.365185,761.26355,137.247681,18.086803,754.778809,162.886246,-1.101929,747.301086,154.853226,87.091972,774.203369,150.169235,119.298141,764.70105,112.871323,107.353745,777.26416,46.971813,109.268242,791.790161,165.705032,985.963074,1494.130371,217.810867,980.968628,1516.429688,268.709473,993.871948,1498.826416
00324_color_1715971780.686883.png,1665,1715971780.683075,469.529938,-382.161377,816.109253,490.938965,-319.206024,779.940063,521.363892,-339.344177,820.122742,517.125427,-420.116882,822.5979,535.063477,-452.754303,815.553223,540.630676,-492.584656,803.834656,434.720581,-446.965179,823.157104,422.332214,-474.562408,810.083313,426.841705,-502.317017,793.504456,505.896759,-520.700073,742.405579,459.326416,-521.73822,739.318298,446.772278,-449.17514,739.404297,514.218201,-450.555237,745.413025,514.489502,-515.743958,948.678894,454.422241,-521.390808,947.529541,447.784515,-451.921265,950.466553,512.656677,-451.398254,949.50708,195.033936,63.727699,762.825684,224.627762,57.536785,756.318604,246.800476,53.955948,751.734802,115.089813,39.351273,761.28009,137.229858,18.076668,754.779541,162.890686,-1.116053,747.30188,154.890594,87.257996,774.386047,150.195496,119.413361,764.804932,112.875458,107.365547,777.283325,46.969173,109.273529,791.799316,165.690781,985.971436,1494.141479,217.818024,980.965454,1516.430542,268.705994,993.866516,1498.829468
00325_color_1715971780.720819.png,1669,1715971780.723075,469.793762,-382.198151,816.503296,491.173584,-319.634033,780.307007,521.374756,-339.818359,820.654541,517.02655,-420.528412,823.04303,534.990662,-453.080902,816.096497,539.359863,-493.409637,803.129028,434.75531,-447.120056,823.305481,422.524139,-474.647278,810.285706,426.976074,-502.813995,793.896118,505.930664,-520.416626,742.111328,459.462219,-522.726746,740.025452,446.30304,-449.532257,739.453857,513.778442,-450.376801,745.252136,514.741028,-515.461243,948.568298,454.730957,-521.522888,947.579407,447.66391,-452.101044,950.474609,512.540222,-451.103485,949.403137,195.048676,63.744038,762.83374,224.639038,57.525066,756.322266,246.810318,53.964386,751.724609,115.095757,39.348232,761.287109,137.253998,18.084875,754.769775,162.886627,-1.111221,747.317078,154.852524,87.053238,774.146729,150.225021,119.561523,764.970398,112.870331,107.35807,777.281067,46.962013,109.263451,791.793091,165.696548,985.962891,1494.13855,217.813065,980.957336,1516.426147,268.711578,993.867859,1498.828003
00326_color_1715971780.760613.png,1673,1715971780.763075,470.041809,-381.843353,817.299011,491.370728,-319.580444,781.129822,521.300171,-339.968689,821.473633,517.212097,-420.180634,823.968506,534.793945,-453.038971,816.776672,538.108215,-493.770691,803.18512,434.853058,-447.341187,823.879517,422.498077,-474.44104,810.718628,426.604126,-502.48056,794.207031,505.470032,-520.386108,742.229492,458.970245,-522.531128,740.063049,445.648224,-449.328827,739.563782,513.143127,-450.164215,745.159729,514.415527,-515.371765,948.567871,454.363251,-521.413086,947.581543,447.284271,-452.003174,950.541138,512.123718,-451.179779,949.362854,195.032913,63.728714,762.823181,224.628342,57.534248,756.316956,246.802292,53.963238,751.729553,115.074905,39.359352,761.284119,137.231277,18.092096,754.774719,162.879395,-1.112696,747.307007,154.83725,87.027115,774.151306,150.213623,119.517166,764.927795,112.86322,107.355484,777.279724,46.967033,109.265274,791.788818,165.705154,985.957764,1494.138672,217.806335,980.962036,1516.434937,268.717529,993.87677,1498.84375
00327_color_1715971780.797982.png,1676,1715971780.793075,469.958618,-380.998596,817.696411,491.391083,-319.047607,781.673462,521.173523,-339.681244,821.988403,516.878906,-419.532776,824.459595,534.215271,-452.547363,817.380859,537.247375,-493.33429,803.528992,434.641907,-446.497833,824.522644,421.960785,-473.815277,811.626587,426.117645,-501.643494,794.747864,504.740417,-519.050903,741.919922,457.934692,-521.405029,740.293335,444.847229,-448.367676,740.374268,512.370544,-449.505188,745.584167,514.244019,-516.194458,948.50415,454.220795,-522.03241,947.761719,447.352631,-452.589172,951.289246,512.192139,-452.224426,949.812073,195.04187,63.739239,762.829712,224.565689,57.474514,756.311279,246.805008,53.977478,751.737976,115.075569,39.337418,761.279297,137.23822,18.083981,754.777039,162.868042,-1.129369,747.299133,154.8526,87.084923,774.19458,150.204224,119.46109,764.867065,112.863014,107.343857,777.278564,46.959328,109.253784,791.799927,165.709183,985.948853,1494.128296,217.813782,980.961487,1516.42981,268.7164,993.867981,1498.829468
00328_color_1715971780.832581.png,1680,1715971780.833075,469.702667,-378.926147,818.302307,491.30011,-317.542267,782.384949,520.877686,-338.624756,822.537598,516.245361,-418.007599,825.339478,533.178833,-451.356903,818.633118,535.462402,-492.32547,804.762329,433.595764,-443.585541,825.921448,420.915375,-471.728241,813.346008,425.056396,-499.504669,796.074341,502.968903,-514.391418,741.132935,456.058716,-517.631836,740.339661,443.983246,-444.375793,742.761658,511.52533,-445.958496,747.638184,513.396973,-519.188232,948.347778,453.413788,-524.560913,947.66748,447.038239,-455.278015,953.386353,511.935181,-455.050537,951.736816,195.041229,63.756451,762.840332,224.6465,57.53336,756.318542,246.794434,53.965668,751.72052,115.082809,39.351166,761.281738,137.233688,18.076084,754.766235,162.883072,-1.11256,747.292786,154.84967,87.06662,774.186462,150.15123,119.296211,764.694458,112.864037,107.366402,777.283447,46.95438,109.247879,791.779724,165.696045,985.960632,1494.126587,217.813843,980.964966,1516.432129,268.706635,993.857727,1498.813721
00329_color_1715971780.866728.png,1683,1715971780.863075,469.496704,-376.753967,818.798889,490.802612,-315.696472,782.760437,520.622131,-337.227783,822.653992,515.866577,-415.963043,825.99231,532.208496,-449.683167,819.404419,533.721008,-491.005005,805.590454,433.123871,-441.3172,827.627869,420.107391,-468.893951,815.492615,423.892426,-496.781158,797.781555,500.534698,-509.964172,740.627197,453.69101,-512.605286,740.35321,441.950409,-439.185242,745.91333,509.548492,-441.455414,749.635864,513.903687,-522.50531,947.56488,453.633911,-527.281555,947.412476,448.038391,-458.095734,955.874146,512.852783,-458.350098,953.252991,195.056946,63.765728,762.83844,224.665649,57.563892,756.307129,246.803314,53.968678,751.732117,115.090042,39.343998,761.27179,137.233658,18.084103,754.766907,162.884506,-1.125169,747.29657,154.846115,87.062248,774.175964,150.186539,119.398155,764.807068,112.870674,107.347687,777.288513,46.957981,109.226677,791.79126,165.704041,985.963074,1494.139526,217.814896,980.96521,1516.429077,268.710571,993.860535,1498.824829
00330_color_1715971780.900859.png,1687,1715971780.903075,468.480438,-372.946106,819.918213,489.386566,-312.447479,783.678894,520.01123,-334.870392,823.017883,514.429382,-412.512512,826.681152,530.365906,-446.815125,820.552734,531.026062,-488.00528,806.839966,431.744568,-437.757416,829.559875,418.113983,-464.798218,817.325562,421.886566,-492.579559,799.244995,497.574738,-504.124115,740.702026,450.697235,-505.773132,740.396606,440.223267,-432.911896,749.164673,507.825073,-435.824738,752.401428,512.065063,-525.381165,946.481934,451.860474,-529.418884,946.686218,446.964386,-460.887268,958.044678,511.8302,-461.359253,955.158386,195.032654,63.734539,762.7995,224.676956,57.567276,756.316467,246.790665,53.976776,751.727539,115.079521,39.343159,761.272766,137.241119,18.084152,754.757019,162.877792,-1.123545,747.285217,154.835175,87.044327,774.152832,150.195129,119.424187,764.815918,112.864555,107.367844,777.291382,46.962593,109.277611,791.804993,165.710861,985.953186,1494.144409,217.811646,980.969543,1516.429443,268.7146,993.878174,1498.828369
