mbdulkadiroglu/VisualAffordanceDataset/synchronized_frames_1.csv
RealSense_frame,Vicon_frame,Vicon_timestamp,RightHand1:Wrist1_X,RightHand1:Wrist1_Y,RightHand1:Wrist1_Z,RightHand1:Wrist2_X,RightHand1:Wrist2_Y,RightHand1:Wrist2_Z,RightHand1:Wrist3_X,RightHand1:Wrist3_Y,RightHand1:Wrist3_Z,RightHand1:Thumb1_X,RightHand1:Thumb1_Y,RightHand1:Thumb1_Z,RightHand1:Thumb2_X,RightHand1:Thumb2_Y,RightHand1:Thumb2_Z,RightHand1:Thumb3_X,RightHand1:Thumb3_Y,RightHand1:Thumb3_Z,RightHand1:IndexFinger1_X,RightHand1:IndexFinger1_Y,RightHand1:IndexFinger1_Z,RightHand1:IndexFinger2_X,RightHand1:IndexFinger2_Y,RightHand1:IndexFinger2_Z,RightHand1:IndexFinger3_X,RightHand1:IndexFinger3_Y,RightHand1:IndexFinger3_Z,Realsense:Camera1_X,Realsense:Camera1_Y,Realsense:Camera1_Z,Realsense:Camera2_X,Realsense:Camera2_Y,Realsense:Camera2_Z,Realsense:Camera3_X,Realsense:Camera3_Y,Realsense:Camera3_Z,LeftHand1:IndexFinger1_X,LeftHand1:IndexFinger1_Y,LeftHand1:IndexFinger1_Z,LeftHand1:IndexFinger2_X,LeftHand1:IndexFinger2_Y,LeftHand1:IndexFinger2_Z,LeftHand1:IndexFinger3_X,LeftHand1:IndexFinger3_Y,LeftHand1:IndexFinger3_Z,LeftHand1:Thumb1_X,LeftHand1:Thumb1_Y,LeftHand1:Thumb1_Z,LeftHand1:Thumb2_X,LeftHand1:Thumb2_Y,LeftHand1:Thumb2_Z,LeftHand1:Thumb3_X,LeftHand1:Thumb3_Y,LeftHand1:Thumb3_Z,LeftHand1:Wrist1_X,LeftHand1:Wrist1_Y,LeftHand1:Wrist1_Z,LeftHand1:Wrist2_X,LeftHand1:Wrist2_Y,LeftHand1:Wrist2_Z,LeftHand1:Wrist3_X,LeftHand1:Wrist3_Y,LeftHand1:Wrist3_Z,LeftHand1:Wrist4_X,LeftHand1:Wrist4_Y,LeftHand1:Wrist4_Z,CerealBox:Corner1_X,CerealBox:Corner1_Y,CerealBox:Corner1_Z,CerealBox:Corner2_X,CerealBox:Corner2_Y,CerealBox:Corner2_Z,CerealBox:Corner3_X,CerealBox:Corner3_Y,CerealBox:Corner3_Z,CerealBox:Corner4_X,CerealBox:Corner4_Y,CerealBox:Corner4_Z,CerealBox:Corner5_X,CerealBox:Corner5_Y,CerealBox:Corner5_Z,CerealBox:Corner6_X,CerealBox:Corner6_Y,CerealBox:Corner6_Z,CerealBox:Corner7_X,CerealBox:Corner7_Y,CerealBox:Corner7_Z,CerealBox:Corner8_X,CerealBox:Corner8_Y,CerealBox:Corner8_Z
00031_color_1715712255.201187.png,1551,1715712255.205461,-396.66922,1067.785156,914.711975,-459.118561,1059.1521,923.990967,-426.470978,1101.096191,937.11908,-373.66394,1120.041382,899.550537,-342.335907,1118.460327,876.56665,-313.152588,1103.029907,860.960754,-330.287109,1050.684082,892.707947,-310.191315,1036.245728,877.192932,-289.548279,1026.14978,857.165466,295.051697,958.175842,1497.21582,241.48999,949.030762,1512.41748,189.272171,964.933777,1490.334106,89.605286,259.057617,766.219238,119.647682,249.372009,759.551147,141.288483,244.038589,751.893494,8.833119,242.966141,760.614014,30.382217,220.590012,753.611877,56.775936,202.865906,747.252808,53.228405,284.125702,777.990967,49.849159,318.978333,770.901489,19.502535,308.634674,780.748535,-40.421848,329.451904,792.271362,538.984253,-411.905792,1006.10553,544.00885,-324.402924,1004.346252,368.312073,-304.359955,1002.939453,362.934326,-389.988007,1002.787231,539.401062,-409.384338,738.521118,549.208252,-320.928986,740.309448,372.343445,-305.953888,738.904785,361.517029,-393.361176,738.175171
00032_color_1715712255.236767.png,1554,1715712255.235461,-397.909058,1068.090576,917.741516,-460.279449,1059.588379,927.015015,-427.678558,1101.599487,939.990295,-374.478271,1120.547607,902.807251,-343.287598,1118.66394,879.657349,-314.03714,1103.189331,864.287964,-330.991516,1051.167358,896.493713,-311.08078,1036.492188,880.74054,-290.542786,1026.240845,860.758179,295.059174,958.199646,1497.221313,241.498093,949.029297,1512.41272,189.2789,964.969543,1490.341431,89.608742,259.288147,766.192688,119.651581,249.61467,759.584167,141.286057,244.183807,751.940247,8.902183,243.246628,760.677429,30.419176,220.854034,753.670593,56.747612,203.112854,747.330872,53.257324,284.351379,777.968933,49.90414,319.197144,770.895203,19.473408,308.908447,780.826904,-40.588543,329.540344,792.357849,539.001038,-411.949219,1006.11499,544.039734,-324.43161,1004.333984,368.358459,-304.452698,1002.912415,362.950592,-390.013763,1002.789612,539.417725,-409.347992,738.506409,549.240479,-320.905457,740.322876,372.361664,-305.940918,738.892822,361.528595,-393.320923,738.189697
00033_color_1715712255.276932.png,1558,1715712255.275461,-399.62204,1068.126343,922.667358,-462.101624,1059.96875,931.703857,-429.417328,1101.901245,944.471191,-375.937714,1120.336426,907.380066,-344.681793,1118.133789,884.395691,-315.288025,1102.434937,869.310608,-333.079529,1050.465576,901.484009,-312.667084,1035.927612,886.55481,-292.234863,1025.236206,866.551514,295.062714,958.197632,1497.21936,241.495438,949.033691,1512.412598,189.28009,964.979004,1490.330688,89.497978,259.524658,766.182129,119.511642,249.821884,759.590088,141.182312,244.379547,751.998718,8.769078,243.780914,760.237976,30.305902,221.002213,753.584595,56.717419,203.315277,747.336304,53.116947,284.588989,777.870178,49.807159,319.384125,770.815613,19.16658,309.072876,780.709595,-41.091755,329.311035,792.211914,539.009399,-411.931976,1006.137817,544.042786,-324.387024,1004.338623,368.37738,-304.386322,1002.924316,362.956024,-389.973785,1002.797119,539.409851,-409.352264,738.516541,549.228027,-320.913116,740.304932,372.360229,-305.924805,738.894592,361.548126,-393.317444,738.190857
00034_color_1715712255.312595.png,1562,1715712255.3154612,-402.029144,1067.674683,928.139587,-464.629944,1060.021606,936.778748,-431.666351,1101.865845,949.311035,-377.974731,1119.462158,912.293884,-346.368713,1116.892944,889.822815,-317.04953,1100.717896,874.954712,-335.526337,1049.239014,907.632812,-315.267487,1034.280396,892.861084,-294.557068,1023.364441,873.224792,295.053284,958.173584,1497.207764,241.505798,948.997437,1512.472778,189.277435,964.939941,1490.326294,89.472076,259.488251,766.198853,119.478867,249.781403,759.575073,141.154297,244.34845,751.974304,8.74283,243.645294,760.133057,30.240681,220.902817,753.47345,56.656479,203.209686,747.255859,53.033436,284.481995,777.886658,49.750988,319.293488,770.865967,18.950781,308.943024,780.748291,-41.468922,328.95163,792.187012,539.026855,-411.844604,1006.146667,544.045715,-324.334259,1004.330261,368.371948,-304.310577,1002.920532,362.974976,-389.883881,1002.805115,539.408508,-409.325409,738.525818,549.244995,-320.894043,740.299988,372.373718,-305.919373,738.897583,361.547577,-393.304413,738.2005
00035_color_1715712255.347759.png,1565,1715712255.3454611,-404.273407,1067.199829,932.292969,-466.920288,1060.095703,940.786743,-433.724121,1101.835938,953.135071,-379.993286,1118.504395,915.838318,-347.95517,1115.805542,893.938049,-318.841675,1099.2052,879.289368,-337.81955,1048.126587,912.24707,-317.564087,1032.901123,897.791626,-296.904846,1021.638489,878.308472,295.059082,958.195129,1497.218262,241.510742,948.960999,1512.555054,189.276306,964.99176,1490.357788,89.598816,259.446442,766.240417,119.636574,249.766693,759.614014,141.280365,244.340958,751.955139,8.994401,243.817871,760.093811,30.348459,220.935654,753.494385,56.757721,203.224884,747.260681,53.166008,284.503754,777.948364,49.887306,319.29425,770.909973,19.04632,308.970764,780.76825,-41.409019,328.905182,792.159546,539.079346,-411.836761,1006.125122,544.103455,-324.357391,1004.287231,368.48996,-304.43454,1002.875183,363.054932,-389.847351,1002.820862,539.437317,-409.267944,738.521851,549.252258,-320.887817,740.291626,372.396942,-305.882904,738.906128,361.564484,-393.271698,738.226379
00036_color_1715712255.383081.png,1569,1715712255.385461,-407.913116,1066.64978,937.847107,-470.709137,1060.194336,946.003662,-437.12088,1101.790894,957.993103,-383.158539,1117.429321,920.690002,-351.279022,1113.947754,898.756775,-322.019318,1097.046875,884.690491,-341.478363,1046.750244,918.462952,-321.328522,1031.090576,904.316467,-300.606689,1019.33667,885.195068,295.050873,958.190125,1497.21875,241.382721,948.360046,1512.79895,189.264404,964.968994,1490.338989,89.734642,259.400146,766.216187,119.785316,249.732666,759.568298,141.416275,244.302353,751.929565,8.917909,243.716553,759.953796,30.440969,220.95253,753.42511,56.84737,203.199707,747.244629,53.274944,284.456787,777.883972,50.023083,319.267151,770.915955,19.126921,308.932617,780.756775,-41.380863,328.794159,792.066589,539.051392,-411.849335,1006.110657,544.06134,-324.351471,1004.331238,368.402466,-304.374969,1002.90155,362.984802,-389.918762,1002.79425,539.432495,-409.303406,738.527344,549.265991,-320.893738,740.312622,372.401855,-305.901581,738.892273,361.580078,-393.308105,738.19519
00037_color_1715712255.419180.png,1572,1715712255.415461,-411.251282,1066.097656,941.724487,-474.080414,1060.389526,949.873657,-440.051147,1101.772827,961.57843,-385.71991,1116.619751,924.451477,-353.894836,1112.47168,902.495239,-324.931549,1095.006836,888.564087,-344.931305,1045.254883,922.748535,-324.909485,1029.25647,908.852905,-304.268188,1017.108215,889.904602,295.053833,958.195312,1497.230835,241.161606,948.115417,1512.454956,189.276291,964.965027,1490.346802,89.928589,259.459167,766.221069,119.973015,249.813889,759.601562,141.575729,244.36377,751.932068,9.050667,243.756927,760.003052,30.544077,221.0849,753.454773,56.896858,203.25145,747.295898,53.483929,284.555664,777.899475,50.237865,319.368622,770.924133,19.319866,309.074371,780.766479,-41.250565,328.881927,792.064575,539.091125,-411.89798,1006.121399,544.096069,-324.40686,1004.31012,368.484192,-304.491852,1002.874512,363.058929,-389.920776,1002.790955,539.46283,-409.321686,738.513733,549.265198,-320.878754,740.308655,372.416107,-305.912079,738.908264,361.592041,-393.309753,738.167297
00038_color_1715712255.456970.png,1576,1715712255.455461,-415.689117,1065.998413,947.066345,-479.128998,1061.023193,954.823364,-444.549927,1101.875732,966.007202,-389.733826,1115.267334,928.936157,-358.059326,1110.179932,906.981506,-329.139893,1092.250488,893.642395,-350.254181,1043.104248,928.28894,-330.558228,1026.253052,914.782043,-309.64682,1014.164185,896.318787,295.055145,958.185425,1497.21582,241.166809,948.133972,1512.464355,189.27832,964.973206,1490.342407,90.544113,259.800385,766.250732,120.573067,250.101334,759.614258,142.106262,244.640854,751.966553,9.904142,244.534897,759.845337,30.925396,221.521194,753.496643,57.160713,203.523895,747.421936,54.023479,285.085144,777.800659,50.846371,319.939728,770.793823,19.780336,309.602325,780.439087,-40.755508,329.325165,791.697266,539.089417,-411.882019,1006.102661,544.094116,-324.389679,1004.319458,368.461914,-304.447937,1002.884155,363.049713,-389.905579,1002.789734,539.443909,-409.286346,738.523376,549.281067,-320.874573,740.318909,372.41745,-305.90741,738.907349,361.596039,-393.287018,738.174316
00039_color_1715712255.490770.png,1580,1715712255.495461,-421.66571,1064.932007,951.682861,-484.752136,1061.996704,959.542053,-448.830444,1102.418091,970.975586,-394.127075,1113.823853,933.155945,-362.489685,1107.802734,911.392212,-333.925171,1089.025635,898.385193,-356.036591,1041.078735,933.824463,-336.515503,1023.905762,920.469727,-316.381195,1010.370239,901.906982,295.049744,958.17749,1497.216553,241.171555,948.132507,1512.457764,189.283035,965.002808,1490.357544,91.317215,260.445679,766.307922,121.335541,250.707092,759.665344,142.918457,245.192429,752.044006,10.691793,245.168777,759.864624,31.895422,222.715363,753.548462,57.848156,203.920502,747.585327,54.600128,285.804443,777.53833,51.604,320.698059,770.522949,20.511032,310.379242,779.928711,-40.145866,329.772491,791.075745,539.110229,-411.839203,1006.111389,544.114624,-324.371399,1004.292358,368.503021,-304.448853,1002.862793,363.067749,-389.88974,1002.810486,539.473083,-409.271912,738.505188,549.281799,-320.880249,740.297485,372.421082,-305.894073,738.904846,361.631134,-393.300049,738.177917
00040_color_1715712255.524904.png,1583,1715712255.525461,-426.129883,1064.821289,955.065674,-489.378662,1063.173462,962.720215,-452.132538,1103.595947,974.277039,-397.488098,1113.036133,936.226379,-365.872772,1106.279297,914.786072,-337.627106,1086.884644,902.022156,-361.065125,1039.43335,937.473938,-341.781158,1021.942505,924.403809,-321.659363,1007.985229,906.182495,295.055542,958.17804,1497.206299,241.173859,948.13147,1512.457275,189.273605,964.964661,1490.335205,91.726929,260.764771,766.330383,121.74604,251.083344,759.743774,143.349564,245.50769,752.078857,11.173098,245.787247,759.740479,32.189934,223.033875,753.519043,58.182339,204.147964,747.649109,54.947651,286.274933,777.442505,52.034153,321.082031,770.284485,20.867271,310.787018,779.646179,-39.8363,329.961426,790.777771,539.140625,-411.850372,1006.092529,544.139404,-324.357086,1004.271851,368.530914,-304.449188,1002.865906,363.071777,-389.910339,1002.832153,539.470825,-409.299164,738.495972,549.300354,-320.87323,740.298401,372.431152,-305.898499,738.904724,361.619324,-393.299744,738.178345
00041_color_1715712255.558878.png,1586,1715712255.555461,-430.838806,1065.136719,958.181702,-494.098022,1064.96521,965.76947,-455.835876,1104.991577,977.16925,-401.165314,1112.681152,939.150879,-369.594269,1105.01416,917.768982,-341.860016,1084.826538,905.08783,-366.183746,1038.325195,940.799377,-347.155243,1020.393616,927.811707,-327.488312,1005.919922,909.514465,295.054199,958.184937,1497.215332,241.173416,948.132812,1512.453125,189.281113,964.963257,1490.324341,91.734932,260.789001,766.328247,121.765625,251.087692,759.726501,143.362518,245.512497,752.081787,11.117592,245.80835,759.420898,32.169704,223.099365,753.420227,58.1175,204.073929,747.548157,54.872158,286.29425,777.341736,52.018402,321.063263,770.152222,20.766203,310.760559,779.367432,-40.031403,329.636353,790.438843,539.064514,-411.867645,1006.129761,544.090393,-324.349579,1004.304199,368.448334,-304.381653,1002.886536,363.032196,-389.893127,1002.793457,539.447083,-409.287567,738.499695,549.290283,-320.888031,740.297302,372.430023,-305.872192,738.894043,361.607666,-393.288727,738.16571
00042_color_1715712255.593046.png,1590,1715712255.5954611,-437.43808,1066.345459,961.457214,-500.900269,1068.109619,968.90802,-462.884064,1106.157959,979.099243,-406.458923,1112.981812,942.308228,-375.087982,1104.349487,921.064758,-347.983459,1083.245483,908.393738,-373.19873,1037.824829,944.190186,-354.907684,1019.353882,930.747925,-335.454071,1004.622131,912.541321,295.049652,958.187256,1497.206299,241.180496,948.154358,1512.463257,189.28476,964.992798,1490.343506,91.990196,261.064667,766.293274,122.012115,251.331573,759.731445,143.60466,245.71228,752.124207,11.247655,245.914841,759.179688,32.249584,223.248474,753.39679,58.234215,204.007324,747.533264,54.967052,286.542023,777.165649,52.163868,321.308624,769.836121,20.772964,310.933258,778.798889,-40.278881,329.100555,789.873169,539.119385,-411.893616,1006.091614,544.12439,-324.384827,1004.283325,368.529877,-304.495209,1002.854797,363.055664,-389.899689,1002.806641,539.436707,-409.284637,738.479492,549.299927,-320.869904,740.303711,372.425232,-305.912964,738.89032,361.604004,-393.294556,738.180542
00043_color_1715712255.626976.png,1593,1715712255.625461,-442.810028,1068.156494,963.033875,-506.181366,1071.452515,970.617493,-467.397552,1108.737427,980.822449,-410.754486,1114.220337,944.058228,-379.689545,1104.846069,922.714844,-352.347931,1083.729614,910.858826,-379.092896,1038.360962,945.835022,-361.030609,1019.562378,932.440186,-341.908691,1004.436035,914.173462,295.052673,958.205933,1497.221191,241.158157,948.124939,1512.45166,189.271088,964.950623,1490.330322,92.221573,261.276764,766.105286,122.257515,251.474625,759.645325,143.890549,245.888474,752.138489,11.325182,245.836456,758.943665,32.368164,223.159882,753.324707,58.408043,203.858154,747.493103,55.074368,286.677704,776.801025,52.22422,321.455872,769.466614,20.823172,310.909973,778.257385,-40.402275,328.350128,789.435242,539.102356,-411.90918,1006.089355,544.112427,-324.39563,1004.301331,368.517426,-304.525024,1002.852905,363.034546,-389.942902,1002.776367,539.472534,-409.312439,738.483643,549.285767,-320.900757,740.283203,372.446716,-305.893494,738.887573,361.61969,-393.293457,738.167542
00044_color_1715712255.661005.png,1597,1715712255.665461,-450.10849,1072.171509,964.164551,-513.561829,1076.861694,971.689575,-473.91864,1113.303467,981.800781,-417.281616,1117.32605,944.866211,-386.228485,1107.405884,923.710327,-359.851532,1085.215454,911.2901,-387.028687,1041.017334,946.933289,-368.959869,1022.12677,933.885376,-350.629822,1006.246094,915.137329,295.058136,958.189209,1497.205078,241.164215,948.141479,1512.455322,189.284256,964.964355,1490.334473,92.317085,261.252686,765.817627,122.375519,251.430206,759.521545,144.061523,245.819244,752.146851,11.209742,245.710037,758.644287,32.354523,223.005157,753.247925,58.417458,203.656204,747.435242,55.245682,286.609161,776.393677,52.343544,321.011505,768.557007,20.800451,310.766449,777.647339,-40.645336,327.406097,788.99762,539.154114,-411.917511,1006.072266,544.150452,-324.413635,1004.271179,368.579895,-304.586609,1002.818237,363.092926,-389.920898,1002.788086,539.464294,-409.282043,738.470032,549.293762,-320.923492,740.255798,372.45163,-305.91925,738.882385,361.621796,-393.293121,738.185547
00045_color_1715712255.694594.png,1600,1715712255.695461,-455.91507,1075.956055,963.884583,-519.263672,1081.781128,971.679565,-479.031311,1117.502075,981.646118,-423.019989,1120.043823,944.396301,-391.36203,1110.53894,923.713745,-365.483246,1087.861816,911.042664,-393.27417,1043.906128,946.460327,-375.66684,1024.751709,933.18219,-357.316376,1008.839355,914.671021,295.053314,958.190247,1497.215332,241.166443,948.120117,1512.44812,189.266037,964.949341,1490.325073,92.729012,261.390533,765.670288,122.73185,251.501556,759.489685,144.441757,245.789261,752.191223,11.376668,245.630386,758.549316,32.535381,222.839157,753.245728,58.659527,203.434464,747.475464,55.521519,286.888336,776.150269,52.520153,321.035431,767.910156,21.052528,310.73999,776.928223,-40.545238,326.777405,788.477112,539.143738,-411.872101,1006.052734,544.126892,-324.400177,1004.289124,368.528534,-304.488739,1002.853149,363.033173,-389.996582,1002.776489,539.493835,-409.301849,738.44696,549.296387,-320.929626,740.258423,372.458923,-305.92041,738.872192,361.634735,-393.320099,738.155762
00046_color_1715712255.728280.png,1603,1715712255.725461,-462.103027,1080.418579,962.468201,-525.03241,1087.096802,970.533875,-484.431061,1122.309204,980.414734,-427.895355,1124.689697,943.551453,-397.10434,1114.027222,922.288025,-371.084869,1091.404175,910.076111,-400.034698,1047.416748,944.84613,-382.575928,1028.176514,931.564514,-364.512848,1012.023438,912.697449,295.054749,958.195862,1497.216309,241.171448,948.139587,1512.453613,189.271591,964.949463,1490.311523,92.914574,261.344971,765.541931,122.930145,251.448608,759.430908,144.639603,245.698959,752.203247,11.364341,245.452515,758.40155,32.575363,222.590591,753.220276,58.780113,203.084778,747.424683,55.580315,286.852448,775.849731,52.613388,320.880646,767.508179,21.130772,310.527405,776.189209,-40.574291,325.831879,788.008423,539.210144,-411.883575,1006.02832,544.182251,-324.40799,1004.245178,368.645233,-304.631989,1002.778381,363.112823,-389.97345,1002.779114,539.50177,-409.324432,738.439514,549.312805,-320.922485,740.247192,372.472565,-305.91806,738.886963,361.648773,-393.325531,738.148865
00047_color_1715712255.762057.png,1607,1715712255.765461,-471.214111,1086.904175,958.431396,-534.308777,1095.846436,966.935913,-492.149658,1129.14209,976.701538,-435.729279,1130.964355,939.702515,-405.71698,1119.263306,917.907288,-380.14978,1096.276855,905.592346,-410.061829,1052.565186,940.106262,-393.080353,1033.05835,926.704041,-374.996429,1017.224915,908.501099,295.056671,958.193359,1497.223022,241.165283,948.122925,1512.44519,189.277328,964.928955,1490.290039,93.074181,261.306091,765.712463,123.086853,251.459991,759.520203,144.800644,245.670303,752.234863,11.338213,245.268204,758.315308,32.517776,222.27446,753.180054,58.811268,202.689957,747.394531,55.46698,286.746185,775.6651,52.579155,320.700592,767.273621,20.846451,310.274994,775.540894,-40.87812,324.444061,787.531738,539.176514,-411.941772,1006.036072,544.154602,-324.399506,1004.268066,368.641022,-304.666565,1002.769104,363.087372,-390.027069,1002.751221,539.508484,-409.347076,738.436584,549.323364,-320.937866,740.241028,372.473236,-305.930328,738.852783,361.648865,-393.324646,738.138306
00048_color_1715712255.796107.png,1610,1715712255.795461,-478.460144,1092.088623,954.206177,-541.390259,1102.087158,963.289978,-497.696014,1134.180054,972.97998,-442.50058,1135.520508,935.062378,-413.481781,1122.740967,912.630127,-387.916412,1099.928833,900.237732,-418.147308,1056.747314,935.17157,-401.92157,1036.742432,921.179077,-384.505829,1020.459045,902.437805,295.057312,958.197021,1497.210815,241.161896,948.127808,1512.444214,189.287811,964.97168,1490.318359,93.19313,261.676849,765.637695,123.247246,251.745377,759.572205,144.947922,245.869125,752.315247,11.374111,245.346985,758.355286,32.603851,222.327164,753.30719,58.884075,202.66925,747.433838,55.569977,287.043182,775.542603,52.649223,320.962952,767.096497,20.938316,310.477386,775.214233,-40.820969,323.943817,787.515198,539.216125,-411.961487,1006.017334,544.189514,-324.446899,1004.25885,368.661743,-304.716583,1002.772095,363.133209,-389.999573,1002.743469,539.516052,-409.346313,738.43042,549.340881,-320.946442,740.237061,372.492676,-305.95459,738.862427,361.660492,-393.335999,738.1297
00049_color_1715712255.829885.png,1613,1715712255.8254611,-486.319275,1097.320679,949.146851,-548.828979,1108.590576,958.838135,-505.475342,1140.423096,967.864685,-449.567383,1139.91333,929.878357,-420.616364,1127.047485,907.355774,-396.206146,1103.345337,894.355957,-427.114197,1060.571533,929.220825,-411.480255,1040.377563,915.046387,-394.511902,1023.837097,896.157104,295.058258,958.202515,1497.216309,241.167923,948.146912,1512.461792,189.288391,964.98468,1490.326294,93.232727,261.962463,765.406799,123.302818,251.950409,759.514648,145.004227,246.000717,752.353149,11.417686,245.382965,758.330627,32.632343,222.333038,753.361267,58.930851,202.684097,747.468628,55.579903,286.893524,774.9729,52.634159,321.084686,767.003418,20.957016,310.510925,774.978455,-40.789562,323.289673,787.701965,539.195557,-411.951965,1006.025574,544.173645,-324.476074,1004.258301,368.658142,-304.727844,1002.782471,363.100372,-390.058411,1002.757202,539.516113,-409.273346,738.434387,549.341919,-320.916229,740.262085,372.492432,-305.932739,738.860779,361.671661,-393.324188,738.131104
00050_color_1715712255.863299.png,1617,1715712255.865461,-497.476959,1104.432129,941.580139,-559.350403,1117.63269,952.242493,-514.873352,1147.83667,960.945984,-459.466797,1146.359985,922.183533,-431.271088,1132.69165,899.060303,-407.705322,1108.309814,885.807007,-439.810028,1066.033325,920.629883,-424.830658,1045.618652,906.294189,-409.087494,1028.409058,886.506409,295.053864,958.198486,1497.216431,241.15834,948.144348,1512.452026,189.28389,964.994019,1490.329956,93.194099,262.274902,765.202332,123.273865,252.139038,759.418579,144.992462,246.119049,752.359619,11.411611,245.42218,758.264099,32.636536,222.391953,753.366577,58.916607,202.725311,747.507629,55.51107,286.880341,774.480957,52.604877,321.211212,766.937927,20.942251,310.512024,774.70929,-40.802361,322.367065,788.050781,539.190247,-411.928375,1006.051636,544.165955,-324.427917,1004.258972,368.643097,-304.669983,1002.779358,363.106354,-390.020538,1002.755493,539.528381,-409.290222,738.444763,549.326843,-320.923096,740.236267,372.478607,-305.928925,738.858459,361.666779,-393.328308,738.133057
00051_color_1715712255.897250.png,1620,1715712255.895461,-506.130585,1110.078979,935.639832,-567.473145,1124.463257,947.237183,-522.11261,1153.51062,955.719971,-467.516418,1150.905518,916.520264,-440.037842,1136.753052,892.531433,-417.779297,1111.571655,878.218567,-449.617615,1070.572876,913.569885,-435.324615,1049.989624,898.690735,-420.408661,1032.481201,878.365173,295.056122,958.204529,1497.223511,241.382416,948.395813,1512.79126,189.300079,965.037048,1490.3479,93.198212,262.485107,765.033081,123.314186,252.284195,759.34137,145.0009,246.181152,752.372375,11.445244,245.538193,758.27179,32.676971,222.470703,753.401855,58.930088,202.82515,747.583557,55.545315,286.851349,774.022278,52.657948,321.346252,766.871887,21.044605,310.612274,774.556396,-40.710709,321.752808,788.553101,539.235596,-411.865662,1006.0271,544.190979,-324.407593,1004.24707,368.672791,-304.647949,1002.773987,363.100525,-390.007141,1002.797119,539.51416,-409.275787,738.455383,549.338989,-320.900726,740.234497,372.481049,-305.918762,738.872314,361.665771,-393.319977,738.155151
00052_color_1715712255.931087.png,1624,1715712255.935461,-518.676697,1117.452637,927.283813,-578.921387,1133.716797,940.629761,-532.360291,1160.824463,948.825012,-478.615356,1157.219482,908.584473,-452.019806,1143.113647,883.871643,-431.472534,1116.978271,868.226685,-463.997711,1076.453125,903.437439,-450.688446,1055.731445,887.69574,-436.739746,1038.331299,866.750793,295.056061,958.219666,1497.223633,241.439789,948.788635,1512.55835,189.291855,965.027466,1490.340698,93.398376,262.813141,764.513733,123.522812,252.463043,759.054565,145.241653,246.215347,752.347473,11.727807,245.790054,758.435486,32.907925,222.653763,753.531799,59.091778,202.925262,747.63501,55.966255,287.081512,773.553223,52.945396,321.636566,766.6875,21.59339,310.711517,774.31012,-40.292168,320.753662,789.47998,539.186707,-411.862305,1006.052856,544.163269,-324.376373,1004.253052,368.642242,-304.63504,1002.766479,363.076691,-389.987335,1002.78772,539.504089,-409.250153,738.456238,549.324097,-320.898926,740.249084,372.475647,-305.915405,738.847717,361.671051,-393.320038,738.146301
00053_color_1715712255.964656.png,1627,1715712255.965461,-528.49469,1122.752441,921.28772,-588.054688,1140.424927,936.093933,-540.334473,1166.077637,944.059998,-488.406952,1161.871216,902.362793,-462.10498,1147.024414,877.386414,-442.035828,1121.130859,861.277771,-475.449493,1080.73645,895.639404,-463.227692,1059.952393,879.309204,-450.035461,1042.574829,857.709045,295.052795,958.202209,1497.213135,241.46817,948.879456,1512.525024,189.290375,965.008057,1490.331909,93.53022,262.890442,764.219055,123.634933,252.527542,758.922852,145.374771,246.214981,752.335144,11.930901,245.893631,758.54425,33.098881,222.762955,753.642517,59.234032,202.960846,747.679749,56.200836,287.147919,773.314148,53.127426,321.645813,766.543884,21.853685,310.660217,774.223145,-40.114052,319.758057,790.036743,539.193909,-411.910248,1006.026245,544.180786,-324.421539,1004.259094,368.667603,-304.664551,1002.777222,363.116333,-390.004486,1002.763123,539.511169,-409.294373,738.438354,549.340088,-320.903564,740.250549,372.484528,-305.919312,738.870972,361.651886,-393.313995,738.143921
00054_color_1715712255.998390.png,1630,1715712255.995461,-538.219238,1127.903809,915.726685,-596.859558,1146.235718,932.168274,-548.631531,1170.731689,939.626587,-498.8927,1166.000122,896.107422,-471.985352,1151.404053,871.218689,-453.23468,1125.155884,853.783081,-486.783295,1084.962769,888.131775,-475.098358,1064.509766,871.479431,-462.870605,1047.112305,848.989136,295.052124,958.211914,1497.220947,241.483017,948.947388,1512.505615,189.290283,964.997681,1490.323608,93.596123,262.869141,764.179077,123.705093,252.455597,758.893433,145.421005,246.099899,752.322937,12.02913,245.948914,758.54541,33.129189,222.778336,753.684509,59.264603,202.936905,747.675659,56.312481,287.145081,773.253845,53.265976,321.610992,766.498901,21.953087,310.565063,774.192139,-40.150276,318.789642,790.579163,539.165833,-411.96228,1006.043884,544.157654,-324.460541,1004.258606,368.624756,-304.692352,1002.772461,363.068359,-390.049255,1002.748718,539.513428,-409.323242,738.432251,549.310486,-320.924774,740.248596,372.472443,-305.917969,738.857971,361.636444,-393.317719,738.143982
00055_color_1715712256.032149.png,1634,1715712256.035461,-550.94812,1133.186035,908.917908,-608.5896,1152.507812,927.648499,-559.484924,1174.258789,934.678528,-509.878754,1170.062012,889.920532,-483.893677,1156.20752,864.063354,-467.813904,1130.125854,844.367798,-501.12146,1089.918945,878.942505,-491.004791,1069.325806,860.678223,-479.590912,1052.438599,837.801575,295.050659,958.203796,1497.211426,241.489227,949.003418,1512.471313,189.284103,964.984924,1490.337524,93.580681,262.787872,764.306763,123.674324,252.405441,758.966125,145.397186,246.059494,752.376099,12.092565,246.129593,758.648682,33.131832,222.885391,753.752808,59.119911,203.008804,747.75824,56.30294,287.257233,773.320374,53.393158,321.77948,766.526184,21.962393,310.719513,774.181396,-40.264969,317.73465,790.709045,539.19281,-411.952362,1006.024231,544.175659,-324.454865,1004.265198,368.646332,-304.705627,1002.763367,363.118256,-390.005859,1002.740356,539.509827,-409.325531,738.427063,549.313293,-320.906982,740.245972,372.468933,-305.921234,738.854736,361.643585,-393.327911,738.126892
00056_color_1715712256.065427.png,1637,1715712256.0654612,-559.971863,1136.153687,904.154175,-618.134705,1155.240967,924.145813,-567.364136,1175.155151,931.081665,-518.803589,1172.044434,884.875427,-497.028839,1159.497559,856.270081,-478.337219,1133.567017,837.54657,-511.322571,1092.891479,872.115906,-501.827606,1072.511475,853.278137,-491.064423,1056.024536,829.902039,295.052338,958.206848,1497.219116,241.47995,949.028137,1512.440918,189.271408,964.966492,1490.318115,93.538612,262.815277,764.432983,123.611427,252.406174,759.039429,145.335815,246.064346,752.398865,12.080927,246.187302,758.692871,33.100567,222.946594,753.773193,59.010323,203.048096,747.768433,56.219955,287.338348,773.345154,53.387047,321.873566,766.526184,21.895969,310.779938,774.211548,-40.489201,316.860291,790.939148,539.133362,-411.945923,1006.061768,544.136536,-324.417755,1004.267822,368.597687,-304.637878,1002.776978,363.06488,-390.017151,1002.736328,539.495239,-409.321655,738.434448,549.306702,-320.922028,740.241882,372.453522,-305.909088,738.854736,361.640167,-393.3172,738.127014
00057_color_1715712256.098768.png,1640,1715712256.0954611,-568.424622,1138.014404,900.068542,-625.808533,1157.337402,921.492676,-575.052979,1175.613037,927.668335,-527.466125,1174.070312,879.240234,-506.952698,1161.490845,850.680054,-488.641876,1135.566406,831.143616,-520.055054,1095.543213,867.209045,-512.005615,1074.732056,846.895813,-501.852203,1058.38208,823.087952,295.052734,958.204102,1497.216064,241.477264,949.041504,1512.420776,189.275452,964.97821,1490.313477,93.50325,262.860718,764.581055,123.579826,252.415741,759.129761,145.269638,246.030426,752.414124,12.075336,246.24408,758.699585,33.046757,222.957855,753.796387,58.91264,203.036087,747.788269,56.141354,287.432892,773.452942,53.378807,321.941223,766.528259,21.808748,310.835114,774.282715,-40.714088,315.866669,791.086121,539.177246,-411.906311,1006.031616,544.166199,-324.394318,1004.250183,368.629242,-304.611023,1002.788208,363.095428,-389.969238,1002.761475,539.481384,-409.300751,738.422485,549.304077,-320.917328,740.23291,372.459015,-305.923126,738.859802,361.642517,-393.322174,738.125305
00058_color_1715712256.132145.png,1644,1715712256.135461,-579.317383,1138.612549,895.129822,-635.460388,1158.127441,918.631714,-584.611755,1179.207397,922.319519,-538.850159,1174.513794,874.905151,-518.149048,1162.59021,844.871521,-500.791962,1136.946533,824.814819,-532.519592,1095.881104,860.050171,-524.083984,1075.831177,840.259399,-514.398315,1059.849121,816.205566,295.04895,958.193298,1497.216064,241.480789,949.0495,1512.418945,189.279877,964.983765,1490.328369,93.485115,262.870209,764.651978,123.541656,252.413208,759.150757,145.216339,246.024384,752.40509,12.137115,246.29158,758.761414,33.106117,223.030304,753.861755,58.92783,203.080261,747.843384,56.092556,287.489105,773.489136,53.349052,322.015961,766.55719,21.722521,310.79718,774.344482,-40.910233,314.583862,791.332642,539.15686,-411.882172,1006.021484,544.140747,-324.420715,1004.267578,368.601715,-304.629272,1002.769836,363.065613,-390.020325,1002.745178,539.485474,-409.327393,738.432922,549.301514,-320.919403,740.246155,372.459015,-305.9151,738.866638,361.635284,-393.310364,738.135315
00059_color_1715712256.165544.png,1647,1715712256.165461,-586.203308,1137.621948,892.939453,-642.019897,1157.292847,917.116943,-591.524963,1175.976196,921.663452,-545.944519,1174.667725,871.716919,-525.320007,1161.695923,841.989807,-508.678009,1136.145996,821.503174,-540.383484,1094.809448,856.571106,-532.099304,1075.009033,836.661255,-522.891418,1059.132446,812.228699,295.045441,958.199097,1497.208374,241.478394,949.051147,1512.413452,189.276062,964.983887,1490.333252,93.51619,262.949982,764.659363,123.585976,252.508163,759.175537,145.249939,246.087341,752.397217,12.236494,246.349869,758.776428,33.183632,223.041031,753.910095,58.961071,203.108734,747.862793,56.127361,287.547302,773.458618,53.336685,322.043121,766.528198,21.750814,310.756592,774.372803,-40.92202,313.722687,791.646484,539.123596,-411.958618,1006.044617,544.137207,-324.44751,1004.258057,368.582184,-304.636688,1002.7901,363.048279,-390.056122,1002.744446,539.464722,-409.332123,738.438232,549.315979,-320.918365,740.25238,372.449768,-305.926544,738.859985,361.618164,-393.308472,738.131592
00060_color_1715712256.199084.png,1650,1715712256.195461,-592.425354,1135.557251,891.939819,-647.973511,1155.459839,916.518433,-597.33075,1175.853027,920.037048,-553.677856,1173.175049,869.969299,-532.023071,1159.452881,840.520874,-515.426331,1133.901611,819.808228,-546.757874,1092.726929,855.193542,-538.806946,1072.953003,835.12854,-529.850464,1057.05188,810.542847,295.054749,958.209595,1497.221436,241.477432,949.041565,1512.414185,189.272812,964.99762,1490.341919,93.602722,262.992249,764.700195,123.663063,252.526794,759.177795,145.312378,246.080185,752.393921,12.358994,246.387848,758.797974,33.281723,222.993958,753.936035,59.063148,203.084274,747.853088,56.190807,287.544708,773.461914,53.374023,322.018829,766.533936,21.790131,310.654236,774.396912,-40.973171,312.696991,791.848938,539.147827,-411.970184,1006.028198,544.148743,-324.470703,1004.263062,368.591583,-304.673737,1002.789368,363.045593,-390.071075,1002.74585,539.461182,-409.333191,738.43512,549.29126,-320.914795,740.24939,372.457031,-305.929016,738.864014,361.624451,-393.324799,738.130737
00061_color_1715712256.232377.png,1654,1715712256.235461,-599.136169,1131.465332,892.763672,-654.824097,1151.739746,917.063843,-604.242065,1173.471191,920.295105,-559.198059,1168.967529,871.134521,-539.254517,1154.873535,841.069702,-522.004944,1129.127197,820.810364,-553.40387,1088.396851,856.531128,-545.711243,1068.278687,836.334717,-536.703735,1052.187256,811.875854,295.053101,958.209595,1497.213501,241.474335,949.052246,1512.416992,189.270874,964.970154,1490.337402,93.640137,262.927521,764.726807,123.688858,252.486084,759.179993,145.345825,246.056366,752.396545,12.367562,246.287399,758.839233,33.307312,222.976456,753.923462,59.08115,203.043228,747.848572,56.246655,287.477905,773.473999,53.419144,321.923492,766.572632,21.797398,310.470093,774.457397,-41.099182,311.18512,792.054443,539.139771,-411.947205,1006.024475,544.13092,-324.441895,1004.269348,368.561584,-304.609802,1002.798889,363.045959,-390.064392,1002.747803,539.477295,-409.340088,738.435425,549.293518,-320.924377,740.241028,372.449677,-305.952148,738.847961,361.629852,-393.32251,738.111755
00062_color_1715712256.265548.png,1657,1715712256.265461,-603.411865,1127.718628,894.808105,-659.323547,1148.565674,918.511963,-608.503967,1170.09375,922.08667,-563.06488,1164.834839,873.188049,-542.782715,1150.400391,843.620972,-525.978943,1123.821533,822.897766,-557.590149,1084.091309,859.214905,-549.677002,1063.887451,839.425964,-540.49939,1047.651733,815.191772,295.049255,958.202393,1497.213989,241.47821,949.053223,1512.420044,189.285797,964.985779,1490.341675,93.676308,262.886383,764.798462,123.739571,252.435059,759.231873,145.385742,246.031219,752.391846,12.41233,246.350006,758.849976,33.321499,223.011993,753.969238,59.087803,203.076462,747.900208,56.306675,287.528564,773.518677,53.519566,321.949036,766.589966,21.83857,310.459564,774.492493,-41.093971,310.429993,792.104553,539.135437,-411.912659,1006.047119,544.135925,-324.428345,1004.257935,368.567017,-304.57373,1002.807983,363.051727,-390.002106,1002.757446,539.475037,-409.330292,738.450317,549.291077,-320.932892,740.218445,372.44397,-305.950684,738.842651,361.619965,-393.3013,738.137512
00063_color_1715712256.300669.png,1661,1715712256.305461,-608.181885,1122.682861,899.1474,-664.678772,1144.075317,921.607971,-613.544861,1165.642578,926.200256,-566.686462,1159.339966,878.328125,-544.970215,1144.268433,849.616516,-529.217102,1117.822998,829.466675,-561.769714,1078.470093,865.191223,-553.778748,1057.976196,845.531799,-544.325806,1041.425049,821.545044,295.050018,958.212585,1497.225952,241.476105,949.045227,1512.41394,189.285736,965.007446,1490.353027,93.82016,262.944733,764.836609,123.832047,252.473511,759.241638,145.462418,246.037857,752.385315,12.563847,246.383408,758.862976,33.490986,223.046295,754.025696,59.199429,203.082886,747.898193,56.453144,287.584442,773.598877,53.575157,321.950043,766.565857,21.899536,310.366394,774.584717,-41.032253,309.22348,792.272461,539.163696,-411.900879,1006.018188,544.146606,-324.419678,1004.255981,368.589844,-304.61142,1002.783203,363.065979,-390.017975,1002.761963,539.483704,-409.307587,738.451477,549.302551,-320.93042,740.22644,372.437531,-305.93576,738.849854,361.626801,-393.320618,738.125854
00064_color_1715712256.333860.png,1664,1715712256.3354611,-611.117554,1119.138428,903.869995,-668.715454,1141.049194,924.945129,-617.226746,1162.63208,930.158264,-569.845825,1155.631958,883.008118,-547.620117,1139.976562,854.634338,-531.316101,1113.528076,835.497253,-564.810303,1074.466553,870.580872,-556.258728,1053.957886,851.482666,-546.565979,1037.187988,827.705566,295.054901,958.19873,1497.225464,241.479507,949.045593,1512.411987,189.284912,965.006165,1490.349609,93.871399,262.912964,764.837219,123.918182,252.463074,759.260193,145.536026,246.052521,752.396423,12.658479,246.273849,758.805969,33.637325,222.98085,754.040344,59.365967,203.051849,747.91687,56.515186,287.496399,773.602356,53.577251,321.831726,766.611206,21.980291,310.137909,774.616455,-40.913521,308.01178,792.495911,539.145569,-411.927124,1006.031006,544.13385,-324.441559,1004.254211,368.554504,-304.601196,1002.798584,363.042847,-390.030579,1002.765625,539.473267,-409.284973,738.447205,549.295898,-320.925873,740.241333,372.447601,-305.954041,738.843201,361.613953,-393.315613,738.138794
00065_color_1715712256.367111.png,1667,1715712256.365461,-614.275452,1116.370972,908.961914,-671.13623,1138.643921,928.926941,-620.952881,1160.04126,934.498657,-572.414673,1152.334351,888.460632,-549.617126,1136.933594,861.010376,-533.084351,1110.227417,842.265381,-567.387512,1071.291748,876.652527,-558.282104,1050.823853,858.001892,-548.09967,1034.025879,834.61731,295.055054,958.202881,1497.223755,241.483032,949.04425,1512.422119,189.27832,964.978394,1490.328247,93.888733,262.942963,764.877136,123.942413,252.50914,759.263916,145.541885,246.086243,752.392578,12.684671,246.196518,758.748657,33.681709,222.885986,754.037476,59.448555,203.031006,747.900757,56.519825,287.480591,773.636902,53.530537,321.781128,766.655701,21.977552,309.935577,774.652161,-40.806919,306.963989,792.696716,539.100586,-411.989471,1006.041992,544.140686,-324.449585,1004.268677,368.556335,-304.605896,1002.810974,363.022644,-390.062195,1002.752197,539.476807,-409.339508,738.435059,549.284241,-320.928009,740.245056,372.435883,-305.919189,738.862122,361.608307,-393.329926,738.131409
00066_color_1715712256.400545.png,1671,1715712256.405461,-618.648499,1113.78125,915.898132,-675.906067,1136.031128,934.457581,-626.211609,1157.954468,940.918884,-576.198608,1150.084106,896.317383,-551.413208,1135.340454,870.963623,-535.876221,1107.483887,851.380066,-570.057068,1069.056763,885.682861,-560.799011,1048.246826,867.016541,-549.947205,1031.272583,843.874146,295.049377,958.186462,1497.21875,241.490036,949.031433,1512.430298,189.277054,964.974121,1490.335327,93.932259,262.886261,764.939087,123.968262,252.479111,759.312622,145.560333,246.060333,752.409241,12.700715,246.03479,758.680298,33.732922,222.789963,754.02887,59.543747,202.982407,747.873535,56.547501,287.382233,773.737854,53.509823,321.647858,766.746582,21.982861,309.618195,774.72699,-40.584946,305.614532,792.901917,539.115784,-411.96521,1006.011841,544.128845,-324.468658,1004.270081,368.566437,-304.653748,1002.794739,363.029816,-390.04071,1002.732422,539.463501,-409.305267,738.430298,549.284912,-320.917267,740.245117,372.428558,-305.95697,738.846313,361.596771,-393.336273,738.134338
00067_color_1715712256.433996.png,1674,1715712256.435461,-622.006165,1112.877563,920.969177,-679.794922,1134.792358,938.242981,-630.380371,1157.335205,945.495789,-579.56781,1149.329468,901.771057,-555.249084,1133.790894,875.8526,-537.929871,1106.790161,858.038574,-572.810181,1068.094849,891.556458,-562.699646,1047.476929,873.465393,-551.496887,1030.366943,850.470825,295.049744,958.19165,1497.216797,241.487488,949.015259,1512.44751,189.289413,964.988708,1490.333374,93.911148,262.861542,765.027466,123.947678,252.471771,759.347351,145.571548,246.102737,752.464966,12.660774,245.907623,758.650269,33.742367,222.777771,753.997864,59.585335,202.965179,747.87616,56.492039,287.28241,773.8526,53.445557,321.55545,766.852234,21.950029,309.400879,774.826416,-40.473381,304.546631,793.053833,539.118591,-411.971893,1006.05011,544.134827,-324.455322,1004.272461,368.569946,-304.638977,1002.783875,363.022675,-390.058685,1002.747681,539.469055,-409.34314,738.427429,549.287659,-320.939484,740.235474,372.435364,-305.946167,738.850403,361.611145,-393.331421,738.133423
00068_color_1715712256.467148.png,1677,1715712256.465461,-625.344666,1112.877441,925.284302,-683.681274,1134.301758,941.246704,-634.971985,1157.18335,949.169189,-583.000122,1149.587769,906.489868,-558.244263,1133.998779,880.898926,-540.545593,1106.861328,863.449097,-575.505981,1068.170654,896.722839,-565.067566,1047.414551,878.842896,-553.150391,1030.504761,856.340942,295.049225,958.183594,1497.210938,241.49411,949.013428,1512.453857,189.268326,964.946777,1490.312866,93.932518,262.831879,765.11322,123.983459,252.471573,759.441467,145.575745,246.095856,752.469788,12.694175,245.736343,758.532715,33.856613,222.675644,753.980835,59.787304,203.021576,747.89386,56.51495,287.226013,774.019836,53.384724,321.456696,766.974487,21.995087,309.085968,774.947021,-40.249428,303.477997,793.197388,539.101257,-411.955627,1006.046997,544.114441,-324.451324,1004.258484,368.534607,-304.596313,1002.798706,363.011139,-390.05722,1002.742981,539.473022,-409.351776,738.434692,549.279236,-320.939209,740.234009,372.422821,-305.934021,738.862976,361.607239,-393.3396,738.11676
00069_color_1715712256.501393.png,1681,1715712256.505461,-629.898682,1114.163574,928.719666,-688.542664,1133.793457,943.567627,-640.255371,1158.192627,952.029236,-587.833435,1151.519287,910.378906,-562.328064,1136.117798,885.424133,-543.610779,1109.333618,868.89502,-578.371643,1070.35144,901.907532,-567.354065,1049.555542,884.162048,-554.62146,1032.766479,862.08783,295.056213,958.20166,1497.22229,241.498352,949.015015,1512.461792,189.283783,964.992188,1490.335815,93.87011,262.830536,765.410583,123.914246,252.597366,759.589172,145.509293,246.288177,752.532837,12.480764,245.361572,758.316528,33.894669,222.566315,753.890625,59.963051,203.06282,747.867493,56.298248,287.128326,774.39447,53.048332,321.274384,767.191406,21.791155,308.61676,775.149231,-40.255096,301.874481,793.398499,539.120056,-411.950989,1006.035217,544.118347,-324.43985,1004.272705,368.542236,-304.600433,1002.803833,363.025299,-390.061035,1002.742676,539.472351,-409.332001,738.428711,549.27832,-320.921783,740.247986,372.434692,-305.948792,738.862427,361.599304,-393.311523,738.137512
00070_color_1715712256.534577.png,1684,1715712256.535461,-633.356384,1116.077881,929.222595,-692.395081,1134.925537,943.669373,-644.574219,1159.978638,952.330872,-591.789795,1154.058716,911.092407,-565.318665,1139.610352,886.70636,-546.422913,1112.533325,870.000244,-581.176636,1072.873169,902.586304,-569.274292,1052.481323,885.286133,-556.104736,1035.977661,863.225586,295.054138,958.185059,1497.218994,241.499084,949.016846,1512.461548,189.275131,964.94873,1490.312256,93.746117,262.985809,765.585266,123.816132,252.870026,759.697754,145.431091,246.706619,752.566406,12.301378,245.145218,758.181946,33.867939,222.530838,753.827026,60.03793,203.141388,747.814453,55.973236,287.221954,774.724915,52.689133,321.181915,767.259827,21.514814,308.358246,775.312256,-40.254982,301.064636,793.573242,539.093506,-411.977783,1006.008606,544.102417,-324.471497,1004.281311,368.498169,-304.591675,1002.819153,362.999756,-390.098206,1002.730713,539.476929,-409.330017,738.430603,549.278687,-320.941833,740.252869,372.420807,-305.954865,738.855957,361.589386,-393.340637,738.120911
00071_color_1715712256.567660.png,1687,1715712256.5654612,-636.898193,1118.97998,928.248779,-696.488708,1136.718384,942.294006,-648.9646,1162.616699,951.283752,-596.083923,1157.594727,910.104309,-569.69635,1143.374756,885.27478,-549.938049,1116.922852,869.195312,-584.146912,1076.485474,901.346863,-571.75,1056.495728,884.078064,-558.252136,1040.357178,861.991028,295.05603,958.18689,1497.210571,241.504105,949.021484,1512.456543,189.281677,964.961914,1490.325806,93.554405,262.965454,765.599426,123.693947,253.065826,759.66864,145.314346,247.05542,752.522278,12.040131,244.727386,757.821655,33.865036,222.265793,753.673889,60.275501,203.223022,747.714783,55.600079,286.902069,774.802063,52.219189,320.889557,767.423889,21.16186,307.811615,775.444092,-40.408474,299.793182,793.677002,539.112305,-412.009277,1006.032227,544.124146,-324.483551,1004.270325,368.543976,-304.657867,1002.807861,363.007202,-390.096039,1002.742432,539.469788,-409.325836,738.422119,549.278931,-320.911987,740.254761,372.40921,-305.943207,738.858215,361.578796,-393.341309,738.130798
00072_color_1715712256.600936.png,1691,1715712256.6054611,-642.189941,1124.06665,925.161865,-701.872437,1140.931641,939.658081,-654.855103,1167.300049,948.309387,-601.791809,1163.904663,906.971863,-575.682434,1149.717529,881.77124,-554.82428,1124.3396,866.13385,-588.523804,1082.915161,898.126282,-576.182495,1063.017578,880.31134,-562.705872,1047.209839,857.83844,295.053101,958.179199,1497.209961,241.493683,949.035278,1512.433228,189.274155,964.949707,1490.318237,92.944939,262.726288,765.44751,123.194183,252.972397,759.581238,144.832397,247.197891,752.473938,11.83994,244.420715,757.505005,33.437519,221.806168,753.222473,60.083664,203.037048,747.526306,54.954643,285.986328,774.635193,51.316326,320.20871,767.763489,20.485256,306.722137,775.669373,-40.838089,298.09375,793.970154,539.104431,-411.944611,1006.019958,544.090637,-324.439819,1004.271179,368.473999,-304.548187,1002.832031,362.995392,-390.068359,1002.747986,539.463135,-409.322113,738.43811,549.253418,-320.888794,740.249817,372.407654,-305.940491,738.837463,361.576111,-393.341522,738.121704
00073_color_1715712256.634209.png,1694,1715712256.635461,-646.313049,1128.531128,921.731445,-705.891602,1145.106445,936.917114,-658.917664,1171.595093,945.498047,-606.179504,1168.692871,903.676453,-579.82782,1155.166016,878.76593,-559.50708,1129.599243,862.066345,-592.680603,1087.810059,893.836426,-579.842896,1068.642456,876.314636,-566.862427,1052.806763,853.035767,295.047333,958.195251,1497.218872,241.481094,949.051819,1512.422607,189.278732,964.973328,1490.345947,92.561714,262.966187,765.482849,122.82489,253.321671,759.601074,144.486115,247.672684,752.46582,11.476676,244.111069,757.292114,33.35466,221.775375,753.122864,60.040485,203.14534,747.539185,54.324921,286.2211,774.960327,50.707848,320.372772,768.025574,20.06822,306.56958,775.817322,-41.18092,297.438904,794.227234,539.101501,-411.935211,1006.060242,544.105774,-324.421936,1004.262573,368.491913,-304.541595,1002.83374,363.017365,-390.027802,1002.765198,539.459778,-409.254028,738.439758,549.258179,-320.887268,740.250854,372.412415,-305.904327,738.848999,361.592865,-393.310669,738.137634
00074_color_1715712256.667630.png,1697,1715712256.665461,-650.031128,1133.657593,918.188904,-709.548401,1150.014038,933.925781,-662.567688,1176.449341,942.51123,-610.013977,1173.723145,900.580261,-584.006653,1160.36792,874.995361,-563.749268,1135.322998,857.679016,-596.747864,1093.223755,889.076599,-584.495483,1074.029175,870.60907,-571.429749,1058.880615,847.415466,295.05603,958.19043,1497.216675,241.485519,949.051086,1512.4104,189.29332,964.979187,1490.354858,92.284142,263.079285,765.478882,122.606468,253.654984,759.614502,144.294693,248.148865,752.476562,11.074534,243.602783,757.091858,33.252956,221.652878,752.998291,60.048832,203.172867,747.489197,54.035835,286.13089,775.039246,50.216206,320.239807,768.072815,19.654301,306.295013,775.932678,-41.606747,296.686768,794.216919,539.10614,-411.886475,1006.052246,544.095276,-324.412354,1004.263062,368.497314,-304.546997,1002.817505,363.014496,-390.016052,1002.759705,539.465759,-409.299011,738.462585,549.267029,-320.888092,740.248474,372.406738,-305.932312,738.844666,361.596802,-393.315247,738.134155
00075_color_1715712256.701013.png,1701,1715712256.705461,-654.058167,1141.468506,913.536865,-713.306396,1157.775635,930.259277,-666.068909,1183.965576,938.797913,-614.874573,1181.11438,895.226868,-587.479065,1169.236572,871.026489,-568.603882,1143.786987,851.936462,-601.149231,1101.474976,883.210632,-589.529053,1082.503296,863.834106,-576.850098,1067.811523,840.075073,295.067383,958.212158,1497.237305,241.483414,949.049866,1512.407104,189.315659,965.000916,1490.344238,92.186852,263.042908,765.461304,122.536758,253.725204,759.598816,144.228378,248.250412,752.467102,10.922137,242.547668,757.395142,33.268356,221.46521,752.884827,60.127865,203.102295,747.407654,53.927811,285.886139,775.042175,49.946583,319.971985,768.175293,19.439976,305.845856,776.104126,-42.282845,294.960602,794.147522,539.110352,-411.922852,1006.036133,544.110046,-324.441498,1004.264709,368.515015,-304.571747,1002.830872,363.012207,-390.053436,1002.751709,539.460571,-409.25824,738.449768,549.267883,-320.894592,740.259216,372.409027,-305.940887,738.855347,361.605499,-393.323975,738.145691
00076_color_1715712256.734839.png,1704,1715712256.735461,-656.106934,1147.829956,910.182678,-715.07373,1164.201294,927.846741,-667.758301,1190.057007,936.250549,-616.318298,1188.091919,892.948853,-590.7995,1175.418823,866.566467,-570.984192,1150.930176,848.276245,-603.043213,1108.547119,879.33783,-592.155945,1089.494019,859.024414,-579.533936,1075.290771,834.993042,295.053223,958.197144,1497.214722,241.486191,949.040955,1512.404541,189.292053,964.960144,1490.326172,92.171082,263.300842,765.54248,122.6493,254.491089,759.510986,144.356918,249.057526,752.369446,11.068642,242.988373,757.159241,33.384064,221.493652,752.887634,60.286274,203.205231,747.424927,53.816467,286.027832,775.155518,49.708717,320.094543,768.213257,19.166691,305.813446,776.175659,-42.149902,295.039673,794.212219,539.089233,-411.990753,1006.028503,544.110962,-324.467438,1004.271057,368.5271,-304.653442,1002.813843,362.997986,-390.075317,1002.745178,539.466797,-409.356323,738.4375,549.28009,-320.905121,740.259949,372.415649,-305.940338,738.849365,361.585449,-393.335571,738.137146
00077_color_1715712256.768206.png,1707,1715712256.765461,-656.718506,1154.609009,907.579041,-716.314758,1171.717896,925.28125,-668.378479,1196.452393,934.2005,-617.111938,1195.112793,890.571167,-591.708557,1182.839233,863.938477,-572.169739,1158.404663,844.985901,-604.482361,1115.340576,875.109314,-593.068359,1097.052368,854.920715,-580.58252,1083.436035,830.726379,295.051086,958.196594,1497.220337,241.48291,949.042053,1512.417847,189.299515,964.970032,1490.336548,92.207031,263.843903,765.623596,122.677292,254.921265,759.737793,144.396286,249.618408,752.50824,11.130961,242.981079,757.27594,33.520378,221.630798,752.994873,60.412804,203.335663,747.486633,53.721573,286.381775,775.189514,49.436543,320.44931,768.189087,18.801989,305.94928,776.130066,-42.505184,294.731781,794.063477,539.101562,-411.961548,1006.001099,544.091492,-324.462128,1004.287842,368.486115,-304.612305,1002.819519,362.978699,-390.08847,1002.730225,539.470459,-409.314575,738.423218,549.267456,-320.907379,740.261841,372.40387,-305.944458,738.851929,361.579376,-393.348602,738.120972
00078_color_1715712256.801413.png,1711,1715712256.805461,-655.718872,1163.677734,904.544067,-715.317078,1180.165649,922.860962,-667.085144,1204.647949,932.21405,-616.466919,1204.557617,887.950867,-591.543457,1192.670288,860.524658,-571.514832,1169.045532,841.614319,-603.613586,1125.166992,870.801086,-592.337952,1107.372803,850.08429,-579.878052,1094.418091,825.500671,295.053375,958.193115,1497.210938,241.47963,949.051392,1512.416382,189.300217,964.955322,1490.334595,92.283958,264.047638,765.641418,122.770897,255.173035,759.72522,144.487564,249.92662,752.487061,11.135098,242.979263,757.283691,33.550945,221.564209,753.03717,60.470024,203.288681,747.447205,53.69759,286.421692,775.098511,49.335274,320.480957,768.127441,18.533428,305.917938,776.105591,-42.8792,294.509552,793.806824,539.095215,-411.944946,1006.034729,544.089294,-324.432434,1004.271606,368.483246,-304.568329,1002.834412,362.990417,-390.072327,1002.741333,539.450928,-409.334595,738.433228,549.264038,-320.908752,740.248535,372.410126,-305.950745,738.858093,361.589569,-393.342041,738.12915
00079_color_1715712256.837485.png,1714,1715712256.8354611,-653.277771,1170.221558,902.778687,-713.016174,1185.9823,921.521912,-665.962708,1211.840332,931.251648,-614.44342,1211.754639,886.551941,-589.524292,1200.393311,858.925659,-569.362183,1177.146362,839.572876,-600.903137,1132.580688,868.146973,-589.547913,1115.281494,847.27594,-577.024475,1102.889648,822.473328,295.049713,958.202209,1497.210693,241.483109,949.044067,1512.409668,189.296494,964.953247,1490.321289,92.380379,264.211975,765.673584,122.871788,255.343765,759.748901,144.588043,250.066727,752.501831,11.324691,243.269424,757.388367,33.67638,221.691406,753.140625,60.516174,203.352783,747.489136,53.760334,286.681396,775.091187,49.394012,320.681,768.046387,18.485554,306.175201,776.07074,-42.986629,294.861511,793.652344,539.091736,-411.973022,1006.050964,544.096741,-324.442719,1004.26532,368.4935,-304.568268,1002.825867,362.996979,-390.05069,1002.731445,539.470459,-409.32608,738.420044,549.262573,-320.918518,740.251404,372.405762,-305.930878,738.859924,361.5961,-393.349884,738.121582
00080_color_1715712256.874501.png,1718,1715712256.875461,-647.744324,1178.350098,901.229614,-707.736694,1193.014282,920.262695,-660.815552,1219.471436,929.799988,-609.93103,1220.647095,885.195007,-584.967102,1210.593262,857.76532,-564.266113,1187.822876,838.110596,-595.030457,1142.100464,865.793945,-582.979431,1125.597046,845.078125,-570.645447,1113.538452,819.558411,295.049683,958.187805,1497.212036,241.486115,949.041443,1512.411377,189.293457,964.950378,1490.324707,92.6549,264.472626,765.787842,123.137573,255.610168,759.801392,144.826523,250.343109,752.50592,11.617286,243.627304,757.525696,33.895729,221.811035,753.300171,60.689999,203.412689,747.581604,53.899265,287.036255,775.172791,49.508015,320.94635,767.92865,18.432022,306.512115,776.008972,-43.121735,295.272552,793.397034,539.08667,-411.981903,1006.048462,544.10144,-324.442383,1004.283447,368.510315,-304.589508,1002.804016,363.012787,-390.068604,1002.742065,539.476257,-409.362762,738.43158,549.258911,-320.917999,740.237305,372.401306,-305.957855,738.848083,361.595276,-393.333221,738.134521
00081_color_1715712256.908910.png,1721,1715712256.905461,-642.106445,1183.894165,900.525635,-702.1474,1197.554565,919.828735,-654.415283,1223.139771,929.537231,-604.629517,1227.044556,885.139709,-579.40802,1217.769653,857.87439,-558.674805,1195.054077,837.620605,-588.448059,1148.950317,865.208313,-576.379639,1132.69812,844.022095,-563.901733,1121.101929,818.381775,295.052521,958.18811,1497.215454,241.485779,949.043579,1512.413574,189.28299,964.926575,1490.315674,92.743401,264.56778,765.855957,123.222328,255.662735,759.796692,144.898361,250.395096,752.474915,11.705409,243.687195,757.610352,33.96814,221.853363,753.347717,60.720573,203.421112,747.580627,53.955925,287.208984,775.230896,49.556614,321.046173,767.888245,18.376358,306.678192,775.976807,-43.347885,295.507874,793.1651,539.101074,-411.9534,1006.014221,544.097229,-324.457092,1004.277222,368.497437,-304.61908,1002.796997,362.986298,-390.080139,1002.726929,539.465393,-409.331635,738.417297,549.257019,-320.929596,740.235168,372.400635,-305.95047,738.841614,361.599243,-393.332794,738.115051
00082_color_1715712256.945466.png,1725,1715712256.945461,-632.363342,1190.405762,900.510437,-692.845642,1202.792114,919.663818,-646.097229,1230.179321,930.057007,-596.187866,1234.184326,885.739685,-570.605774,1225.811646,857.791199,-549.286011,1203.500366,837.721436,-577.995789,1156.921387,864.915283,-565.509888,1141.159668,843.551819,-552.77887,1130.156982,817.807373,295.053314,958.194824,1497.216064,241.484238,949.040955,1512.406616,189.279816,964.935425,1490.33252,92.844574,264.632843,765.88324,123.287697,255.696442,759.803284,144.963898,250.394196,752.458679,11.757215,243.753174,757.669373,34.012497,221.884491,753.397095,60.752625,203.409241,747.575317,54.010185,287.310303,775.219177,49.615482,321.121033,767.834106,18.30991,306.801147,775.944458,-43.603134,295.816559,792.888428,539.099609,-411.979797,1006.017212,544.113708,-324.464569,1004.254211,368.505463,-304.615936,1002.816101,363.011017,-390.088501,1002.724182,539.460205,-409.321472,738.409912,549.262878,-320.941254,740.233459,372.405579,-305.949951,738.847351,361.598602,-393.34198,738.123413
00083_color_1715712256.981694.png,1729,1715712256.985461,-620.645203,1196.221313,901.380249,-680.891602,1206.45752,920.54834,-635.650269,1235.846558,930.728699,-585.388733,1240.011597,887.041626,-559.199402,1232.940186,859.035156,-538.201355,1210.007324,839.091125,-565.475098,1163.797241,865.764038,-552.734802,1148.296387,844.244812,-539.150085,1138.178955,819.182251,295.050415,958.193054,1497.21875,241.480042,949.041565,1512.404175,189.281021,964.935669,1490.334717,92.807236,264.479462,765.886536,123.259819,255.622421,759.807983,144.944748,250.343231,752.450439,11.668695,243.508011,757.56366,33.951118,221.694107,753.26178,60.752369,203.281693,747.506775,53.929729,287.144379,775.22052,49.544716,320.957245,767.821594,17.981865,306.560699,775.95929,-44.015316,295.718536,792.565796,539.100159,-411.929596,1006.003723,544.101074,-324.450226,1004.273438,368.472595,-304.552063,1002.824402,363.005127,-390.087982,1002.738831,539.468994,-409.339417,738.433838,549.250244,-320.930328,740.235718,372.401886,-305.950836,738.845825,361.575256,-393.360504,738.132141
00084_color_1715712257.015309.png,1732,1715712257.015461,-610.460144,1200.392822,902.332947,-670.921387,1209.833374,921.296753,-626.233704,1239.810181,931.529419,-575.834167,1244.273071,888.018311,-549.707458,1238.032593,860.011536,-528.661804,1215.087891,840.264893,-554.822144,1168.826782,866.737183,-541.53894,1153.746582,845.479675,-528.180603,1143.484985,819.885498,295.048737,958.194092,1497.216187,241.48851,949.036926,1512.412231,189.277161,964.907288,1490.317261,92.87603,264.502411,766.00293,123.326096,255.618576,759.855408,144.98085,250.334534,752.458008,11.64854,243.467514,757.568237,33.969105,221.634705,753.278809,60.786701,203.229416,747.510742,53.922028,287.188629,775.332336,49.534729,320.968842,767.811707,17.812675,306.536469,775.921997,-44.279598,295.760498,792.30249,539.088745,-411.915955,1005.990845,544.089783,-324.434814,1004.274109,368.489655,-304.566895,1002.821655,362.997589,-390.07132,1002.729553,539.464172,-409.35849,738.422607,549.258728,-320.928131,740.239197,372.390289,-305.944458,738.832092,361.600525,-393.340851,738.112122
00085_color_1715712257.048577.png,1735,1715712257.045461,-599.427307,1204.657349,903.200867,-660.022034,1213.283325,922.106689,-615.865601,1243.908936,932.438232,-565.433105,1251.092773,888.673401,-538.722412,1243.259155,861.39447,-517.184387,1222.457153,841.108032,-542.970764,1174.11438,868.146729,-529.796997,1158.946655,846.494446,-515.967346,1149.109375,821.129028,295.044403,958.188232,1497.214966,241.484634,949.044983,1512.413086,189.286575,964.944641,1490.339355,92.993279,264.69046,766.142883,123.402145,255.72789,759.890259,145.058334,250.468231,752.465393,11.73558,243.512009,757.68042,34.074253,221.696167,753.366638,60.868801,203.257294,747.564575,53.937916,287.401672,775.422424,49.572689,321.097443,767.781494,17.749411,306.715881,775.881958,-44.369274,295.865875,792.15741,539.077576,-411.96405,1006.041199,544.0896,-324.451294,1004.277588,368.476227,-304.575439,1002.82251,362.986847,-390.088776,1002.740173,539.443604,-409.326019,738.429993,549.262207,-320.907867,740.256409,372.396637,-305.937073,738.841248,361.574707,-393.348053,738.135925
00086_color_1715712257.082929.png,1739,1715712257.0854611,-583.074768,1210.865356,904.960632,-644.071594,1218.28125,923.267761,-600.700195,1249.803223,933.689453,-549.945312,1257.897705,890.348206,-524.810303,1250.390991,862.26947,-501.132904,1230.050171,842.720459,-525.72406,1181.472778,870.224854,-512.10022,1166.620117,848.666199,-498.67926,1157.101074,823.010986,295.044708,958.18335,1497.209473,241.482025,949.042542,1512.41394,189.27739,964.9151,1490.327148,93.093307,264.687408,766.224365,123.488914,255.713577,759.906311,145.124084,250.45488,752.451538,11.774079,243.346222,757.639221,34.166328,221.546631,753.330017,60.992004,203.158646,747.532166,53.946613,287.345062,775.499207,49.55769,321.021729,767.777222,17.707939,306.571136,775.829712,-44.355896,295.583466,792.06134,539.081116,-411.973938,1006.00531,544.09259,-324.459747,1004.276611,368.466736,-304.575562,1002.831909,362.982391,-390.081879,1002.717468,539.447144,-409.340057,738.415649,549.250427,-320.942444,740.233154,372.387146,-305.952332,738.832336,361.563873,-393.35614,738.111633
00087_color_1715712257.116105.png,1742,1715712257.115461,-569.858887,1216.110596,905.991028,-630.932983,1222.546387,924.266418,-588.31665,1254.800903,934.486938,-537.43158,1262.896973,891.76532,-510.837006,1256.758911,864.129272,-488.246979,1236.50293,844.082275,-511.52533,1187.860107,872.098938,-497.839966,1172.893677,850.294312,-484.251434,1163.52124,824.67334,295.043945,958.18634,1497.21582,241.483994,949.03717,1512.41626,189.289368,964.944214,1490.353882,93.148071,264.736938,766.246094,123.553703,255.798553,759.944397,145.182526,250.514511,752.445374,11.833816,243.330246,757.697571,34.251873,221.558792,753.333435,61.070618,203.156433,747.533569,53.97496,287.393951,775.512634,49.56889,321.047485,767.76123,17.763828,306.552704,775.789307,-44.21703,295.514282,792.148682,539.077759,-411.963593,1006.021851,544.081116,-324.467682,1004.271362,368.449005,-304.55719,1002.836121,362.994415,-390.06958,1002.72345,539.457336,-409.348694,738.44104,549.271667,-320.90567,740.262756,372.390808,-305.948761,738.838257,361.572113,-393.348206,738.128662
00088_color_1715712257.149211.png,1745,1715712257.145461,-555.812988,1221.973877,907.010071,-616.990234,1227.554932,925.135254,-575.950317,1261.0,934.965698,-524.201965,1269.805542,892.439514,-497.106201,1263.502319,865.18689,-474.653198,1243.579224,845.131592,-497.840698,1194.606445,872.656982,-483.656311,1179.987061,851.429749,-469.104034,1170.569092,825.998169,295.036011,958.178162,1497.212402,241.479523,949.041077,1512.407959,189.277618,964.931824,1490.335938,93.183357,264.803619,766.268921,123.546417,255.834106,759.933777,145.191101,250.553543,752.443115,11.852164,243.301819,757.717163,34.286457,221.559021,753.378601,61.089127,203.158142,747.535034,53.976143,287.432159,775.532227,49.55714,321.071045,767.752319,17.844027,306.579193,775.742065,-43.914249,295.549408,792.505005,539.071167,-411.966095,1006.031494,544.097229,-324.468628,1004.274109,368.481354,-304.582855,1002.827393,363.00061,-390.091583,1002.744202,539.439819,-409.336884,738.448181,549.257446,-320.922089,740.253723,372.384521,-305.960907,738.850525,361.577026,-393.347198,738.129944
00089_color_1715712257.183321.png,1749,1715712257.185461,-537.052063,1231.085571,907.50647,-597.865173,1235.342896,925.514282,-557.495667,1269.793579,935.528076,-505.799164,1279.522339,892.969604,-478.629608,1273.19165,865.731506,-454.421021,1253.325439,846.631287,-477.938904,1204.426025,873.771729,-463.375061,1189.865479,852.560486,-448.693695,1180.723267,827.342346,295.057739,958.181763,1497.213135,241.492584,949.033325,1512.413452,189.284393,964.93457,1490.351685,93.242531,264.878876,766.305359,123.62468,255.907837,759.953674,145.23114,250.59787,752.418091,12.052592,243.319183,757.773743,34.419918,221.585403,753.429443,61.22578,203.187637,747.541321,54.004856,287.510437,775.595337,49.564442,321.143463,767.795898,17.960619,306.591736,775.708069,-43.724064,295.132935,792.471313,539.036438,-411.965485,1006.046265,544.065613,-324.432892,1004.285461,368.442139,-304.560211,1002.82428,362.958435,-390.068054,1002.738831,539.439392,-409.354584,738.450562,549.24115,-320.922974,740.250977,372.390747,-305.943359,738.831055,361.56427,-393.362976,738.117676
00090_color_1715712257.216529.png,1752,1715712257.215461,-522.139954,1238.680664,908.015564,-583.016418,1242.279663,925.894653,-543.093994,1277.408081,935.677368,-491.542999,1287.714966,892.747375,-463.352692,1281.760376,866.588623,-439.539276,1262.321533,846.843079,-462.493347,1212.826294,874.403015,-447.590759,1198.398804,853.360229,-433.518982,1189.120361,827.697327,295.04953,958.166565,1497.218262,241.490463,949.012817,1512.410645,189.286911,964.910645,1490.346924,93.362038,264.917664,766.352539,123.710312,255.948334,759.948181,145.304276,250.625076,752.384033,12.125594,243.246735,757.82019,34.555477,221.585968,753.459961,61.503311,203.307175,747.754761,54.068565,287.492859,775.622742,49.594688,321.132599,767.800415,18.140118,306.544617,775.706787,-43.406715,294.829163,792.616577,539.087708,-411.969025,1006.024109,544.08313,-324.445374,1004.273865,368.471405,-304.565216,1002.838989,363.005463,-390.069946,1002.731323,539.442139,-409.349243,738.430359,549.235046,-320.938354,740.244202,372.387756,-305.956726,738.865479,361.57135,-393.369751,738.124878
00091_color_1715712257.250535.png,1756,1715712257.255461,-502.010284,1250.512573,908.634033,-563.787903,1254.071167,926.164001,-523.795593,1289.212524,935.919373,-472.307434,1300.160278,892.35614,-445.125671,1294.382568,865.804932,-419.855225,1274.732788,847.506348,-441.93985,1225.181519,875.450012,-426.862671,1210.757446,854.74115,-411.853149,1201.543701,829.366394,295.05722,958.141296,1497.214355,241.499207,948.995239,1512.407471,189.288681,964.897461,1490.35083,93.57251,265.078827,766.390442,123.926117,256.136902,759.945251,145.516861,250.764343,752.38208,12.357433,243.278534,757.888123,34.932896,221.642288,753.502869,61.808189,203.337585,747.624573,54.204662,287.653442,775.696045,49.713707,321.321045,767.886963,18.306982,306.606537,775.584778,-43.005436,294.548065,792.753784,539.043457,-411.973511,1006.040955,544.066772,-324.454224,1004.283081,368.443512,-304.585876,1002.80188,362.957642,-390.052185,1002.714783,539.439392,-409.366821,738.450867,549.248901,-320.916351,740.261902,372.389709,-305.960663,738.837158,361.557281,-393.375946,738.120361
00092_color_1715712257.283736.png,1759,1715712257.285461,-487.125916,1260.595703,909.523926,-549.002808,1264.210938,926.846497,-508.97699,1299.49707,936.366638,-459.308716,1309.499146,892.509094,-431.149963,1303.626709,866.189392,-404.782104,1284.733643,848.249207,-427.049683,1235.212646,876.292786,-412.908936,1220.53772,855.164307,-396.643951,1211.537109,830.830078,295.062256,958.135315,1497.221924,241.500809,948.994019,1512.421265,189.282791,964.897217,1490.364502,93.738152,265.207031,766.441895,124.078972,256.250092,759.958435,145.697739,250.873245,752.372437,12.532639,243.261292,757.969421,35.186859,221.702255,753.518127,62.148617,203.45665,747.632874,54.482933,287.776825,775.910828,50.0723,321.791504,768.509521,18.446484,306.610168,775.5578,-42.751186,294.291473,792.831726,539.058044,-411.98468,1006.042236,544.082581,-324.457672,1004.270935,368.439453,-304.5578,1002.838501,362.975525,-390.093323,1002.747803,539.439636,-409.372314,738.421143,549.235168,-320.925446,740.244141,372.381927,-305.955872,738.835022,361.547394,-393.363251,738.125061
00093_color_1715712257.316849.png,1762,1715712257.3154612,-472.45401,1271.875366,910.570984,-534.297791,1275.558716,927.622498,-494.324493,1310.898315,937.280579,-444.379639,1320.602417,893.449829,-416.557556,1314.517334,867.04657,-389.994415,1295.488892,849.281189,-412.470428,1246.167114,877.654114,-397.169952,1231.719116,857.080322,-381.643311,1222.445801,832.557983,295.053894,958.137207,1497.211792,241.498856,949.001465,1512.413818,189.270538,964.871948,1490.323853,93.859978,265.174438,766.454834,124.190147,256.274841,759.945007,145.804825,250.841766,752.320862,12.632139,243.202301,758.015259,35.305771,221.631134,753.505798,62.307571,203.451126,747.59967,54.53801,287.773468,775.953308,49.894905,321.468445,768.057556,18.539793,306.511749,775.53302,-42.508556,294.006439,792.854858,539.032043,-411.952637,1006.014832,544.054443,-324.460052,1004.286438,368.405121,-304.544159,1002.824402,362.966309,-390.084229,1002.711792,539.43811,-409.363983,738.411804,549.230042,-320.947052,740.235046,372.359283,-305.965759,738.824951,361.549805,-393.369751,738.111328
00094_color_1715712257.350136.png,1765,1715712257.3454611,-458.171112,1284.048218,911.802795,-519.833069,1288.147461,928.759583,-479.917999,1323.310669,938.431274,-429.527954,1332.599243,894.976196,-402.052277,1326.260498,868.47052,-375.154572,1307.137329,851.090637,-398.041565,1257.996094,879.175415,-382.986877,1243.217529,858.776672,-367.147705,1233.953491,834.198181,295.060181,958.168091,1497.216431,241.500748,949.006104,1512.409302,189.276138,964.891052,1490.335815,94.048256,265.291687,766.554504,124.341393,256.319733,759.94696,145.955566,250.913528,752.316467,12.796,243.213928,758.06134,35.493198,221.661148,753.553833,62.513485,203.463562,747.581055,54.652126,287.65741,775.737793,50.021683,321.572968,768.061707,18.698647,306.57132,775.505127,-42.301022,293.917114,792.894165,539.058777,-411.97464,1006.016602,544.072937,-324.451202,1004.263733,368.451019,-304.579926,1002.815002,362.966187,-390.087219,1002.723694,539.435364,-409.369568,738.422058,549.225769,-320.955658,740.217163,372.365356,-305.966125,738.831055,361.558044,-393.385803,738.109253
00095_color_1715712257.383519.png,1769,1715712257.385461,-439.300018,1301.196411,913.939148,-501.12207,1306.17041,930.377075,-460.840637,1340.895386,940.330933,-409.925415,1349.340332,897.40802,-382.227722,1342.504395,871.673828,-355.246704,1323.100098,854.294006,-379.131348,1274.218506,882.126892,-363.944214,1259.410767,861.914246,-348.480927,1249.630737,837.183289,295.061279,958.144836,1497.213135,241.5065,949.007507,1512.405884,189.273712,964.880493,1490.331543,94.428703,265.552155,766.610352,124.673218,256.636597,760.030762,146.250168,251.134094,752.313538,13.099772,243.381683,758.247498,35.867466,221.804199,753.693176,62.909542,203.616928,747.579468,54.940907,288.027161,775.825867,50.307388,321.929871,768.001892,18.955896,306.913269,775.458801,-41.879898,294.114746,792.958069,539.038574,-411.966705,1006.01532,544.059631,-324.445129,1004.277466,368.418121,-304.553802,1002.817749,362.952271,-390.091156,1002.715576,539.43573,-409.371979,738.431824,549.231567,-320.93576,740.234985,372.38382,-305.950958,738.817017,361.561157,-393.382477,738.102051
00096_color_1715712257.419589.png,1772,1715712257.415461,-425.472687,1314.439087,915.691772,-487.516449,1320.072144,931.34375,-447.009491,1354.466919,941.78186,-395.727966,1362.438354,899.407593,-367.292908,1355.431885,873.809814,-340.486267,1335.963379,857.070374,-364.962616,1287.100952,884.91626,-350.219116,1272.10437,864.370544,-333.737732,1262.342773,840.296509,295.061096,958.144165,1497.215576,241.501801,949.001526,1512.411743,189.274628,964.885742,1490.325195,94.665199,265.594513,766.669434,124.961411,256.775177,760.141479,146.519882,251.256729,752.348511,13.287846,243.318466,758.241089,36.111519,221.776489,753.691162,63.227566,203.639664,747.525085,55.146408,288.03833,775.856567,50.470589,321.92627,767.993286,19.108414,306.868927,775.457703,-41.651962,293.908783,792.966919,539.11438,-411.952393,1005.969788,544.10144,-324.475555,1004.269104,368.52771,-304.677734,1002.735596,363.003937,-390.121979,1002.672058,539.501526,-409.325256,738.388062,549.318176,-320.932373,740.231995,372.46524,-305.941315,738.79248,361.638519,-393.334229,738.066162
00097_color_1715712257.454957.png,1776,1715712257.455461,-408.011841,1332.244995,918.134155,-470.380066,1338.305908,932.495911,-429.998352,1372.529663,943.672119,-376.79184,1380.250122,903.19928,-347.754456,1373.209106,878.333679,-323.699554,1352.996948,860.279053,-347.035187,1304.758911,888.730713,-331.842468,1289.65625,868.566528,-315.209656,1279.725098,844.644348,295.055145,958.150574,1497.21106,241.500702,949.014404,1512.410522,189.284821,964.901794,1490.334595,94.982872,265.724518,766.782043,125.521194,257.180084,760.49408,147.029312,251.643005,752.634277,13.517715,243.266556,758.30835,36.382576,221.762619,753.735718,63.570576,203.640076,747.542969,55.401699,288.09256,775.928711,50.640972,321.932007,767.980103,19.290863,306.850616,775.472778,-41.41555,293.822327,792.962402,539.380798,-411.959412,1005.895996,544.328125,-324.469818,1004.20166,368.829254,-304.772064,1002.765442,363.300934,-390.109802,1002.706665,539.647034,-409.218872,738.338623,549.422241,-320.86557,740.184814,372.61557,-305.893036,738.840942,361.785339,-393.312408,738.076233
00098_color_1715712257.491182.png,1780,1715712257.495461,-392.797272,1349.739624,920.817627,-455.406586,1355.850586,934.124451,-415.11853,1390.087769,945.723328,-362.077118,1397.474121,905.427979,-332.695953,1390.175415,881.022156,-307.556427,1370.019165,864.108521,-331.40509,1321.938354,892.382263,-315.832031,1306.781006,872.6521,-298.692291,1296.930542,849.058044,295.062683,958.151428,1497.206787,241.507828,949.021423,1512.40918,189.277344,964.902466,1490.329834,95.229218,265.810699,766.805542,125.843689,257.339752,760.585632,147.413269,251.903595,752.795715,13.772156,243.292938,758.430542,36.679806,221.805771,753.787537,63.830048,203.638916,747.561157,55.599262,288.205902,775.938721,50.792801,322.010437,767.889832,19.430553,306.886292,775.410645,-41.264973,293.90094,792.89801,539.431763,-412.36676,1005.809448,544.407288,-324.820618,1004.245972,368.889801,-305.173737,1002.856384,363.407227,-390.560303,1002.688049,539.602112,-409.244171,738.220276,549.403748,-320.914337,740.192383,372.569397,-305.918365,738.959106,361.768341,-393.333435,738.047546
00099_color_1715712257.528556.png,1783,1715712257.525461,-383.172211,1361.754028,922.865479,-445.976257,1368.414917,935.600891,-405.583038,1402.384033,947.478455,-352.336273,1409.377563,907.489624,-322.091705,1402.215332,884.097168,-297.368164,1381.649902,866.861084,-321.888885,1333.737183,894.79126,-306.049072,1318.506104,875.343323,-288.312714,1308.55835,852.164001,295.064575,958.140198,1497.208374,241.506256,949.003784,1512.407471,189.289093,964.898438,1490.340942,95.337234,265.837769,766.806274,126.013252,257.391296,760.600586,147.533386,251.952026,752.793274,13.907752,243.347305,758.476196,36.814499,221.801483,753.776062,63.961903,203.623535,747.545044,55.682907,288.215637,775.89386,50.857517,322.000671,767.805969,19.509117,306.882874,775.339905,-41.172592,293.879395,792.840942,538.762085,-413.709686,1005.694275,544.005493,-326.686157,1004.549744,368.485779,-306.976685,1003.123291,362.88089,-392.459167,1002.448669,539.483704,-409.440094,738.026794,549.287903,-320.993866,740.526062,372.397858,-306.058899,739.221558,361.585083,-393.454742,737.805542
00100_color_1715712257.562940.png,1787,1715712257.5654612,-373.074799,1376.438599,925.644165,-435.788879,1383.94104,937.72168,-394.989319,1417.338013,950.03418,-341.067444,1423.474243,910.76947,-310.582336,1415.785767,887.472473,-286.308289,1394.901611,870.469971,-312.065094,1347.440918,898.10791,-295.466949,1331.958984,879.122742,-278.569061,1321.707153,855.858643,295.065796,958.146301,1497.207031,241.50621,949.001526,1512.404785,189.283478,964.878052,1490.32666,95.389862,265.910583,766.817444,126.145927,257.546661,760.68573,147.566803,251.9655,752.710083,14.027892,243.389557,758.495972,36.929371,221.829895,753.772522,64.09404,203.686188,747.575378,55.737366,288.280731,775.875488,50.889969,322.035034,767.750732,19.551821,306.917877,775.316101,-41.059547,293.922729,792.882568,538.995911,-416.788361,1005.033875,544.206482,-328.977173,1005.104797,368.509796,-309.457001,1003.6073,362.896362,-394.740967,1002.092224,538.968079,-407.995087,737.021301,549.404785,-321.197235,740.877747,372.521973,-306.002197,739.67865,361.546265,-393.324524,737.440735
00101_color_1715712257.600943.png,1791,1715712257.6054611,-365.04364,1389.315308,928.372864,-427.707428,1397.591431,939.828308,-386.629089,1430.490601,952.453613,-332.327118,1435.869141,913.59198,-301.573334,1427.812866,890.771179,-277.567078,1406.536865,873.816223,-304.293823,1359.425537,901.257996,-287.736237,1343.745117,882.477722,-271.354645,1333.095581,859.031982,295.06958,958.153381,1497.211304,241.511688,949.006592,1512.415283,189.281998,964.906921,1490.330322,95.390938,265.905396,766.845886,126.197083,257.61084,760.753174,147.483749,251.839661,752.620728,14.039387,243.357758,758.497192,36.951447,221.829941,753.789185,64.126266,203.687836,747.581787,55.7355,288.263458,775.897583,50.885895,322.011414,767.763733,19.573725,306.890991,775.306885,-40.998852,293.917664,792.91687,538.501343,-417.401733,1004.901428,543.954895,-330.750305,1005.138611,368.52713,-310.468414,1003.73291,362.772949,-395.763641,1001.901001,538.992615,-408.103668,736.834656,549.546509,-321.412354,741.046692,372.669098,-306.007965,739.841553,361.570801,-393.265076,737.234619
00102_color_1715712257.634371.png,1794,1715712257.635461,-360.160553,1397.802002,929.88208,-422.83252,1406.38208,941.333008,-381.540558,1439.093506,953.932434,-326.53006,1444.299072,915.666016,-296.717499,1435.847534,892.248596,-272.72168,1414.520752,875.42572,-299.242188,1367.596191,903.089294,-283.570496,1351.76001,883.881409,-266.04129,1341.156128,860.994446,295.066925,958.147827,1497.218628,241.510391,949.011353,1512.410522,189.294495,964.8974,1490.342041,95.422401,265.960144,766.862549,125.768188,257.026886,760.112061,147.463745,251.806046,752.558411,14.078881,243.450134,758.550415,37.004444,221.882431,753.81311,64.155212,203.739975,747.609314,55.752384,288.362854,775.909729,50.894646,322.092621,767.754517,19.581789,306.9776,775.287048,-40.971893,293.98056,792.916321,538.592773,-418.087341,1005.048157,543.737061,-330.829529,1005.195374,368.339661,-310.526886,1003.630737,362.506195,-395.925507,1001.810425,538.991882,-408.122559,736.878723,549.588562,-321.448639,741.144531,372.716614,-305.959045,739.778992,361.555878,-393.23114,737.117188
00103_color_1715712257.669847.png,1797,1715712257.665461,-356.0672,1405.254883,931.076782,-418.76239,1413.947754,942.513367,-377.428467,1446.645386,955.144592,-322.051331,1451.677734,916.59436,-292.281403,1443.330566,893.825195,-268.930389,1421.75293,876.46521,-295.11911,1374.890625,904.619568,-279.170563,1359.038452,885.371216,-262.38736,1348.28125,862.096436,295.067108,958.145691,1497.210693,241.506699,949.008301,1512.412964,189.285034,964.906799,1490.348022,95.455925,265.959351,766.879944,126.049492,257.371338,760.486877,147.438126,251.724808,752.481201,14.087708,243.447083,758.564941,37.007233,221.851715,753.810486,64.167038,203.717224,747.604675,55.766716,288.351318,775.923706,50.903862,322.091522,767.766907,19.588064,306.962402,775.288818,-40.95789,293.965424,792.908813,538.380615,-417.825958,1005.1651,543.535706,-330.590576,1005.20752,368.09613,-310.3703,1003.493286,362.317749,-395.846802,1001.757507,539.010132,-408.17157,737.005188,549.561523,-321.395294,741.177002,372.677643,-306.00058,739.658203,361.56543,-393.27063,737.072754
00104_color_1715712257.705461.png,1801,1715712257.705461,-351.979919,1413.499268,932.330505,-414.555573,1422.203003,944.031067,-373.149872,1454.963989,956.045898,-319.197449,1459.742554,916.756714,-288.892151,1451.20105,893.566528,-265.11441,1429.856812,876.89856,-291.235901,1383.01416,905.130859,-275.2883,1367.139893,886.141357,-258.599915,1356.227905,862.706909,295.069855,958.139893,1497.207886,241.512756,949.011597,1512.413086,189.2836,964.900085,1490.339355,95.503647,266.002838,766.920715,126.060249,257.410034,760.501831,147.388092,251.686401,752.404236,14.18116,243.476105,758.560547,37.094772,221.886551,753.791626,64.274933,203.793106,747.622803,55.779236,288.413361,775.970703,50.90052,322.131287,767.762085,19.566208,307.018616,775.289185,-40.988136,293.985657,792.866028,537.578369,-415.703918,1005.423523,542.819946,-328.977814,1005.27301,367.311951,-309.349854,1003.185486,361.809662,-394.720795,1001.633911,539.106323,-407.887939,737.432312,549.355225,-321.06076,741.206726,372.43631,-306.210052,739.247498,361.614227,-393.530243,737.052063
00105_color_1715712257.741882.png,1805,1715712257.745461,-348.879059,1419.588989,932.548035,-411.398102,1428.503296,944.846924,-369.800446,1461.244629,956.497559,-315.152374,1466.016357,917.089417,-287.107544,1457.161011,892.803223,-262.346466,1435.678589,876.502075,-288.396851,1389.077759,905.088867,-272.528687,1373.060303,885.961548,-256.276367,1362.198242,862.436279,295.066193,958.150208,1497.219727,241.513046,949.009033,1512.415527,189.285812,964.887573,1490.334595,95.492126,265.986633,766.942322,126.009552,257.322052,760.440735,147.343964,251.65033,752.35437,14.178107,243.459686,758.540833,37.135876,221.900116,753.778381,64.324226,203.80748,747.603455,55.775871,288.403046,775.987061,50.896698,322.121002,767.763733,19.562113,306.991364,775.283936,-41.020428,293.978851,792.820679,536.951782,-411.394623,1005.744202,541.650574,-325.066101,1005.160828,365.775635,-307.346619,1002.505798,360.946442,-392.967773,1001.918457,539.309875,-408.258667,738.630127,548.349243,-319.940399,741.093323,371.303497,-306.849518,738.528442,361.3508,-394.214081,737.311768
00106_color_1715712257.775723.png,1808,1715712257.775461,-346.814941,1423.175781,932.512451,-409.237061,1432.05481,945.430786,-367.616211,1464.953857,956.518433,-314.390198,1469.477295,916.227966,-285.337341,1460.639648,892.409119,-260.738464,1439.22522,875.629272,-286.992371,1392.579468,904.387817,-270.890137,1376.585449,885.379028,-254.561844,1365.648193,861.930908,295.06662,958.161804,1497.216309,241.509491,949.006531,1512.409546,189.288834,964.908264,1490.345947,95.507797,265.987244,766.96405,125.968185,257.294586,760.393005,147.342346,251.618958,752.328918,14.206207,243.43927,758.509033,37.167351,221.911407,753.764526,64.368805,203.860092,747.618652,55.771931,288.407959,775.998413,50.914986,322.122467,767.751282,19.538385,307.018738,775.296387,-41.057339,294.012848,792.799072,535.904053,-408.33252,1005.958923,540.160278,-322.051483,1004.798157,364.190979,-305.388855,1002.257019,359.886627,-391.035858,1002.369385,538.054688,-407.586761,738.956482,546.421814,-319.176727,740.599487,369.391754,-306.891113,738.224365,359.931305,-394.281952,737.726379
00107_color_1715712257.809884.png,1811,1715712257.805461,-345.084869,1426.064575,932.4198,-407.35376,1434.90918,945.659973,-365.694366,1467.908569,956.428955,-312.594666,1472.320679,915.692322,-283.961334,1463.393921,891.352112,-259.438232,1441.843994,874.688721,-285.046906,1395.323242,904.0672,-269.555115,1379.213867,884.912537,-253.407394,1368.246582,861.247559,295.069763,958.146423,1497.217896,241.512787,949.013611,1512.416626,189.296982,964.924072,1490.362793,95.483627,265.975189,766.951599,125.88604,257.228363,760.316345,147.316422,251.608551,752.321228,14.178485,243.437103,758.502197,37.170776,221.891434,753.765625,64.380287,203.862503,747.613037,55.757454,288.408112,775.991943,50.903652,322.114563,767.758057,19.490837,307.002991,775.301392,-41.147816,294.018005,792.730469,534.298645,-408.293762,1006.416199,537.84259,-321.132507,1004.639526,362.023529,-304.543152,1002.131592,357.895172,-390.053436,1002.526855,535.977295,-406.929565,739.059692,543.810181,-318.811829,740.251343,367.09137,-306.282043,738.243958,357.717102,-393.810486,737.824585
00108_color_1715712257.845397.png,1815,1715712257.8454611,-342.906219,1428.905273,932.258911,-404.982422,1438.195068,946.028748,-363.115631,1471.040039,956.168701,-310.501404,1475.086914,914.693665,-282.000153,1465.978882,890.236511,-258.044739,1444.359009,873.422424,-283.167633,1397.993896,903.315918,-267.901733,1381.81311,883.944885,-252.216522,1370.488403,860.08551,295.070953,958.1604,1497.221313,241.509888,949.011536,1512.407959,189.294571,964.925598,1490.364868,95.450012,265.947937,766.928223,125.776588,257.107056,760.219727,147.26857,251.567429,752.29657,14.133395,243.392334,758.485413,37.109604,221.864883,753.742065,64.3536,203.848495,747.602112,55.72789,288.348602,775.974365,50.89043,322.088318,767.759521,19.433645,306.995514,775.299133,-41.272133,294.06842,792.688049,529.541687,-407.74411,1006.063354,533.668945,-321.407227,1004.691223,357.905121,-304.297394,1002.266296,353.448944,-389.058746,1001.80426,531.718079,-406.435577,738.822388,539.932373,-317.834625,740.546143,363.032867,-305.317169,738.386902,353.362244,-392.86377,737.622986
00109_color_1715712257.879510.png,1818,1715712257.875461,-341.09375,1430.990845,932.029907,-403.095123,1440.178955,946.363159,-361.250946,1473.108887,955.981812,-308.745758,1476.958618,914.389526,-280.589081,1467.721924,889.637817,-256.292725,1446.019653,872.730408,-281.675659,1399.805908,902.975708,-267.155151,1383.393799,883.373108,-251.685715,1372.078247,859.579102,295.068848,958.137146,1497.208008,241.516174,949.004761,1512.414551,189.303391,964.920593,1490.365601,95.444695,265.944,766.917358,125.745804,257.032776,760.166443,147.273697,251.557266,752.313782,14.140099,243.389252,758.47522,37.114498,221.861771,753.73407,64.341438,203.83931,747.600403,55.725574,288.342621,775.963684,50.885113,322.079346,767.749939,19.406988,306.97049,775.281067,-41.384144,294.127808,792.716248,525.440063,-407.583496,1005.846985,529.737549,-321.622711,1004.695801,354.104309,-303.98349,1002.2901,349.567444,-389.332062,1002.188416,527.734558,-406.478058,738.814331,536.142029,-317.906738,740.605652,359.328003,-304.918121,738.335449,349.415588,-392.371521,737.54657
00110_color_1715712257.914485.png,1822,1715712257.915461,-338.70163,1433.450684,932.493652,-400.714233,1443.102051,946.711426,-358.573303,1475.814209,956.282532,-306.329834,1479.250732,914.421326,-277.962128,1469.868286,889.617188,-254.378296,1447.870239,872.773438,-279.779572,1401.920654,903.231628,-264.378815,1385.47168,884.000183,-249.027191,1374.058228,860.143433,295.072388,958.154419,1497.22522,241.515991,949.012085,1512.415894,189.301971,964.93335,1490.374268,95.477341,266.055634,767.104553,125.72403,257.040619,760.187012,147.168808,251.417725,752.178101,14.129134,243.395935,758.444519,37.104851,221.850052,753.714478,64.337662,203.848846,747.602295,55.702271,288.343689,775.952759,50.876957,322.072601,767.759827,19.344954,306.990631,775.293518,-41.410774,294.470306,792.854492,518.167664,-409.063629,1007.054199,523.540039,-321.662842,1004.58313,347.933716,-303.086609,1002.137512,343.04953,-388.510956,1002.075684,520.899292,-406.223572,738.625183,529.977661,-318.19101,740.436584,353.151672,-304.187714,738.217224,342.819733,-391.704742,737.478088
00111_color_1715712257.950443.png,1825,1715712257.945461,-336.900238,1435.493652,932.939819,-398.761505,1445.287354,947.286377,-356.511627,1477.947632,956.564209,-304.323151,1481.082886,914.93573,-276.047791,1471.443115,890.087646,-252.167282,1449.480957,873.25647,-277.601593,1403.68103,904.044739,-262.927155,1387.045532,884.417786,-247.530594,1375.437134,860.840942,295.070068,958.147888,1497.221069,241.518036,949.004028,1512.417969,189.292877,964.907593,1490.347534,95.399551,266.017303,767.017578,125.711426,257.019623,760.178528,147.228821,251.53717,752.316956,14.110234,243.36676,758.419556,37.089386,221.858734,753.71051,64.322548,203.83075,747.597229,55.68372,288.315338,775.935303,50.870033,322.057495,767.762329,19.275093,306.960724,775.286987,-41.589958,294.527466,792.860657,513.044189,-408.976471,1006.249207,518.048889,-321.245361,1004.748718,342.290527,-302.587921,1002.078979,337.061249,-387.982849,1002.057922,514.86554,-406.302063,738.616821,524.36554,-318.114227,740.497314,347.44635,-303.640076,738.182129,337.017212,-391.182983,737.471191
00112_color_1715712257.987061.png,1829,1715712257.985461,-334.134552,1438.330444,933.806335,-396.144165,1448.513428,947.971863,-353.781708,1481.005371,957.500549,-301.287109,1483.849854,915.906494,-273.103668,1474.135254,891.112549,-249.321075,1451.932739,874.72406,-275.170959,1406.212036,905.034546,-260.793243,1389.537109,885.630737,-245.340668,1377.906982,861.822937,295.068726,958.140076,1497.21521,241.518631,949.001099,1512.406616,189.288788,964.904053,1490.348633,95.328888,265.97937,766.928833,125.695602,257.004608,760.166016,147.224854,251.54483,752.311584,14.10148,243.3815,758.411926,37.09853,221.861099,753.682434,64.3144,203.857849,747.607788,55.680035,288.321808,775.934937,50.873039,322.053589,767.74762,19.185717,306.979858,775.298157,-41.785622,294.653809,792.756287,503.955292,-407.346436,1005.886292,509.272034,-321.040741,1004.690552,333.572906,-301.943634,1001.943848,328.129211,-387.369934,1002.020508,506.278442,-405.907562,738.711426,515.858459,-317.677948,740.452148,339.097412,-302.873901,738.127258,328.36441,-390.398254,737.309814
00113_color_1715712258.020801.png,1833,1715712258.025461,-331.769043,1441.563477,934.897095,-393.762085,1451.935181,948.69873,-351.235535,1484.241211,958.377686,-298.657379,1486.89917,916.892212,-270.338959,1476.986572,892.600708,-246.702057,1454.792358,876.044067,-272.567413,1409.238159,906.623718,-257.692108,1392.412964,887.414612,-242.047379,1380.658569,863.867188,295.071136,958.137817,1497.21521,241.519348,949.005127,1512.409912,189.299515,964.908386,1490.35083,95.289261,265.987427,766.903687,125.667648,257.042084,760.164795,147.189651,251.540543,752.326355,14.079748,243.361923,758.384705,37.07444,221.862885,753.697693,64.306007,203.851593,747.593262,55.647358,288.335632,775.916199,50.849228,322.077545,767.738159,19.069839,306.989441,775.285461,-42.09972,294.770538,792.599854,493.874756,-406.750916,1006.033447,498.796448,-320.055359,1004.58313,323.258698,-301.079865,1001.831299,317.884857,-385.500763,1001.22522,496.203461,-404.711609,738.56604,505.641632,-316.547119,740.408203,328.826538,-302.067566,737.974182,318.230743,-389.637909,737.166992
00114_color_1715712258.055655.png,1836,1715712258.055461,-330.187683,1444.010986,935.770264,-392.067688,1454.45459,949.257996,-349.775208,1486.716187,958.920105,-296.896423,1489.243774,918.064453,-268.412354,1479.273193,893.912292,-244.683685,1456.921753,877.256775,-270.930817,1411.582031,907.620483,-255.975403,1394.727417,888.632996,-240.257935,1382.896851,865.223877,295.073212,958.158386,1497.221558,241.508255,949.00177,1512.412476,189.288574,964.887756,1490.338623,95.254181,265.992371,766.901611,125.630676,257.015686,760.151428,147.167725,251.546555,752.331055,14.082126,243.40152,758.389404,37.063824,221.888306,753.706848,64.298233,203.865952,747.605225,55.708603,288.579865,776.211243,50.83712,322.072754,767.718262,18.977465,307.037109,775.306274,-42.337017,294.930542,792.499084,485.269897,-406.530396,1006.132751,490.068939,-319.194946,1004.506348,314.538574,-299.855652,1001.756775,309.280487,-385.184387,1001.615051,487.562317,-404.045441,738.673401,496.734863,-316.153748,740.257874,320.2005,-301.205292,737.790161,309.523254,-388.574219,737.094543
00115_color_1715712258.091817.png,1840,1715712258.0954611,-328.534882,1447.039185,936.540039,-390.532471,1457.738525,949.671631,-348.085602,1489.898804,959.799194,-294.945892,1492.176514,919.171509,-266.442169,1482.171387,894.995667,-242.438232,1459.688477,878.812561,-269.157715,1414.393555,908.965393,-253.896408,1396.530884,890.511047,-238.206512,1385.665527,866.609558,295.066864,958.157593,1497.218262,241.512619,949.003174,1512.41687,189.29425,964.907104,1490.355835,95.220665,265.993103,766.859558,125.614616,257.093201,760.165405,147.143311,251.56778,752.355835,14.052151,243.398224,758.377075,37.035545,221.880249,753.698792,64.267281,203.871231,747.609314,55.566917,288.424072,775.924683,50.952873,322.207703,767.923218,18.846361,307.045807,775.30542,-42.706047,295.091217,792.291138,472.291046,-404.572144,1006.093262,477.262787,-317.219543,1004.41864,301.49057,-298.236847,1001.588928,296.212616,-383.698212,1001.629578,474.718231,-402.706635,738.659607,484.032562,-314.093445,740.238281,307.195801,-299.701599,737.662354,296.605591,-387.119476,736.947205
00116_color_1715712258.126611.png,1843,1715712258.125461,-327.707153,1449.182251,937.106689,-389.719452,1460.077881,950.08905,-347.340393,1492.111938,960.27771,-294.051025,1494.344482,919.745117,-265.394531,1484.159912,895.862915,-241.539917,1461.778931,879.624634,-268.147308,1416.516846,910.195068,-253.104095,1398.751953,891.704712,-238.009827,1387.559692,867.281494,295.060699,958.153137,1497.219604,241.509735,949.000549,1512.419434,189.280701,964.895996,1490.346313,95.178909,265.998413,766.838684,125.562477,257.071533,760.145447,147.342468,251.797348,752.36731,14.013067,243.365372,758.367126,37.019112,221.870392,753.680237,64.250267,203.864395,747.60553,55.437817,288.45462,775.896484,50.73695,322.08313,767.665771,18.711369,307.02887,775.313782,-42.881149,295.104736,791.887085,461.359344,-402.689209,1006.240967,466.249908,-315.828766,1004.3125,290.658997,-297.085114,1001.453308,285.544739,-382.577057,1001.477844,464.250885,-400.90152,738.489136,473.378754,-312.43576,740.262634,296.490967,-298.43512,737.48999,286.15448,-385.830475,736.841248
00117_color_1715712258.162282.png,1847,1715712258.165461,-327.556488,1451.747192,937.760864,-389.50235,1462.824219,950.560242,-347.040466,1494.697266,960.870483,-293.729706,1496.852051,920.519226,-264.88208,1486.530151,896.612061,-240.969055,1464.065308,880.793274,-268.015839,1418.850586,910.8797,-252.631363,1401.19519,892.675293,-237.161133,1389.909668,868.656128,295.067535,958.15094,1497.214233,241.507477,949.004639,1512.414917,189.306885,964.90387,1490.357544,95.111801,265.944305,766.76825,125.484497,257.015961,760.121643,147.045975,251.417938,752.190369,13.9377,243.26561,758.292053,36.939705,221.83046,753.645752,64.290222,203.928253,747.749573,55.352634,288.413635,775.854248,50.649403,321.91626,767.521667,18.552105,307.001526,775.337646,-43.474548,295.09726,791.705627,446.636871,-400.810425,1006.003723,451.03537,-313.499969,1004.265198,275.445282,-295.076721,1001.255371,270.91037,-379.156311,1000.810974,449.559601,-398.991333,738.533386,458.367035,-310.118469,740.183167,281.487762,-296.247131,737.338135,271.169983,-383.83963,736.632019
00118_color_1715712258.195570.png,1850,1715712258.195461,-327.998291,1453.389893,938.071838,-390.027924,1464.547607,950.729736,-347.41806,1496.381226,961.167786,-293.87851,1498.251953,920.943542,-265.151398,1487.969604,897.018066,-241.190536,1465.343872,881.320374,-268.434296,1420.282349,911.288147,-253.066269,1402.936157,892.987915,-237.799194,1391.231567,869.057922,295.063141,958.125,1497.200073,241.505478,948.994751,1512.419067,189.300552,964.86377,1490.32373,95.037338,265.958557,766.749451,125.393272,256.88443,759.925476,146.963715,251.4104,752.174683,13.86307,243.287567,758.272095,36.878738,221.866806,753.609253,64.144608,203.842575,747.575562,55.273533,288.440063,775.821106,50.594612,321.919037,767.476929,18.506254,307.0448,775.387878,-43.612289,295.385803,791.536377,434.13855,-397.958893,1005.459656,438.995667,-311.2901,1004.323364,263.140656,-293.348511,1001.166565,258.293457,-378.770233,1001.141907,437.372803,-397.133026,738.322937,445.858673,-308.529327,739.923706,269.263092,-294.559021,737.250732,259.106628,-382.077209,736.562256
00119_color_1715712258.230128.png,1853,1715712258.225461,-328.899719,1454.75708,938.197937,-390.931549,1466.26709,950.794189,-348.253906,1497.859985,961.301392,-294.668793,1499.475342,921.231628,-265.871674,1489.032104,897.298889,-242.228806,1466.248047,881.595276,-269.966675,1421.368042,911.342896,-254.35704,1404.366699,892.724548,-238.729401,1392.239136,869.401184,295.069458,958.134827,1497.206909,241.507828,948.995544,1512.405762,189.291977,964.879028,1490.33252,94.974541,265.936493,766.709351,125.329346,256.882233,759.906738,146.90564,251.406693,752.14563,13.8128,243.250961,758.218262,36.805847,221.841843,753.546631,64.098137,203.842957,747.576538,55.210728,288.433167,775.762451,50.522495,321.896271,767.44281,18.309639,307.051178,775.3526,-43.934437,295.667877,791.462402,421.210632,-396.313995,1005.837891,425.972748,-309.2323,1004.220825,250.120346,-291.41571,1000.931885,245.308762,-376.820282,1000.926392,423.980957,-392.649933,737.636902,433.261871,-306.146118,739.993896,256.438995,-292.59729,737.109131,246.300217,-380.058411,736.254456
00120_color_1715712258.263839.png,1857,1715712258.265461,-330.850922,1456.367554,938.192871,-392.721954,1468.195801,950.715881,-349.932251,1499.550781,961.17865,-295.325134,1500.977905,921.869873,-267.751556,1490.273804,897.307068,-243.990265,1467.37561,881.426819,-272.344604,1422.596313,911.27887,-256.745819,1405.479492,892.780396,-240.823792,1393.278687,869.609131,295.064789,958.146545,1497.211548,241.50676,949.000916,1512.410767,189.297287,964.868713,1490.316284,94.837067,265.79303,766.50238,125.185791,256.819977,759.835083,146.780533,251.349625,752.095947,13.65552,243.124466,758.110291,36.693375,221.814728,753.469971,64.022125,203.830353,747.562317,55.118496,288.309906,775.644531,50.364025,321.680847,767.293091,18.074995,306.987549,775.365479,-44.300285,295.753998,791.174561,403.850067,-393.715088,1005.54834,407.494415,-306.377777,1004.070984,231.737854,-289.36969,1000.816345,227.47905,-375.147308,1000.822754,406.759399,-390.886322,737.94635,415.03717,-302.60202,739.90564,238.113098,-290.335083,736.895203,228.667847,-377.968475,736.061768
00121_color_1715712258.297611.png,1860,1715712258.295461,-332.616699,1457.440918,937.859009,-394.602722,1469.50708,950.451782,-351.58783,1500.743408,960.880066,-297.901764,1501.809204,920.796875,-269.318665,1491.081299,896.983521,-245.622009,1468.0979,881.354004,-274.081879,1423.413818,910.90033,-258.557098,1406.286133,892.579651,-242.929535,1394.080322,869.283569,295.064178,958.142151,1497.205322,241.501511,948.990234,1512.416016,189.303207,964.908325,1490.353882,94.702248,265.819214,766.44519,125.055595,256.859558,759.80426,146.332932,251.243835,752.050903,13.443871,243.07312,758.149902,36.600761,221.829483,753.444763,63.959034,203.887863,747.571594,54.975349,288.267395,775.539429,50.232426,321.516724,767.059692,17.842958,307.040497,775.404114,-44.720448,295.915985,791.002136,389.257172,-392.759674,1005.966919,393.21579,-304.981964,1004.0755,217.501312,-288.285034,1000.617615,213.440216,-373.941101,1000.448242,392.956665,-389.256744,737.898315,400.81485,-301.003113,739.891357,224.174713,-288.577301,736.794128,214.72522,-376.259064,735.663391
00122_color_1715712258.331097.png,1864,1715712258.3354611,-335.56012,1458.874512,937.205811,-397.352509,1471.242554,949.771667,-354.167969,1502.148438,960.300293,-300.608337,1503.071411,920.197998,-272.287384,1492.219482,896.200134,-248.75148,1469.078613,880.382385,-277.184174,1424.57666,910.071045,-262.020905,1407.301514,891.641357,-246.521317,1394.958374,868.253174,295.06781,958.149963,1497.213623,241.501633,948.998291,1512.409302,189.309906,964.902527,1490.335327,94.451492,265.876526,766.433044,124.917419,256.991425,759.815186,146.483551,251.598297,752.191406,13.38459,243.137039,758.076477,36.431892,221.899918,753.450684,63.78968,203.94957,747.581787,54.6758,288.140869,775.26355,50.028179,321.509918,766.965149,17.577351,307.158264,775.360535,-45.203259,296.132385,790.673645,370.345612,-390.644928,1005.393982,374.645691,-303.117432,1003.608948,198.962204,-285.116882,1000.232483,194.189667,-370.602661,1000.230652,373.706268,-388.609894,737.823853,382.155579,-300.119293,739.350586,205.488556,-286.507538,736.345886,195.429428,-374.064453,735.654419
