mbdulkadiroglu/VisualAffordanceDataset/synchronized_frames_16.csv
RealSense_frame,Vicon_frame,Vicon_timestamp,RightHand1:Wrist1_X,RightHand1:Wrist1_Y,RightHand1:Wrist1_Z,RightHand1:Wrist2_X,RightHand1:Wrist2_Y,RightHand1:Wrist2_Z,RightHand1:Wrist3_X,RightHand1:Wrist3_Y,RightHand1:Wrist3_Z,RightHand1:Thumb1_X,RightHand1:Thumb1_Y,RightHand1:Thumb1_Z,RightHand1:Thumb2_X,RightHand1:Thumb2_Y,RightHand1:Thumb2_Z,RightHand1:Thumb3_X,RightHand1:Thumb3_Y,RightHand1:Thumb3_Z,RightHand1:IndexFinger1_X,RightHand1:IndexFinger1_Y,RightHand1:IndexFinger1_Z,RightHand1:IndexFinger2_X,RightHand1:IndexFinger2_Y,RightHand1:IndexFinger2_Z,RightHand1:IndexFinger3_X,RightHand1:IndexFinger3_Y,RightHand1:IndexFinger3_Z,LeftHand1:IndexFinger1_X,LeftHand1:IndexFinger1_Y,LeftHand1:IndexFinger1_Z,LeftHand1:IndexFinger2_X,LeftHand1:IndexFinger2_Y,LeftHand1:IndexFinger2_Z,LeftHand1:IndexFinger3_X,LeftHand1:IndexFinger3_Y,LeftHand1:IndexFinger3_Z,LeftHand1:Thumb1_X,LeftHand1:Thumb1_Y,LeftHand1:Thumb1_Z,LeftHand1:Thumb2_X,LeftHand1:Thumb2_Y,LeftHand1:Thumb2_Z,LeftHand1:Thumb3_X,LeftHand1:Thumb3_Y,LeftHand1:Thumb3_Z,LeftHand1:Wrist1_X,LeftHand1:Wrist1_Y,LeftHand1:Wrist1_Z,LeftHand1:Wrist2_X,LeftHand1:Wrist2_Y,LeftHand1:Wrist2_Z,LeftHand1:Wrist3_X,LeftHand1:Wrist3_Y,LeftHand1:Wrist3_Z,LeftHand1:Wrist4_X,LeftHand1:Wrist4_Y,LeftHand1:Wrist4_Z,Realsense:Camera1_X,Realsense:Camera1_Y,Realsense:Camera1_Z,Realsense:Camera2_X,Realsense:Camera2_Y,Realsense:Camera2_Z,Realsense:Camera3_X,Realsense:Camera3_Y,Realsense:Camera3_Z,Cup:Corner1_X,Cup:Corner1_Y,Cup:Corner1_Z,Cup:Corner2_X,Cup:Corner2_Y,Cup:Corner2_Z,Cup:Corner3_X,Cup:Corner3_Y,Cup:Corner3_Z,Cup:Corner4_X,Cup:Corner4_Y,Cup:Corner4_Z,Cup:Corner5_X,Cup:Corner5_Y,Cup:Corner5_Z,Cup:Corner6_X,Cup:Corner6_Y,Cup:Corner6_Z,Cup:Corner7_X,Cup:Corner7_Y,Cup:Corner7_Z,Cup:Corner8_X,Cup:Corner8_Y,Cup:Corner8_Z,Coffee:Corner1_X,Coffee:Corner1_Y,Coffee:Corner1_Z,Coffee:Corner2_X,Coffee:Corner2_Y,Coffee:Corner2_Z,Coffee:Corner3_X,Coffee:Corner3_Y,Coffee:Corner3_Z,Coffee:Corner4_X,Coffee:Corner4_Y,Coffee:Corner4_Z,Coffee:Corner5_X,Coffee:Corner5_Y,Coffee:Corner5_Z,Coffee:Corner6_X,Coffee:Corner6_Y,Coffee:Corner6_Z,Coffee:Corner7_X,Coffee:Corner7_Y,Coffee:Corner7_Z,Coffee:Corner8_X,Coffee:Corner8_Y,Coffee:Corner8_Z
00157_color_1715977378.743183.png,1215,1715977378.745901,-14.927062,-162.519028,811.426208,-61.139843,-204.400711,776.292114,-80.524246,-159.87999,802.51178,-18.707747,-102.707474,809.499634,12.87325,-77.218353,803.672119,44.348587,-66.650978,803.164185,56.279797,-140.621048,819.845947,85.136978,-138.078522,812.556946,111.823799,-131.977539,801.418335,472.552277,18.324503,769.459167,447.101868,33.346516,760.673157,427.215179,43.265163,753.164917,555.413635,21.052176,765.308777,534.213989,46.03643,759.79364,508.672485,66.547684,752.639648,507.430603,-16.528048,782.299377,504.079163,-48.803608,770.810303,549.863037,-45.587784,783.708862,608.755981,-61.258469,795.411072,185.972229,980.314941,1492.32019,239.155563,974.178589,1516.287842,290.289703,986.314087,1498.572021,221.319656,74.247536,832.157471,182.031952,100.824043,831.487,212.264542,150.942993,830.785767,263.671265,115.251869,830.148682,175.095978,101.969307,734.576721,217.562332,163.835251,736.983582,266.003601,119.211327,737.104187,224.225922,65.428085,737.778015,474.90802,-439.622681,849.445801,480.022461,-511.469238,847.581421,559.921631,-504.238831,847.904663,552.750977,-434.707184,847.994507,468.487579,-435.056,743.897766,475.243622,-514.701904,741.930786,567.521484,-505.48999,741.189819,558.067322,-427.437622,742.562622
00158_color_1715977378.780839.png,1218,1715977378.775901,-8.468264,-176.933838,818.488892,-55.777336,-217.009079,782.706726,-73.645004,-171.439072,808.32843,-9.515074,-117.053963,816.427795,23.31432,-93.205414,810.938782,55.253605,-83.837921,811.181335,63.594944,-158.029877,828.202576,92.573013,-157.072159,821.216248,119.668983,-152.148636,810.516541,472.61853,18.396198,769.446167,447.143402,33.375813,760.652405,427.270233,43.278297,753.127502,555.476807,21.105234,765.286133,534.272278,46.058743,759.765686,508.715759,66.603958,752.631714,507.487427,-16.444599,782.308105,504.12793,-48.75066,770.791809,549.919983,-45.527851,783.698425,608.79248,-61.218826,795.409119,185.96933,980.307251,1492.310181,239.158157,974.166077,1516.281494,290.283539,986.272156,1498.554321,221.389114,74.295311,832.166565,182.102341,100.865227,831.50354,212.319046,150.973801,830.782593,263.733398,115.284836,830.152954,175.333786,101.851784,734.537659,217.598389,163.871109,736.994019,266.053192,119.254578,737.115417,224.285782,65.452255,737.764221,475.006836,-439.531769,849.454346,480.139282,-511.407257,847.580811,560.024353,-504.167267,847.898499,552.847717,-434.670044,847.983948,468.575653,-434.99411,743.902954,475.337738,-514.629517,741.931396,567.620483,-505.4487,741.189941,558.162903,-427.394531,742.572937
00159_color_1715977378.819489.png,1222,1715977378.815901,2.723589,-198.257751,827.9823,-45.691433,-235.978668,791.890503,-61.396763,-189.083221,816.104553,6.099719,-138.608444,824.450623,40.419178,-117.026413,819.455017,73.011696,-109.501389,820.398743,75.830872,-184.1436,839.653748,105.079948,-185.320847,833.556335,132.709244,-182.535873,823.526123,472.781494,18.530174,769.41925,447.29776,33.512932,760.616882,427.402802,43.384998,753.10614,555.679932,21.311499,765.341125,534.401123,46.174389,759.725586,508.833038,66.740135,752.571411,507.675781,-16.303883,782.293884,504.267151,-48.639336,770.763,550.04425,-45.658428,783.418396,608.908508,-61.109829,795.407043,185.97879,980.230103,1492.316284,239.161819,974.15918,1516.284302,290.283875,986.27356,1498.542725,221.543427,74.373886,832.20105,182.247375,100.928764,831.548523,212.460205,151.046417,830.809814,263.894653,115.41761,830.196716,175.374115,102.129143,734.76123,217.711533,163.923782,737.003296,266.157349,119.309105,737.121277,224.851944,65.440483,738.054932,475.30426,-439.472412,849.39032,480.432495,-511.306763,847.577332,560.271667,-504.039764,847.867676,553.266541,-434.312347,848.182129,468.801483,-434.882385,743.906067,475.617279,-514.535156,741.936646,567.893738,-505.293854,741.153992,558.390076,-427.246063,742.553223
00160_color_1715977378.855687.png,1226,1715977378.855901,18.017609,-223.024689,836.605408,-32.121647,-257.334076,800.54657,-44.998802,-209.219009,823.858337,26.086052,-163.225189,831.797058,61.614281,-144.169922,826.452087,94.472847,-138.802521,827.615723,91.933754,-213.647491,848.952759,120.999603,-217.089371,843.520508,149.027222,-216.820374,834.286743,472.981567,18.692175,769.484802,447.466156,33.647465,760.61377,427.50119,43.474285,753.102295,555.712708,21.242752,765.126038,534.550415,46.273384,759.674072,508.970795,66.914719,752.628662,507.810883,-16.177719,782.265686,504.392731,-48.54406,770.733704,550.052002,-45.481903,783.461853,609.014832,-61.035873,795.364441,185.958237,980.323792,1492.282837,239.153015,974.175354,1516.288818,290.283936,986.289429,1498.552979,221.6633,74.449959,832.206299,182.348816,100.992294,831.564514,212.563507,151.099426,830.817993,264.020935,115.498306,830.22168,175.619827,101.997543,734.686157,217.808487,164.006882,737.031799,266.278992,119.415489,737.138,224.613388,65.416473,737.690552,475.479248,-439.413544,849.371277,480.668945,-511.200897,847.527222,560.457336,-503.939941,847.856689,553.480774,-434.186249,848.189758,468.950104,-434.815338,743.898376,475.817017,-514.437134,741.939575,568.089355,-505.160919,741.13501,558.556335,-427.171692,742.514099
00161_color_1715977378.892309.png,1230,1715977378.8959012,37.134563,-249.159073,843.339722,-15.50352,-279.992157,807.989075,-25.320366,-231.183701,831.133484,49.379139,-190.220596,837.523132,85.837784,-173.380356,831.810547,118.858315,-169.880127,832.814026,111.254578,-245.061981,854.502197,139.913651,-250.844238,849.600769,168.002625,-252.847992,840.989807,472.899628,18.622868,769.396301,447.435883,33.620262,760.619324,427.47995,43.435223,753.114258,555.707092,21.219641,765.117371,534.522461,46.265656,759.681152,508.955963,66.831856,752.583984,507.796814,-16.202959,782.269226,504.385773,-48.555569,770.742615,550.035767,-45.508732,783.475037,609.002441,-61.011532,795.396667,185.969574,980.35437,1492.302368,239.156006,974.179199,1516.287598,290.285126,986.297546,1498.551758,221.6371,74.412262,832.21106,182.323975,100.955788,831.554993,212.541656,151.07431,830.806396,263.987488,115.469162,830.206116,175.506927,102.046661,734.703735,217.782471,163.985275,737.030579,266.255219,119.358688,737.13269,224.947174,65.477142,738.074707,475.424255,-439.453461,849.381592,480.578888,-511.265167,847.564148,560.382263,-504.004242,847.862793,553.466797,-434.16861,848.258484,468.889679,-434.862488,743.89325,475.743713,-514.493042,741.939331,568.014465,-505.226837,741.137146,558.50177,-427.214691,742.511963
00162_color_1715977378.928530.png,1233,1715977378.9259012,52.357582,-269.132782,847.169922,-0.854221,-296.573456,811.308716,-8.998255,-247.456314,834.512573,67.48584,-210.815842,840.993164,104.68779,-195.662872,835.130127,137.661942,-193.863876,836.111145,126.546547,-268.485748,858.243774,155.000336,-275.386719,853.357361,183.016571,-278.784973,844.922424,472.790649,18.518745,769.417297,447.328918,33.47731,760.617981,427.419769,43.377861,753.157715,555.650879,21.221502,765.247925,534.414307,46.167652,759.717773,508.855164,66.708748,752.577637,507.690491,-16.330845,782.258484,504.286652,-48.652348,770.754272,549.953552,-45.588524,783.507324,608.911926,-61.080555,795.450684,185.930344,980.308228,1492.321411,239.159576,974.174561,1516.283691,290.294006,986.306946,1498.552979,221.538574,74.368675,832.186584,182.246994,100.922562,831.534729,212.459473,151.036514,830.801453,263.889282,115.397507,830.177795,175.359406,102.080597,734.695496,217.717667,163.926773,737.002869,266.180969,119.316719,737.116943,224.856323,65.432587,738.053162,475.259369,-439.507355,849.373657,480.346008,-511.349152,847.591736,560.226074,-504.058838,847.870605,553.343445,-434.227081,848.3125,468.76944,-434.912964,743.888367,475.56427,-514.569458,741.921997,567.844055,-505.343567,741.15155,558.348267,-427.296844,742.536926
00163_color_1715977378.966715.png,1237,1715977378.9659011,74.251259,-295.231049,851.029968,19.077854,-319.612335,815.532227,14.448644,-270.591675,838.74823,93.123764,-238.085159,842.983154,130.658051,-225.287292,836.073608,163.65979,-224.408508,837.018616,148.751144,-298.753265,860.953491,176.584564,-307.188141,855.488953,204.308304,-312.003418,846.428223,472.710022,18.409056,769.403992,447.262665,33.398247,760.641846,427.381989,43.287605,753.154846,555.668335,21.222393,765.361084,534.365234,46.065491,759.747375,508.818268,66.612953,752.593567,507.62088,-16.461817,782.258667,504.234924,-48.72847,770.774963,549.993835,-45.713844,783.481873,608.841309,-61.147102,795.511963,185.948303,980.330261,1492.299683,239.163208,974.165344,1516.281494,290.291626,986.310486,1498.564453,221.499664,74.309753,832.167969,182.203995,100.880554,831.519226,212.421021,150.991486,830.791809,263.832916,115.331619,830.176514,175.045349,102.193039,734.721313,217.696075,163.86882,736.983093,266.135529,119.268684,737.101929,224.547852,65.448662,737.884644,475.160889,-439.550354,849.411072,480.272705,-511.40564,847.586426,560.14563,-504.140747,847.862793,553.137756,-434.440063,848.171631,468.692108,-434.973389,743.886536,475.468109,-514.648376,741.9198,567.760254,-505.409241,741.147888,558.27948,-427.356659,742.538452
00164_color_1715977379.005769.png,1241,1715977379.005901,96.865311,-320.563873,853.394226,39.794815,-341.721161,818.154907,38.265541,-292.684265,841.199707,118.838013,-264.452484,844.440613,156.587646,-254.056656,836.437256,189.363495,-254.43837,837.118164,171.03096,-328.410736,861.637878,198.469055,-337.816437,855.567322,225.616821,-343.799896,845.858948,472.912262,18.541754,769.46051,447.429535,33.479206,760.614319,427.485291,43.309372,753.115173,555.765808,21.289286,765.338745,534.468506,46.157681,759.724121,508.943451,66.770569,752.671509,507.753662,-16.341442,782.238037,504.33725,-48.678402,770.747192,550.103149,-45.693764,783.42804,608.930542,-61.089752,795.492065,185.976089,980.248474,1492.320312,239.156189,974.17804,1516.283203,290.286316,986.304077,1498.552734,221.594574,74.36412,832.190308,182.286987,100.92189,831.541077,212.514191,151.026764,830.791077,263.934235,115.417603,830.208496,175.294327,102.12709,734.658508,217.764557,163.918488,737.004822,266.211731,119.323509,737.120972,224.562637,65.473328,737.863892,475.368378,-439.518219,849.354553,480.46521,-511.337921,847.565918,560.303345,-504.051086,847.842407,553.333984,-434.313599,848.1828,468.836151,-434.906281,743.884216,475.656189,-514.542053,741.9245,567.932495,-505.296173,741.132874,558.427429,-427.271057,742.528931
00165_color_1715977379.043280.png,1245,1715977379.045901,119.11451,-342.995026,854.931824,60.520008,-362.087372,820.086853,62.20129,-312.296936,841.960999,144.220688,-288.647186,843.602905,182.14035,-280.335602,835.123169,214.855438,-282.246368,835.46637,192.938171,-354.695374,862.078552,219.751953,-365.769806,855.205566,246.332367,-373.112671,845.000244,473.148651,18.774044,769.695984,447.655121,33.730698,760.695923,427.559174,43.345135,753.095154,555.818848,21.268599,765.183167,534.582214,46.253883,759.697815,509.072235,66.931808,752.761169,507.887299,-16.219124,782.24762,504.450134,-48.585453,770.740356,550.101013,-45.512466,783.471985,609.068359,-60.985889,795.467834,185.962891,980.289368,1492.292114,239.152374,974.175842,1516.282959,290.290131,986.313232,1498.565063,221.689423,74.416862,832.206909,182.37561,100.976234,831.559753,212.607803,151.073944,830.823608,264.042236,115.480812,830.21637,175.427734,102.136932,734.66803,217.840775,163.991089,737.03595,266.290436,119.374458,737.12616,224.590927,65.571671,737.845398,475.490631,-439.467865,849.353577,480.662628,-511.214264,847.527039,560.449707,-503.980103,847.836853,553.516296,-434.173828,848.227539,468.957428,-434.849945,743.877441,475.812195,-514.473755,741.94574,568.081299,-505.185364,741.133362,558.566895,-427.21463,742.500183
00166_color_1715977379.080624.png,1248,1715977379.075901,135.361542,-358.652618,854.699097,75.823235,-376.182007,821.383545,80.014557,-325.724609,841.87085,162.801987,-305.06076,842.513794,200.666275,-298.655121,833.031982,233.210693,-300.948456,833.567383,209.026733,-372.517181,861.884338,235.109375,-385.044037,854.780396,261.280731,-393.651276,844.339478,473.055511,18.627768,769.486206,447.560822,33.608772,760.641113,427.556824,43.369061,753.147339,555.782104,21.247915,765.184937,534.547363,46.240383,759.70575,509.084595,67.046814,752.946777,507.86441,-16.26178,782.222778,504.438232,-48.582211,770.764099,550.086121,-45.534355,783.486145,609.080322,-60.948029,795.494446,185.948624,980.287292,1492.322144,239.15448,974.173889,1516.284668,290.295105,986.300293,1498.552612,221.66098,74.427742,832.214478,182.338837,100.960632,831.568604,212.572144,151.065338,830.805237,264.017365,115.46563,830.215881,175.416351,102.107285,734.669189,217.823578,163.964874,737.017395,266.265869,119.352547,737.121216,224.524933,65.558083,737.818054,475.427002,-439.482391,849.357849,480.55191,-511.29245,847.566711,560.379333,-504.002686,847.865234,553.491577,-434.15274,848.288208,468.891296,-434.880615,743.888916,475.727966,-514.495728,741.939392,568.02655,-505.221436,741.145935,558.505676,-427.245056,742.511597
00167_color_1715977379.114837.png,1252,1715977379.115901,157.494659,-376.793488,854.335815,96.788345,-390.990997,821.030579,103.538055,-341.590454,841.800171,187.118835,-324.837616,840.7276,224.896286,-320.16748,830.294861,257.477997,-323.282623,830.542969,230.391479,-393.947113,860.76709,255.595474,-408.001312,853.242249,281.317932,-417.894043,842.789734,472.892029,18.513163,769.522217,447.38858,33.44516,760.655579,427.441376,43.269527,753.142212,555.72876,21.255886,765.339783,534.425903,46.085472,759.726013,508.892883,66.744324,752.734863,507.707642,-16.419214,782.23877,504.314667,-48.717232,770.769165,550.076904,-45.690559,783.456116,608.951172,-61.051952,795.521301,185.940857,980.349792,1492.312378,239.162186,974.180847,1516.286255,290.30014,986.321838,1498.57251,221.538986,74.353195,832.187317,182.241257,100.908791,831.547119,212.47084,151.026093,830.803589,263.891144,115.385719,830.193115,175.30278,102.082062,734.641113,217.735214,163.891373,736.9823,266.176697,119.29274,737.117371,224.41301,65.492722,737.800537,475.208954,-439.516388,849.420044,480.302368,-511.386627,847.600159,560.18158,-504.103851,847.866699,553.308777,-434.253052,848.325256,468.727936,-434.955872,743.876587,475.496857,-514.60907,741.926575,567.786072,-505.387115,741.170532,558.312683,-427.362518,742.537048
00168_color_1715977379.149607.png,1255,1715977379.1459012,173.893005,-389.336792,852.801636,112.510971,-401.242432,820.580933,121.38382,-352.127045,840.997559,205.110672,-337.977905,838.87616,242.730347,-334.297852,827.888184,275.23587,-337.78537,827.766235,246.28273,-408.931061,858.835144,271.205627,-422.925018,851.506836,296.40033,-433.841644,840.841919,472.77713,18.42314,769.509216,447.319763,33.381111,760.674805,427.377991,43.258266,753.182312,555.676514,21.173708,765.364807,534.360229,46.014259,759.756653,508.85434,66.657837,752.719788,507.628967,-16.497833,782.246094,504.257843,-48.767193,770.769165,550.011047,-45.755466,783.474792,608.874268,-61.153679,795.52655,185.954453,980.348267,1492.315674,239.159348,974.171509,1516.2854,290.29715,986.30603,1498.562744,221.493271,74.299294,832.169922,182.192123,100.869598,831.524536,212.42215,150.969818,830.784302,263.836884,115.317184,830.174927,175.258942,102.043076,734.591675,217.691574,163.869781,736.995239,266.142853,119.246155,737.107117,224.376282,65.473534,737.776123,475.095428,-439.548615,849.44043,480.224091,-511.435394,847.582825,560.091736,-504.161407,847.880066,553.14856,-434.399872,848.256653,468.645294,-435.009979,743.885132,475.409943,-514.642273,741.925049,567.700012,-505.455139,741.160034,558.219238,-427.39917,742.547974
00169_color_1715977379.184276.png,1259,1715977379.1859012,195.952606,-404.092072,850.936279,133.426147,-414.228424,820.033752,144.830627,-364.831909,839.510986,228.724045,-354.175446,835.787964,265.886292,-351.26178,824.246582,298.275024,-355.472076,823.504272,266.881073,-426.801178,856.23175,291.756958,-440.579651,848.574585,316.651733,-452.66684,838.219116,472.767639,18.416395,769.450317,447.316345,33.371506,760.642151,427.415344,43.25605,753.145569,555.712402,21.206289,765.39624,534.378906,46.019962,759.764526,508.865662,66.650238,752.681335,507.638275,-16.463629,782.254578,504.266632,-48.766319,770.766357,550.042236,-45.802872,783.436157,608.841492,-61.251781,795.50116,185.963745,980.312378,1492.291748,239.161758,974.164917,1516.287354,290.299866,986.310974,1498.577026,221.529739,74.317902,832.17572,182.224396,100.886147,831.538452,212.448837,150.987442,830.792297,263.869995,115.339462,830.185974,175.289902,102.072289,734.622253,217.71347,163.898193,736.997925,266.163513,119.260597,737.122253,224.394043,65.449471,737.791992,475.184967,-439.564545,849.403687,480.290436,-511.39801,847.586548,560.149963,-504.144836,847.877197,553.14801,-434.456635,848.171753,468.694397,-434.983795,743.896729,475.474579,-514.621643,741.927246,567.763855,-505.410065,741.157654,558.270996,-427.376801,742.533875
00170_color_1715977379.220082.png,1262,1715977379.2159011,212.238708,-413.869568,849.573547,148.733597,-422.312561,818.81189,161.839203,-373.641174,838.540771,245.614029,-364.756195,833.98584,282.780792,-362.061798,822.247864,315.076935,-365.993073,821.565613,282.895264,-437.766113,854.200073,306.614441,-453.061829,846.261169,331.282654,-465.369049,835.928955,472.858093,18.475958,769.376953,447.410004,33.458694,760.631592,427.486786,43.308975,753.116638,555.764893,21.240015,765.35553,534.484619,46.110283,759.734009,508.955719,66.735939,752.659851,507.741211,-16.381342,782.249084,504.336365,-48.704533,770.732178,550.094116,-45.749905,783.408569,608.913452,-61.246403,795.445312,185.96524,980.276001,1492.312744,239.157043,974.162231,1516.282104,290.289856,986.284607,1498.553345,221.613419,74.366364,832.196045,182.313675,100.917809,831.545166,212.536713,151.027664,830.787781,263.975098,115.409637,830.195496,175.208389,102.187447,734.692017,217.790939,163.936798,737.006592,266.247131,119.313828,737.1203,224.478317,65.522842,737.793579,475.330414,-439.514069,849.384277,480.444427,-511.367676,847.587036,560.287354,-504.087494,847.852173,553.323975,-434.30722,848.216736,468.827789,-434.913452,743.891907,475.625977,-514.587219,741.938965,567.901917,-505.330444,741.144104,558.422119,-427.317047,742.532104
00171_color_1715977379.256067.png,1266,1715977379.255901,232.24881,-425.19574,847.888611,167.990158,-431.600952,817.663147,183.409058,-383.602295,837.066162,266.914032,-377.362274,831.620605,303.840149,-374.976471,819.464661,336.054169,-378.874481,818.775208,302.345886,-450.730652,852.789307,325.213745,-467.474701,844.952942,349.447754,-480.153625,834.346375,473.067596,18.64846,769.511963,447.661926,33.753075,760.727905,427.559937,43.350163,753.056519,555.808655,21.267878,765.265137,534.603577,46.184944,759.712463,509.073212,66.889839,752.700073,507.875488,-16.276062,782.259521,504.449371,-48.63718,770.723511,550.089355,-45.613861,783.470032,608.988159,-61.236938,795.413391,185.946274,980.220642,1492.315796,239.158966,974.171387,1516.285522,290.288269,986.30188,1498.557861,221.732437,74.39814,832.19458,182.417618,100.984894,831.572571,212.668091,151.060287,830.794739,264.105469,115.485229,830.219421,175.487854,102.136238,734.661621,217.894089,163.996201,737.031921,266.353699,119.377281,737.139343,224.604401,65.602463,737.814514,475.461182,-439.453918,849.374573,480.629822,-511.289185,847.551208,560.435059,-504.02652,847.857727,553.51825,-434.194305,848.246643,468.941071,-434.877594,743.884216,475.794983,-514.504578,741.940674,568.070923,-505.24472,741.131042,558.554688,-427.247467,742.499023
00172_color_1715977379.292140.png,1270,1715977379.295901,250.120255,-434.79129,847.032593,185.787292,-439.003174,816.54248,202.899902,-391.795197,836.487488,286.186676,-387.966064,830.833496,323.108032,-386.081787,818.881165,354.711761,-390.438721,817.992493,319.134247,-462.890594,852.115784,341.623535,-479.896515,844.712219,365.510834,-493.741272,834.337646,473.17865,18.756571,769.71814,447.686798,33.745163,760.722351,427.586182,43.356754,753.070129,555.826721,21.214964,765.282043,534.62207,46.158951,759.716064,509.131958,66.87854,752.748108,507.879669,-16.275391,782.258362,504.450623,-48.657528,770.70813,550.10199,-45.637699,783.479065,608.966797,-61.331135,795.406921,185.953613,980.303467,1492.299927,239.16568,974.173645,1516.281006,290.286041,986.292847,1498.543945,221.76506,74.417542,832.203552,182.457489,100.98912,831.566833,212.706573,151.076309,830.796631,264.142029,115.502007,830.215881,175.516281,102.138695,734.667908,217.932953,164.012527,737.036621,266.377838,119.381866,737.129761,224.622986,65.596489,737.816223,475.602753,-439.49826,849.227722,480.656372,-511.239655,847.533264,560.4422,-504.010681,847.850769,553.592346,-434.115753,848.306702,468.946838,-434.880249,743.885071,475.806549,-514.498596,741.934204,568.066895,-505.234467,741.132629,558.567261,-427.250641,742.505066
00173_color_1715977379.328688.png,1273,1715977379.325901,262.290436,-440.785431,846.289673,197.567261,-443.756195,815.657837,216.586136,-396.708313,836.004639,299.081818,-394.80954,830.484436,335.93277,-393.102325,818.896606,367.681793,-397.401215,818.555237,330.807129,-470.105743,851.941528,352.811981,-487.376892,844.454102,376.636902,-501.717224,834.375549,473.136505,18.744133,769.720581,447.586365,33.598259,760.657104,427.566528,43.357079,753.087952,555.854858,21.255533,765.388611,534.595459,46.142811,759.755676,509.125763,66.856148,752.769714,507.840637,-16.350685,782.230225,504.405792,-48.686375,770.726135,550.138794,-45.711224,783.445068,608.916931,-61.407185,795.421204,185.965347,980.288391,1492.320801,239.16777,974.177002,1516.28418,290.286957,986.303833,1498.558838,221.725708,74.400024,832.193787,182.416595,100.979614,831.55603,212.661407,151.070435,830.802795,264.09964,115.478355,830.22168,175.478348,102.14151,734.68335,217.896301,164.003738,737.028076,266.345581,119.358101,737.127747,224.569778,65.588799,737.820374,475.534515,-439.540741,849.227417,480.560974,-511.289307,847.556824,560.38208,-504.037018,847.856567,553.527649,-434.142914,848.326233,468.908508,-434.90213,743.872375,475.660248,-514.525085,741.899475,568.015625,-505.267853,741.145264,558.520813,-427.278748,742.505066
00174_color_1715977379.365108.png,1277,1715977379.365901,276.866791,-447.19574,844.84021,211.817993,-448.543671,814.303345,232.124252,-402.6026,835.182617,314.420715,-401.92334,829.55658,351.023071,-401.249756,817.718628,382.633636,-405.594604,817.887329,344.368042,-478.094055,850.480957,366.574188,-495.565247,843.154968,390.210663,-509.913025,832.832581,473.087799,18.688562,769.73053,447.552551,33.545822,760.648438,427.554138,43.351967,753.122681,555.821167,21.192825,765.435547,534.575073,46.071434,759.771362,509.17392,66.712402,752.73114,507.787231,-16.425364,782.224426,504.375336,-48.732918,770.709534,550.110474,-45.790421,783.444885,608.867065,-61.513111,795.415894,185.93219,980.301758,1492.332764,239.165573,974.171692,1516.286133,290.296021,986.31665,1498.577026,221.708771,74.400177,832.205872,182.395935,100.972641,831.566162,212.647736,151.045181,830.788635,264.074066,115.451637,830.21167,175.458252,102.122047,734.668274,217.886948,163.987396,737.010498,266.325104,119.346146,737.107361,224.567795,65.545067,737.817749,475.459625,-439.530914,849.296204,480.498962,-511.335663,847.578796,560.358154,-504.041962,847.857788,553.495728,-434.170624,848.319885,468.883911,-434.911621,743.88092,475.125214,-516.113281,742.461487,567.987183,-505.303802,741.145508,558.486328,-427.296234,742.506531
00175_color_1715977379.403471.png,1281,1715977379.4059012,289.365387,-452.266083,843.551514,223.918732,-452.009857,812.776001,245.168732,-406.815369,834.439087,327.267731,-407.091675,828.434814,363.8237,-406.037109,816.764099,395.350494,-409.910492,816.808411,357.334473,-482.850464,848.576782,379.657593,-499.590607,841.296387,403.525909,-513.450317,831.032104,473.181854,18.758518,769.728394,447.71109,33.754196,760.746216,427.598999,43.347607,753.062683,555.903992,21.239464,765.460388,534.664307,46.087582,759.764404,509.275452,66.793434,752.75061,507.864838,-16.374899,782.249207,504.424927,-48.716721,770.707031,550.169556,-45.761127,783.437317,608.881348,-61.582874,795.386902,185.9422,980.293945,1492.310913,239.164642,974.170654,1516.281494,290.292633,986.314148,1498.566406,221.78389,74.410736,832.209167,182.471481,101.00013,831.582458,212.720856,151.059662,830.789246,264.157104,115.496422,830.230591,175.492508,102.151672,734.696716,217.961716,164.005341,737.035706,266.397247,119.394463,737.146545,224.647446,65.594315,737.841919,475.518646,-439.472565,849.361023,480.660034,-511.250366,847.532654,560.482056,-504.011993,847.859131,553.620605,-434.124786,848.302368,468.985077,-434.889038,743.876587,475.530182,-514.659729,741.822571,568.106506,-505.234711,741.117126,558.598328,-427.23999,742.502319
00176_color_1715977379.440922.png,1285,1715977379.4459012,299.743408,-455.140289,843.18512,234.099609,-453.748016,812.035095,256.206726,-408.721954,833.851562,338.313171,-410.408234,827.733826,374.582458,-409.980316,815.551147,405.600342,-414.521027,815.048462,367.555115,-486.365631,847.705505,389.718628,-502.92276,839.83429,413.56012,-516.919373,829.404297,473.333557,18.85907,769.728577,447.792542,33.737411,760.658936,427.734924,43.377369,752.980774,556.041809,21.27627,765.401733,534.792114,46.152027,759.736938,509.41925,66.874008,752.734192,508.015869,-16.244715,782.247986,504.551117,-48.634895,770.684387,550.287598,-45.791393,783.314514,608.976074,-61.592529,795.347107,185.953995,980.280396,1492.312134,239.163589,974.173218,1516.283325,290.295685,986.31311,1498.55957,221.941589,74.474564,832.245178,182.598694,101.054153,831.597107,212.868607,151.108978,830.807556,264.314697,115.563232,830.254028,175.656418,102.159973,734.696838,218.099655,164.077408,737.066711,266.536621,119.454666,737.163818,224.766754,65.680138,737.83844,475.899017,-439.447662,849.114197,480.909943,-511.166748,847.499878,560.690613,-503.919495,847.8302,553.806885,-434.028839,848.270691,469.214905,-434.99765,743.768982,475.729919,-514.614197,741.83551,568.29895,-505.11438,741.089783,558.796143,-427.152313,742.468506
00177_color_1715977379.481157.png,1289,1715977379.485901,308.216278,-457.402496,843.180176,243.014511,-455.246216,811.70459,265.54599,-410.82196,834.109741,347.296021,-412.736664,828.274048,383.63501,-412.300323,816.408936,414.683472,-416.523376,816.308655,376.26712,-488.551025,847.373901,398.65567,-504.602264,839.199524,422.626984,-517.896545,828.584045,473.436646,18.912756,769.718262,447.916809,33.763229,760.622253,427.836487,43.422291,752.97937,556.089478,21.251368,765.341248,534.929504,46.226364,759.764893,509.539673,66.915192,752.737427,508.118805,-16.198669,782.227234,504.650421,-48.580353,770.670349,550.305176,-45.641495,783.422852,609.070129,-61.573032,795.321167,185.969604,980.293152,1492.344604,239.164764,974.177856,1516.288574,290.289795,986.312927,1498.553101,222.038422,74.511452,832.256592,182.701126,101.095444,831.607849,212.97438,151.150711,830.828918,264.424225,115.575508,830.236328,175.401047,102.406601,734.814026,218.207367,164.151337,737.118286,266.644348,119.502281,737.176453,224.874863,65.720245,737.850037,476.001556,-439.407562,849.109375,481.035706,-511.105347,847.494202,560.804504,-503.853088,847.818909,553.907471,-433.998505,848.246948,469.23761,-434.114105,744.448486,475.843323,-514.660095,741.880005,568.410278,-505.057159,741.07312,558.87915,-427.091278,742.457825
00178_color_1715977379.517999.png,1292,1715977379.515901,313.714478,-457.805817,843.470886,248.902985,-455.349121,811.419312,271.704437,-411.247711,833.940857,353.316925,-413.584045,828.397034,389.542816,-413.509979,816.416992,420.694122,-417.905823,816.247314,381.819946,-489.309906,847.5448,404.142914,-505.266724,838.966125,428.068207,-518.058594,827.825562,473.448608,18.895941,769.722778,447.892487,33.690853,760.601562,427.831635,43.384308,752.977539,556.075745,21.230806,765.341492,534.925415,46.210522,759.757812,509.530487,66.901276,752.741333,508.118439,-16.236988,782.218872,504.663177,-48.581703,770.674927,550.273987,-45.670315,783.385498,609.075684,-61.5704,795.323914,185.952255,980.351746,1492.318604,239.169052,974.172668,1516.283936,290.288788,986.307312,1498.564331,222.044678,74.505135,832.262146,182.703751,101.08815,831.611572,212.96814,151.154572,830.829224,264.431152,115.571289,830.233398,175.771332,102.198708,734.719482,218.203293,164.152618,737.120239,266.644714,119.509628,737.182007,224.884018,65.720444,737.858582,475.974396,-439.421204,849.114014,481.068665,-511.112976,847.467529,560.800293,-503.876617,847.836121,553.878418,-434.014008,848.239319,469.214966,-434.101379,744.457397,475.826904,-514.638245,741.865906,568.393921,-505.072357,741.085754,558.871277,-427.105103,742.452515
00179_color_1715977379.557691.png,1296,1715977379.555901,319.272583,-458.070618,843.994751,255.286957,-455.100861,810.97998,278.254517,-411.305634,833.924927,359.739563,-414.520447,829.075928,396.02475,-415.644348,817.049622,426.862885,-420.777466,816.937195,387.196686,-490.452881,848.583923,409.392273,-506.132965,839.772522,433.038025,-519.674805,828.645142,473.404358,18.864513,769.72583,447.862823,33.62278,760.57074,427.795105,43.349617,753.007568,556.064392,21.189983,765.333679,534.910034,46.170624,759.755737,509.51236,66.861534,752.737122,508.106659,-16.239784,782.245056,504.639496,-48.622585,770.690552,550.274536,-45.670361,783.441589,609.063416,-61.566677,795.344482,185.963715,980.291016,1492.327637,239.165054,974.171082,1516.291382,290.282776,986.300598,1498.565063,222.008774,74.470993,832.246643,182.671005,101.062614,831.594971,212.944855,151.126389,830.815063,264.394775,115.545509,830.225891,175.792297,102.200867,734.834717,218.171524,164.117386,737.102295,266.619873,119.462479,737.160767,224.85733,65.683632,737.846252,475.90567,-439.46167,849.118713,480.745087,-510.898956,847.944885,560.697693,-503.927948,847.836548,553.823853,-434.047546,848.270081,469.137756,-434.596497,744.074097,475.748199,-514.647766,741.836121,568.32251,-505.146271,741.087646,558.811829,-427.161133,742.46637
00180_color_1715977379.592674.png,1300,1715977379.595901,323.90683,-457.810577,844.606689,260.320801,-453.380096,810.161438,283.45929,-410.908234,833.812988,364.657715,-414.818665,829.663086,401.201782,-416.215485,818.136719,432.019257,-421.875031,818.350586,391.956635,-490.11026,849.174561,414.491516,-505.336639,839.750977,438.444824,-518.605103,827.88916,473.408783,18.846891,769.71936,447.834778,33.613766,760.578125,427.792206,43.350693,752.986023,556.051208,21.192223,765.332336,534.897705,46.15501,759.76178,509.50296,66.877518,752.737732,508.080658,-16.249395,782.254456,504.628235,-48.6157,770.684082,550.23584,-45.705692,783.405396,609.051453,-61.566895,795.350403,185.960541,980.367859,1492.327759,239.164047,974.169189,1516.28479,290.292725,986.301331,1498.556885,222.007507,74.474388,832.246155,182.666412,101.054863,831.590637,212.958267,151.124023,830.813599,264.398193,115.553581,830.226929,175.818024,102.345505,735.090088,218.184692,164.109131,737.093811,266.614563,119.482925,737.17218,224.851608,65.685837,737.85675,475.895325,-439.455933,849.111877,480.849091,-510.787598,847.867432,560.687439,-503.932648,847.838989,553.802246,-434.055145,848.270447,469.171417,-434.927521,743.829834,475.960022,-512.404785,740.617004,568.295654,-505.159912,741.084473,558.790527,-427.181274,742.469177
00181_color_1715977379.630949.png,1304,1715977379.6359012,328.315247,-456.743378,845.278137,265.28595,-452.514435,810.397888,288.332092,-409.723419,834.267578,369.712799,-413.68631,830.147766,405.849365,-416.542847,817.422119,436.582794,-422.636078,817.346741,396.986938,-489.117981,848.262024,419.47995,-503.606506,837.694763,443.542603,-515.554871,825.044067,473.444214,18.879133,769.733582,447.871368,33.637604,760.56427,427.828613,43.373833,752.979248,556.07843,21.193918,765.279907,534.928772,46.222935,759.744202,509.528351,66.918541,752.74884,508.126373,-16.220802,782.235107,504.667236,-48.584766,770.687561,550.267822,-45.653931,783.414978,609.074097,-61.523163,795.354919,185.976974,980.308167,1492.319214,239.166809,974.162598,1516.284668,290.290771,986.303162,1498.565674,222.043839,74.50798,832.250549,182.710815,101.085876,831.603333,212.98822,151.146835,830.824341,264.436035,115.575104,830.238098,175.39949,102.640488,735.160583,218.216339,164.143478,737.11554,266.658966,119.503319,737.181396,224.901962,65.738617,737.871033,475.932831,-439.432129,849.12439,480.973511,-511.129486,847.505066,560.730408,-503.916748,847.823853,553.842834,-434.038208,848.254883,469.376282,-434.918793,743.929443,475.780914,-514.665771,741.864624,568.338989,-505.124756,741.084412,558.831848,-427.145782,742.476562
00182_color_1715977379.668458.png,1307,1715977379.6659012,330.530457,-455.887085,846.108521,267.814514,-451.233643,810.697205,291.269379,-409.421356,835.091064,372.401184,-413.998688,830.992065,408.66861,-417.068481,818.989868,439.461395,-423.53302,819.191956,399.202637,-488.835693,848.946106,421.433777,-503.287384,837.704407,445.244354,-515.260559,824.56311,473.476471,18.879728,769.710022,447.916046,33.652126,760.552063,427.845459,43.372341,752.962646,556.112549,21.24707,765.314087,534.958862,46.213097,759.72406,509.543732,66.881088,752.68988,508.151367,-16.202272,782.224243,504.688202,-48.593391,770.662354,550.286621,-45.653599,783.401611,609.108948,-61.516705,795.328308,185.984467,980.279053,1492.300537,239.16922,974.165283,1516.286743,290.291565,986.29303,1498.560547,222.062973,74.489044,832.243469,182.735153,101.08551,831.60498,213.016205,151.141418,830.817749,264.464691,115.562187,830.222961,176.07579,102.077042,734.896484,218.258469,164.142593,737.106567,266.68219,119.48745,737.170044,224.939667,65.759529,737.879761,475.938782,-439.457092,849.110229,481.012512,-511.148285,847.472961,560.759705,-503.912872,847.813782,553.868408,-434.049622,848.256897,469.510925,-434.801392,744.062012,476.21402,-512.470886,740.809387,568.364807,-505.135468,741.066956,558.846558,-427.128265,742.474548
00183_color_1715977379.704576.png,1311,1715977379.7059011,332.586945,-454.801605,847.822327,271.116699,-450.378296,811.686646,294.412781,-407.665466,836.15033,375.670258,-413.566681,833.426697,411.996338,-418.100464,821.464294,442.540344,-425.680054,821.973694,401.35257,-488.852814,850.263062,423.34613,-502.793365,838.452698,446.917755,-514.421814,824.488892,473.504944,18.879595,769.711792,447.950775,33.635284,760.554382,427.885742,43.354897,752.981628,556.130859,21.196438,765.263672,534.992065,46.18996,759.718689,509.580566,66.897438,752.743469,508.181702,-16.203487,782.237244,504.711914,-48.593586,770.676147,550.336792,-45.657261,783.414124,609.155212,-61.501236,795.344116,185.956985,980.256653,1492.313232,239.166367,974.159973,1516.280762,290.289307,986.295349,1498.557739,222.107437,74.496552,832.243225,182.770187,101.098679,831.601257,213.061172,151.146454,830.816162,264.510223,115.566742,830.217468,176.128418,102.077362,734.88739,218.293259,164.155472,737.115173,266.730804,119.503036,737.161377,225.028366,65.797401,737.95697,475.948181,-439.443237,849.118225,480.99292,-511.161804,847.483459,560.762451,-503.958405,847.819763,553.872925,-434.061523,848.260254,469.184235,-434.1474,744.452515,476.228241,-512.774109,741.003113,568.351624,-505.166412,741.070007,558.850647,-427.159393,742.470642
00184_color_1715977379.740892.png,1314,1715977379.735901,334.424347,-454.537994,848.691406,273.678833,-449.332764,812.238647,297.387421,-407.80481,836.46936,378.14859,-413.673553,834.203186,414.409576,-418.640625,822.16687,444.930573,-426.731018,822.447815,403.015198,-488.952606,850.641296,424.800323,-502.837067,838.290161,448.251495,-514.193604,823.57782,473.544861,18.895401,769.69751,447.969055,33.65461,760.556458,427.906128,43.374779,752.98053,556.187561,21.2666,765.290222,535.013306,46.179108,759.688721,509.605103,66.926979,752.722595,508.222351,-16.193748,782.227051,504.7323,-48.583817,770.659424,550.421814,-45.58569,783.448425,609.169006,-61.476494,795.33728,185.956116,980.349609,1492.283325,239.167847,974.169739,1516.284424,290.288177,986.282471,1498.551392,222.125229,74.510834,832.243835,182.80072,101.132172,831.607117,213.07518,151.171982,830.824219,264.517944,115.583626,830.222595,176.115829,102.116486,734.928223,218.32515,164.175583,737.110352,266.739136,119.551971,737.176758,225.114456,65.845123,738.044373,475.967224,-439.436615,849.104431,481.01004,-511.163605,847.484253,560.775269,-503.924835,847.817017,553.882751,-434.041199,848.256165,469.204346,-434.148163,744.437012,476.331421,-512.612427,740.99884,568.380127,-505.13089,741.064941,558.885498,-427.141144,742.454529
00185_color_1715977379.778882.png,1318,1715977379.775901,336.668152,-453.852112,850.390991,276.009857,-448.154724,813.135803,299.935364,-406.253662,838.303528,381.120483,-414.719269,834.981018,417.145111,-420.701721,822.527283,447.607849,-429.365753,822.18573,404.830597,-489.663177,850.735596,426.183716,-503.727081,837.736877,449.310638,-514.779907,821.999878,473.569702,18.924141,769.709106,448.005951,33.684307,760.556763,427.953766,43.392601,752.979004,556.224426,21.25938,765.252808,535.022217,46.243111,759.69281,509.627533,66.935387,752.711975,508.2742,-16.153067,782.229187,504.765869,-48.543613,770.673096,550.400696,-45.613415,783.39386,609.235291,-61.414314,795.332458,185.979568,980.310608,1492.282104,239.167618,974.166687,1516.281372,290.28717,986.287048,1498.548706,222.162994,74.536476,832.258118,182.835098,101.149483,831.607422,213.12178,151.203751,830.836731,264.563171,115.584869,830.218323,176.144379,102.14402,734.934692,218.355789,164.223068,737.139465,266.769714,119.577805,737.187317,225.221588,65.951744,738.211609,476.001862,-439.41806,849.112488,481.062927,-511.127777,847.486877,560.827148,-503.882294,847.809204,553.924683,-434.030487,848.240967,469.337006,-434.556335,744.11853,476.544434,-512.698914,741.186035,568.424438,-505.076233,741.056763,558.921448,-427.114288,742.452026
00186_color_1715977379.815482.png,1322,1715977379.815901,338.050537,-454.14801,851.601257,277.900452,-447.69165,813.654053,302.257843,-406.474823,839.211487,383.395081,-416.228516,836.260742,419.332062,-423.095612,823.437134,449.670868,-432.861786,822.806702,405.823303,-491.331482,851.571228,427.217651,-504.478699,837.606018,450.257233,-514.43866,821.001282,473.590485,18.941177,769.704773,448.018158,33.679878,760.562378,427.960571,43.414463,752.989929,556.245789,21.264774,765.252197,535.044312,46.260777,759.713135,509.635681,66.944397,752.716003,508.295288,-16.145452,782.234131,504.790375,-48.532169,770.666748,550.426758,-45.591965,783.389099,609.249451,-61.397182,795.322632,185.936279,980.263611,1492.321899,239.173676,974.173523,1516.282715,290.294678,986.312988,1498.57019,222.17897,74.56282,832.265259,182.846329,101.161522,831.615784,213.132828,151.203842,830.834229,264.571198,115.586174,830.206604,176.154327,102.135063,734.943359,218.386871,164.212448,737.134033,266.787231,119.605766,737.208618,225.421494,65.984604,738.394531,476.012939,-439.41568,849.107056,481.065277,-511.115265,847.487915,560.824646,-503.879059,847.808655,553.929626,-434.021912,848.243408,469.394318,-434.925262,743.838928,476.518982,-513.063293,741.389709,568.424133,-505.073792,741.061951,558.917847,-427.125671,742.449829
00187_color_1715977379.853470.png,1326,1715977379.855901,339.799744,-454.692444,852.426208,280.554169,-448.411987,814.462219,304.363098,-406.848389,840.194336,385.652313,-417.503265,836.78363,421.27597,-424.866211,823.060791,451.243683,-435.838837,820.819336,407.555542,-492.111206,851.269104,428.270935,-505.672638,836.286499,451.720337,-514.711548,819.724548,473.573669,18.942892,769.72583,447.999146,33.673058,760.549194,427.951874,43.403736,752.985107,556.24585,21.294205,765.298218,535.050049,46.24474,759.694946,509.633118,66.94384,752.714661,508.277252,-16.150227,782.23761,504.779175,-48.545654,770.669189,550.517395,-45.529331,783.486694,609.252747,-61.406712,795.316833,185.946533,980.346619,1492.295166,239.168152,974.170654,1516.286743,290.290161,986.282593,1498.542358,222.166992,74.532417,832.255676,182.839706,101.160103,831.60907,213.128082,151.194107,830.819214,264.563873,115.607224,830.220581,176.145386,102.136307,734.935791,218.369034,164.21376,737.132935,266.768494,119.59301,737.20282,225.506561,66.130211,738.649658,475.997925,-439.41861,849.102051,481.040131,-511.110352,847.506775,560.810608,-503.900299,847.822754,553.910522,-434.031036,848.246033,469.391174,-435.059265,743.74469,476.45929,-513.193481,741.450745,568.414429,-505.098572,741.077148,558.904297,-427.127716,742.451294
00188_color_1715977379.891888.png,1330,1715977379.8959012,341.407471,-455.25,852.715027,282.252747,-448.528809,814.653503,306.391357,-407.278748,840.782593,387.55188,-418.669586,836.644775,422.953949,-426.236145,821.916443,452.627167,-437.65564,818.170166,408.922882,-492.891663,850.421448,429.143921,-506.257233,834.567627,452.744385,-516.299866,816.797241,473.591125,18.944382,769.70752,448.001465,33.67868,760.55426,427.958771,43.414608,752.981079,556.243958,21.307919,765.315063,535.037415,46.222042,759.673279,509.631989,66.944275,752.725098,508.276001,-16.158653,782.22876,504.774445,-48.540077,770.681702,550.52478,-45.507652,783.475464,609.241089,-61.418274,795.314026,185.954117,980.308289,1492.310913,239.170731,974.168335,1516.280151,290.293579,986.290894,1498.54895,222.171631,74.555779,832.25708,182.845657,101.176872,831.615723,213.129593,151.20993,830.834717,264.561707,115.603325,830.222778,176.162918,102.14399,734.928589,218.371185,164.201553,737.107422,266.773987,119.59391,737.189819,225.598801,66.106667,738.695312,476.008057,-439.422089,849.095032,481.050751,-511.100403,847.491394,560.820496,-503.872864,847.831116,553.924683,-434.007019,848.251282,469.245667,-434.091644,744.452148,476.453613,-513.280396,741.482483,568.421082,-505.083862,741.067017,558.907288,-427.102509,742.461731
00189_color_1715977379.927831.png,1333,1715977379.9259012,341.774963,-456.026764,852.814697,283.593109,-449.258423,814.298523,307.069061,-407.934937,840.933777,388.611481,-419.693146,837.014709,423.791992,-428.039673,821.667358,453.015045,-440.462769,816.322632,409.274689,-493.570374,850.327637,429.704468,-506.933685,833.818176,452.774597,-513.658325,814.743896,473.602722,18.976013,769.728027,448.026489,33.679859,760.556702,427.984833,43.436958,752.989136,556.255981,21.318462,765.308716,535.044312,46.250271,759.691895,509.644196,66.961639,752.717285,508.287781,-16.149109,782.230164,504.801086,-48.519115,770.676086,550.546265,-45.515419,783.469299,609.253235,-61.414566,795.319214,185.944199,980.282043,1492.317017,239.168106,974.181519,1516.291992,290.293274,986.308655,1498.567261,222.191574,74.576996,832.274719,182.862213,101.194588,831.635437,213.144958,151.227829,830.854553,264.581879,115.623863,830.232605,176.121078,102.190857,734.975403,218.381775,164.220718,737.126282,266.807556,119.62545,737.213379,225.640457,66.114273,738.690125,476.05072,-439.353027,849.108643,481.040741,-511.037476,847.521301,560.832825,-503.830017,847.816956,553.944214,-434.006104,848.240112,469.288116,-434.033295,744.449402,476.366211,-513.513306,741.628052,568.425171,-505.071045,741.083069,558.953186,-427.095795,742.449585
00190_color_1715977379.964864.png,1337,1715977379.9659011,341.857697,-457.771912,852.889465,283.837769,-449.601898,813.68103,308.098724,-409.910065,841.599792,389.268768,-421.900818,837.570374,424.141876,-429.737549,821.267944,453.901306,-442.733124,813.930603,409.589966,-495.312622,849.366394,430.246521,-507.007477,832.00238,452.875397,-511.602997,811.336975,473.607513,18.97921,769.734253,448.03421,33.707317,760.561829,427.987122,43.445629,752.991882,556.262878,21.336384,765.316345,535.045959,46.26128,759.697571,509.655945,66.953041,752.701721,508.308533,-16.133141,782.236755,504.81601,-48.515869,770.675842,550.543701,-45.505604,783.478577,609.2677,-61.429115,795.305664,186.70787,980.054138,1493.390869,239.169235,974.174927,1516.295288,290.288605,986.302673,1498.562744,222.202713,74.5718,832.271851,182.885162,101.193741,831.643005,213.159302,151.231705,830.85675,264.594818,115.628914,830.244446,176.167786,102.181755,734.963623,218.402618,164.239532,737.147949,266.812012,119.628487,737.222961,225.645767,66.175407,738.767395,476.203796,-439.001617,849.112976,480.797668,-510.722931,847.521301,560.660828,-503.942505,847.827026,554.122131,-433.950745,848.356018,469.492737,-433.644653,744.462952,475.988403,-513.522766,741.765625,568.244385,-505.229309,741.083252,559.137878,-427.195404,742.43103
00191_color_1715977380.000015.png,1340,1715977379.995901,341.68222,-458.456116,853.379578,284.052734,-451.013702,814.223267,308.085052,-410.361389,841.727844,389.401123,-422.624695,838.198853,424.259674,-430.172211,821.665833,454.112366,-443.519562,813.552368,409.717285,-495.549225,849.266113,430.063293,-506.06601,831.558899,452.845734,-511.263611,810.727234,473.596313,18.955133,769.717285,448.011383,33.688831,760.568542,427.970306,43.427872,752.988098,556.251282,21.308933,765.305969,535.026489,46.239319,759.713501,509.648621,66.945648,752.7146,508.294891,-16.140148,782.225647,504.796936,-48.528397,770.677979,550.534973,-45.515148,783.480164,609.269043,-61.435127,795.293701,185.946198,980.289978,1492.30957,239.163742,974.163696,1516.288696,290.286133,986.285645,1498.549683,222.18425,74.556351,832.266785,182.860504,101.19175,831.636414,213.137451,151.194641,830.839172,264.570587,115.589935,830.213989,176.14621,102.147095,734.945801,218.386459,164.232666,737.138794,266.788391,119.603867,737.20343,225.61235,66.05188,738.596924,476.158264,-439.016388,849.122437,480.758667,-510.73349,847.507263,560.598511,-503.97818,847.826355,554.117249,-433.933441,848.421814,469.457245,-433.65683,744.467834,475.908539,-513.671997,741.833069,568.19281,-505.272156,741.084473,559.116577,-427.229034,742.438538
00192_color_1715977380.037306.png,1344,1715977380.035901,341.364349,-458.516357,854.47467,284.065063,-451.254517,814.705933,307.731628,-410.789185,842.238831,389.098297,-422.612396,838.710938,423.948608,-430.07663,821.646362,453.779877,-443.6875,812.925964,409.977295,-493.870819,848.856018,429.039062,-505.364532,831.052246,452.383728,-510.648071,810.070068,473.563141,18.910789,769.72699,447.9841,33.668766,760.564148,427.93924,43.394012,752.99707,556.200806,21.26305,765.311462,535.007568,46.215847,759.723511,509.607544,66.919739,752.723511,508.242432,-16.193233,782.225281,504.756866,-48.575764,770.676575,550.487671,-45.564541,783.475708,609.222046,-61.490623,795.299133,186.730225,980.037109,1493.385986,239.175735,974.161926,1516.290649,290.288452,986.289185,1498.567749,222.155777,74.535408,832.260254,182.831711,101.155022,831.620911,213.114853,151.185562,830.834717,264.548126,115.568733,830.205505,176.151016,102.132805,734.930908,218.353333,164.207016,737.145325,266.767639,119.578163,737.194092,225.601715,66.068748,738.649902,475.946808,-439.374786,848.820679,479.65033,-510.783386,847.447449,559.684998,-504.833862,847.924561,553.889648,-434.562347,848.731445,469.150848,-433.526459,744.439575,475.137543,-513.648926,741.706787,567.490601,-506.134583,741.200256,559.116333,-427.962341,742.598633
00193_color_1715977380.071557.png,1348,1715977380.075901,340.699707,-458.631775,854.874084,283.231476,-451.658813,815.607117,306.390869,-410.432739,842.867615,387.682251,-422.197937,839.179504,423.012482,-428.883484,822.010071,452.938324,-442.699005,812.347717,409.575928,-492.477814,848.210571,428.180511,-504.578339,831.284363,452.157593,-508.58725,809.353577,473.550476,18.912201,769.740295,447.971313,33.648453,760.563599,427.923492,43.386406,752.997864,556.183899,21.246721,765.327148,535.008484,46.195278,759.720947,509.608276,66.918571,752.746948,508.227814,-16.197283,782.232117,504.743805,-48.57407,770.672424,550.411133,-45.612373,783.445923,609.215271,-61.538097,795.303833,185.972122,980.310608,1492.305298,239.170807,974.160461,1516.295776,290.289948,986.27948,1498.564087,222.145035,74.527077,832.268066,182.826019,101.150528,831.62262,213.105164,151.183228,830.842957,264.54776,115.581329,830.218018,176.143967,102.141968,734.942688,218.353119,164.192322,737.130737,266.756592,119.567055,737.206604,225.593887,66.073532,738.664795,475.586151,-438.696777,849.167236,477.513947,-510.436249,847.494141,557.748474,-506.743378,847.888306,553.824219,-436.559021,848.555969,469.022522,-432.952789,744.439697,473.036987,-513.012939,741.69574,565.512451,-508.178101,741.160461,559.198364,-429.756653,742.635071
00194_color_1715977380.105901.png,1351,1715977380.105901,339.259766,-459.090271,854.942078,281.602997,-450.465302,814.893311,304.837372,-410.804871,843.972107,386.390503,-422.021759,840.128357,421.460632,-428.168671,822.515137,451.294495,-441.503326,812.331543,408.413574,-492.189972,847.464783,426.993042,-503.697449,830.606445,450.85791,-506.009033,808.266296,473.585175,18.924578,769.710571,448.007874,33.670166,760.556824,427.967865,43.402672,752.971008,556.22699,21.261333,765.315918,535.035095,46.214584,759.713074,509.645508,66.927025,752.719543,508.264709,-16.177006,782.220947,504.776611,-48.581917,770.651001,550.404114,-45.674088,783.368958,609.241272,-61.551857,795.260132,186.740799,980.046753,1493.373779,239.168137,974.163757,1516.280273,290.29184,986.291748,1498.55481,222.179489,74.530754,832.250122,182.861801,101.155441,831.604736,213.138138,151.186081,830.822998,264.566833,115.57505,830.201965,176.171326,102.096077,734.901855,218.385925,164.214157,737.12793,266.799957,119.585701,737.18811,225.520615,66.007652,738.48645,474.625732,-438.238434,849.232727,475.04892,-510.063171,847.298523,555.313477,-508.266022,848.200562,552.934631,-438.103638,848.774597,469.032532,-432.563843,744.316162,471.180511,-512.396667,741.385254,563.552124,-509.811218,741.550354,558.999878,-431.507507,742.908691
00195_color_1715977380.149901.png,1355,1715977380.1459012,336.033203,-459.89563,855.520813,278.222687,-452.428955,816.559265,301.002869,-411.435822,845.394165,383.010956,-422.235779,841.779175,418.039307,-427.827301,823.936768,448.143372,-440.776733,813.142334,405.373322,-492.063385,846.98175,423.64679,-503.301514,830.256226,447.628845,-504.024506,807.62738,473.655243,18.976015,769.722473,448.074005,33.708042,760.553528,428.028381,43.451427,752.96875,556.397949,21.495777,765.445679,535.109375,46.235577,759.686096,509.702789,66.966614,752.707397,508.348297,-16.122663,782.211853,504.860931,-48.510227,770.634033,550.559448,-45.547009,783.419556,609.308411,-61.537365,795.230164,185.96347,980.331482,1492.287842,239.173889,974.164307,1516.282104,290.287872,986.269836,1498.536011,222.264923,74.568726,832.2677,182.935257,101.190948,831.631775,213.211731,151.227203,830.855652,264.646332,115.617531,830.209412,176.233154,102.127739,734.929016,218.458023,164.23941,737.150146,266.844055,119.620285,737.197388,225.329468,65.990768,738.250061,471.823212,-438.066986,849.289795,471.141571,-509.94635,847.364136,551.47821,-509.339264,847.962402,550.101318,-439.130432,848.520691,466.058502,-432.245605,744.336365,466.848145,-511.892426,741.328979,559.313843,-510.997162,741.285645,555.985229,-432.568146,742.661804
00196_color_1715977380.191569.png,1360,1715977380.1959012,330.026428,-460.475769,856.593689,271.892609,-453.371887,817.552185,294.305267,-411.794861,846.598572,376.660156,-422.264496,843.135376,411.726166,-427.456116,825.104553,441.880463,-440.155121,814.025757,399.400208,-491.493195,847.142212,417.479156,-502.421082,830.588989,441.499207,-503.214539,807.844727,473.697937,19.001122,769.71936,448.097778,33.723537,760.563538,428.07959,43.469009,752.981323,556.635315,21.852451,765.65509,535.167297,46.244377,759.677979,509.74411,66.989853,752.715942,508.407715,-16.078236,782.210144,504.931915,-48.4519,770.639404,550.702026,-45.433643,783.500671,609.373535,-61.498356,795.218018,185.977509,980.325439,1492.286987,239.167343,974.164551,1516.288208,290.294128,986.285583,1498.554932,222.299225,74.590096,832.288696,182.994522,101.211617,831.652344,213.261108,151.262985,830.880249,264.686859,115.641212,830.242371,176.280273,102.153725,734.934387,218.496796,164.273941,737.178406,266.919739,119.665489,737.240173,225.225098,65.888885,737.983704,465.620697,-437.596191,849.30426,464.539917,-509.393982,847.275024,544.884521,-509.424316,847.703186,543.938293,-439.172943,848.194702,459.707245,-431.569214,744.370422,459.960876,-511.180756,741.321289,552.34082,-511.150238,740.895203,549.60083,-432.515961,742.438904
00197_color_1715977380.225678.png,1363,1715977380.2259011,325.434753,-460.521362,857.239441,267.439484,-452.286896,816.866089,289.596039,-411.605042,846.252136,371.761963,-422.054352,843.445984,406.832336,-427.087616,825.213867,437.094879,-439.725647,813.882629,395.0354,-490.898102,847.413574,412.518372,-501.881958,830.498108,437.00473,-503.422729,808.1922,473.679321,18.998457,769.714233,448.077881,33.697422,760.551025,428.064789,43.451767,752.9823,556.487854,21.598787,765.496338,535.135559,46.270161,759.69635,509.733368,66.967407,752.703735,508.393463,-16.118671,782.193848,504.887115,-48.493889,770.636047,550.677246,-45.455105,783.497925,609.361877,-61.506535,795.220398,185.950943,980.215027,1492.295776,239.167053,974.165466,1516.284912,290.296783,986.304932,1498.564331,222.28688,74.580933,832.274719,182.969284,101.203407,831.642456,213.24118,151.242142,830.858398,264.671051,115.625557,830.226807,175.702606,102.613945,735.122131,218.489304,164.257584,737.151306,266.876221,119.646973,737.219971,225.137405,65.813225,737.893494,461.333588,-437.337219,848.900391,459.717438,-508.968842,847.235535,539.959656,-509.248016,847.656067,539.269348,-439.338654,847.983948,455.065063,-431.093811,744.360352,455.183044,-510.307434,741.290039,547.395813,-510.973755,740.887024,545.057251,-432.533752,742.402283
00198_color_1715977380.263134.png,1367,1715977380.265901,317.317444,-460.676239,857.460815,259.103058,-453.379425,817.419189,281.049469,-411.038239,846.472351,363.354004,-421.632904,843.931641,398.45639,-426.319794,825.691833,428.788452,-438.333679,814.363464,387.135223,-490.176117,847.429321,404.907776,-500.669067,830.650391,428.980408,-502.340851,808.206055,473.651276,18.956621,769.713074,448.062408,33.660172,760.560547,428.031586,43.416527,752.993652,556.425598,21.526901,765.461914,535.097351,46.236969,759.698486,509.700409,66.949722,752.718445,508.351624,-16.151926,782.199951,504.863251,-48.519527,770.637573,550.660156,-45.492615,783.493103,609.353394,-61.525394,795.217896,185.965561,980.24884,1492.297363,239.169769,974.162476,1516.286865,290.291321,986.285034,1498.546021,222.239395,74.568779,832.279358,182.916626,101.19326,831.638245,213.199722,151.213272,830.845886,264.641724,115.603294,830.222961,176.072113,102.22673,734.868958,218.451508,164.239822,737.142273,266.853943,119.636101,737.205017,225.092743,65.806755,737.87439,453.49054,-436.241516,849.079224,451.220551,-508.173096,847.290405,531.600159,-509.130066,847.650208,531.554688,-439.091858,848.086426,447.404541,-430.160645,744.361572,446.739563,-509.542877,741.146851,539.076843,-510.774567,740.884766,537.345703,-432.388641,742.377502
00199_color_1715977380.298042.png,1370,1715977380.295901,309.778778,-459.700531,857.32489,252.015854,-453.394226,816.627563,272.570923,-412.813141,846.320923,355.433258,-420.914307,844.110352,390.793518,-425.112915,825.933716,421.083496,-437.091156,814.442383,379.577789,-489.130585,847.240234,397.45047,-499.635651,830.554321,421.450958,-500.521484,808.091736,473.642487,18.959436,769.712524,448.066223,33.671329,760.557983,428.015839,43.429989,752.991394,556.390381,21.480352,765.446777,535.075989,46.221474,759.696838,509.692963,66.95134,752.735596,508.347626,-16.1667,782.201721,504.832733,-48.530437,770.6604,550.564819,-45.586426,783.408447,609.340271,-61.545391,795.203369,185.959229,980.260742,1492.328735,239.172226,974.166321,1516.283325,290.304077,986.319702,1498.562744,222.243698,74.572823,832.274536,182.91243,101.197227,831.637573,213.190979,151.228317,830.854675,264.624542,115.609009,830.223511,175.812973,102.380913,734.845215,218.440979,164.246353,737.14386,266.8367,119.644211,737.215698,225.087494,65.795258,737.884827,446.158203,-435.366943,849.112427,443.411163,-507.163116,847.1604,523.795593,-508.850403,847.606201,524.274719,-438.708435,848.111816,440.183105,-429.310547,744.21698,438.791382,-508.847473,741.052368,531.19989,-510.513794,740.800659,530.087219,-432.094788,742.354126
00200_color_1715977380.332639.png,1374,1715977380.335901,297.193237,-460.20108,856.07843,240.703903,-452.21698,814.717224,260.023621,-411.932343,844.906982,343.291595,-419.534485,843.596008,378.740143,-423.785889,825.528137,409.269196,-435.108887,814.265564,367.894379,-487.530182,846.716553,385.84433,-497.723297,830.258118,410.287567,-498.7211,808.200378,473.660217,18.959093,769.713867,448.078491,33.674793,760.5578,428.0513,43.437927,752.998901,556.440918,21.548235,765.468262,535.091125,46.245682,759.704956,509.704224,66.956055,752.733521,508.37207,-16.146217,782.202209,504.879059,-48.503311,770.656799,550.603149,-45.57003,783.405762,609.373108,-61.5131,795.198975,185.984619,980.28656,1492.332642,239.168091,974.170959,1516.282349,290.292389,986.302979,1498.550659,222.256699,74.588898,832.286743,182.935562,101.205986,831.641113,213.216599,151.235138,830.861755,264.645081,115.625099,830.227966,175.957138,102.27636,734.758362,218.466537,164.244385,737.144165,266.858398,119.643929,737.233948,225.118378,65.809593,737.913757,434.818237,-433.791626,848.890808,431.715332,-505.65683,846.998657,512.028931,-507.694794,847.515137,512.921143,-437.469971,848.096741,428.877838,-427.819855,744.053589,426.821808,-507.333801,741.067139,519.49762,-509.593018,740.792542,518.761047,-430.944672,742.270752
00201_color_1715977380.368377.png,1377,1715977380.365901,287.399658,-459.059387,855.8703,231.136429,-451.865112,813.732239,249.163452,-412.201141,844.586243,333.016724,-418.384552,843.34436,368.460602,-422.545776,825.144226,399.204529,-433.502075,814.35498,358.263062,-486.261108,846.485168,376.329498,-496.019012,830.171997,400.83139,-497.07547,808.086304,473.680389,18.973196,769.703186,448.087646,33.687988,760.558044,428.065125,43.45322,753.004333,556.497803,21.611887,765.49585,535.118225,46.280403,759.704956,509.728912,66.975761,752.715698,508.401642,-16.109602,782.200806,504.901001,-48.481411,770.644043,550.659851,-45.494648,783.44812,609.391541,-61.493137,795.184814,186.771835,980.027527,1493.434692,239.160309,974.177734,1516.292358,290.290344,986.292419,1498.55188,222.286118,74.600998,832.284668,182.960876,101.213928,831.656982,213.234009,151.250778,830.872375,264.668396,115.64566,830.242493,175.941788,102.301117,734.741821,218.481461,164.264969,737.163269,266.8815,119.665405,737.233032,225.149521,65.842354,737.886963,425.06662,-432.217377,848.898438,422.070892,-504.083984,846.946411,502.352417,-506.188324,847.487915,503.340179,-435.928253,848.13916,419.219238,-426.264771,744.05304,417.585419,-505.656372,740.894287,509.942719,-507.916992,740.720215,509.057159,-429.470428,742.203857
00202_color_1715977380.403084.png,1381,1715977380.4059012,273.067078,-458.783417,855.246216,216.995178,-452.128815,813.066528,234.187271,-412.233002,843.862305,318.3078,-417.220917,843.108398,353.820068,-420.993866,825.088379,384.536713,-430.979462,814.451843,344.398346,-484.758423,846.029907,362.723236,-494.22171,829.817444,387.296478,-495.218536,807.924072,473.650238,18.947565,769.710693,448.077454,33.691536,760.569275,428.043915,43.437721,752.997192,556.471619,21.613142,765.500549,535.107727,46.270172,759.698242,509.719971,66.974564,752.723999,508.387878,-16.119162,782.213745,504.896698,-48.485344,770.65564,550.68866,-45.459949,783.487793,609.398804,-61.467842,795.196716,185.96785,980.236511,1492.347168,239.165802,974.159851,1516.288452,290.294403,986.31665,1498.58252,222.266647,74.59021,832.291687,182.942291,101.225479,831.652771,213.228302,151.245026,830.859375,264.658905,115.63002,830.237,175.64122,102.475266,734.80603,218.459808,164.272202,737.162231,266.861847,119.650185,737.230103,225.119324,65.823654,737.888489,411.198486,-430.248566,848.674377,408.559509,-502.035248,846.803406,488.846466,-503.523895,847.432251,489.324677,-433.239227,848.037781,405.420288,-424.113007,743.915833,404.279327,-503.501831,740.781921,496.611877,-505.348389,740.742065,495.259308,-426.794037,742.215332
00203_color_1715977380.437775.png,1384,1715977380.4359012,261.917755,-458.043243,855.290039,205.944077,-452.257202,812.817871,222.425232,-412.165283,843.830017,306.85614,-416.399628,843.02887,342.499268,-419.85849,825.053345,373.126862,-429.722534,814.479431,333.369324,-483.789337,845.915161,351.961884,-492.917694,829.996521,376.222443,-493.702332,807.737488,473.631134,18.939043,769.700317,448.062836,33.6689,760.570862,428.021973,43.409962,752.99054,556.445557,21.572851,765.502869,535.093384,46.212891,759.695862,509.694153,66.941658,752.720398,508.347382,-16.147793,782.205383,504.851349,-48.520576,770.648621,550.679321,-45.465996,783.52417,609.366699,-61.513969,795.201721,186.704742,980.046753,1493.34668,239.162537,974.151489,1516.280762,290.29718,986.292847,1498.561768,222.23732,74.572594,832.265137,182.91362,101.180542,831.630066,213.196564,151.228226,830.851685,264.623657,115.601822,830.216125,175.915573,102.271561,734.710205,218.43869,164.243607,737.163696,266.829651,119.620155,737.205811,225.074814,65.79705,737.861938,399.642181,-428.542725,848.679443,397.872681,-500.545441,846.726624,478.071503,-501.145416,847.31604,477.822235,-430.887543,847.952454,393.85318,-422.738983,743.768372,393.600037,-502.267731,740.799194,485.897797,-502.929321,740.589172,483.854248,-424.417419,742.104797
00204_color_1715977380.472107.png,1388,1715977380.4759011,246.630142,-457.518127,855.610291,190.52269,-452.819824,813.444397,206.110657,-412.01767,843.961975,291.133545,-415.200104,843.149841,326.324097,-418.746613,824.967651,357.274384,-428.144806,814.487732,318.435577,-482.173462,846.086365,336.636627,-491.718445,829.827637,361.068298,-493.346405,808.060913,473.60022,18.895895,769.724609,448.006775,33.638248,760.573425,427.968628,43.379108,752.997437,556.337891,21.432346,765.455994,535.040344,46.189163,759.724976,509.64093,66.913918,752.735474,508.297852,-16.185991,782.227905,504.795837,-48.579308,770.651245,550.589844,-45.531086,783.500305,609.314453,-61.555576,795.215881,186.761459,980.028198,1493.415283,239.167175,974.15918,1516.282349,290.300537,986.298706,1498.560425,222.188568,74.543228,832.258362,182.859421,101.156769,831.614197,213.139999,151.195999,830.832397,264.593079,115.606064,830.222046,175.859406,102.248123,734.697754,218.38327,164.224503,737.146423,266.807739,119.587791,737.199646,225.033386,65.792358,737.863464,383.703308,-426.667419,848.40686,383.16095,-498.552765,846.621338,463.283234,-497.669434,847.225098,461.988037,-427.356995,848.029175,377.682556,-420.673492,743.774719,378.682953,-500.677704,740.679504,471.264526,-499.376404,740.559021,467.652374,-420.847778,741.937378
00205_color_1715977380.509176.png,1391,1715977380.505901,234.653244,-456.632294,856.027527,178.421677,-453.023773,813.634888,193.768417,-411.665283,843.915588,278.53891,-414.736511,842.773865,313.98761,-417.886139,824.526978,344.905273,-426.843689,814.387939,306.11554,-481.609131,845.88324,324.740417,-490.742004,829.601257,349.042603,-492.227539,807.863403,473.551178,18.88933,769.71405,447.982178,33.639584,760.569519,427.920441,43.362251,752.995728,556.24469,21.33625,765.381531,535.01886,46.20549,759.737915,509.614838,66.913536,752.761719,508.238922,-16.209784,782.243164,504.743408,-48.599312,770.677246,550.399658,-45.664181,783.385315,609.277222,-61.530605,795.232788,185.973282,980.257812,1492.288696,239.169174,974.172119,1516.279663,290.300537,986.299133,1498.547241,222.131561,74.534294,832.256348,182.807251,101.15583,831.610657,213.08403,151.19223,830.817322,264.537842,115.60112,830.223511,175.627335,102.381081,734.764832,218.335907,164.21785,737.133362,266.745697,119.593269,737.194092,224.974197,65.787636,737.858093,371.39325,-425.31015,848.166138,371.585114,-496.900024,846.454224,451.770325,-495.230835,847.097473,449.553406,-424.805054,847.875,365.333618,-419.271179,743.633667,367.205719,-499.346954,740.744263,459.569336,-496.806305,740.4505,455.235504,-418.281647,741.883423
00206_color_1715977380.544741.png,1395,1715977380.545901,218.003189,-455.364655,855.917786,161.993988,-452.685516,814.033325,176.539917,-410.716888,843.659302,261.472626,-412.705444,842.388428,297.046326,-415.451752,824.247986,327.871307,-424.229309,814.121887,289.84729,-479.182831,845.743164,308.293579,-488.270294,829.572937,332.330292,-489.409546,807.644165,473.458344,18.835522,769.729187,447.890594,33.58672,760.592102,427.844635,43.336788,753.008484,556.123596,21.180433,765.310059,534.960815,46.140629,759.75238,509.552185,66.869911,752.771973,508.15625,-16.266445,782.25293,504.667938,-48.647388,770.696228,550.321289,-45.703236,783.404053,609.213806,-61.564716,795.251221,185.948242,980.33136,1492.327637,239.172119,974.164551,1516.281738,290.301605,986.297913,1498.558228,222.059616,74.499046,832.246582,182.724915,101.115036,831.600952,213.01236,151.153854,830.807251,264.463348,115.566406,830.217346,175.563416,102.360382,734.745972,218.267517,164.170059,737.106995,266.680115,119.497871,737.162964,224.890961,65.735939,737.843201,354.507019,-422.74527,848.062378,355.113403,-494.454071,846.34021,435.173767,-492.542297,846.897339,432.77301,-422.408478,847.625916,348.590546,-416.734894,743.461487,350.502869,-497.154846,740.550171,443.04303,-494.044312,740.279358,438.427094,-415.695709,741.707703
00207_color_1715977380.579189.png,1398,1715977380.575901,205.381714,-453.98175,856.527161,149.317871,-451.916901,814.47937,163.641891,-409.745667,843.678284,247.883133,-411.61908,842.029663,283.960541,-413.815186,824.255493,314.954224,-422.656891,813.962219,277.280426,-477.428253,846.009583,295.620667,-486.37204,829.772766,319.64856,-487.984436,807.878174,473.43689,18.830173,769.74408,447.877777,33.614582,760.641541,427.842834,43.32782,753.007996,556.113953,21.14043,765.296021,534.941284,46.135113,759.779236,509.533875,66.852463,752.78186,508.133179,-16.271082,782.27179,504.662323,-48.642002,770.718811,550.301086,-45.716373,783.398193,609.190125,-61.561237,795.265747,185.952789,980.266602,1492.329712,239.164337,974.172363,1516.291748,290.307373,986.316101,1498.56958,222.03656,74.502357,832.252441,182.709351,101.115547,831.604858,212.987915,151.165039,830.823303,264.449921,115.568779,830.234924,175.755844,102.240318,734.716309,218.253387,164.146759,737.098694,266.67392,119.534927,737.187622,224.894348,65.751244,737.853516,341.306213,-420.67395,848.123535,342.333374,-492.6875,846.144836,422.336334,-490.162842,846.84082,419.718018,-419.744171,847.780151,335.396729,-414.850952,743.326904,337.850403,-495.423187,740.577209,430.241882,-491.852386,740.144409,425.229034,-413.326691,741.619019
00208_color_1715977380.613823.png,1402,1715977380.615901,188.888031,-452.224945,856.918884,132.513824,-451.356262,815.016846,146.238174,-408.439209,843.937073,230.932007,-409.844299,841.937744,267.124146,-411.386963,823.939026,297.908142,-420.251343,813.522766,260.74585,-475.05191,846.219238,279.022034,-484.16037,829.938232,303.038422,-486.10611,807.806274,473.465363,18.860582,769.750671,447.916534,33.610287,760.58844,427.868774,43.355167,753.014893,556.118042,21.124987,765.230225,534.947388,46.198132,759.787231,509.560883,66.897186,752.781128,508.155579,-16.239676,782.269897,504.679016,-48.62748,770.701416,550.3526,-45.897236,783.188599,609.210327,-61.549,795.251038,186.772171,980.035583,1493.446167,239.164337,974.175964,1516.294067,290.296844,986.297974,1498.549805,222.053299,74.535103,832.265015,182.729416,101.131508,831.619873,213.016235,151.179932,830.828003,264.463745,115.581413,830.227417,175.753281,102.260658,734.717346,218.273865,164.183807,737.119324,266.686157,119.54538,737.194397,224.911682,65.753227,737.867859,324.507935,-418.276886,847.880432,325.954071,-490.197845,846.005005,405.878601,-487.220642,846.70874,402.723633,-416.955444,847.533081,318.479218,-412.524628,743.159607,321.374878,-493.003174,740.332581,413.752594,-488.78952,740.072632,408.309906,-410.385681,741.520752
00209_color_1715977380.648606.png,1405,1715977380.6459012,176.721924,-450.991699,857.324402,120.479904,-450.661591,815.094971,133.894104,-407.626495,843.802551,218.489166,-408.41452,842.065002,255.103027,-408.888458,824.025391,285.443481,-418.428406,813.749329,248.74382,-473.901306,846.204407,266.903351,-482.319519,829.883667,290.835602,-484.485474,807.676147,473.455688,18.834423,769.748291,447.914032,33.603336,760.594116,427.841248,43.357124,753.062012,556.125,21.177979,765.295105,534.969055,46.157032,759.760437,509.550446,66.886444,752.782837,508.164154,-16.248844,782.256348,504.682831,-48.632298,770.691956,550.325134,-45.693916,783.414001,609.229065,-61.568142,795.236206,186.976791,980.002991,1493.71814,239.157654,974.164551,1516.286011,290.295715,986.287598,1498.555786,222.061722,74.514572,832.259094,182.723816,101.113113,831.601318,213.012375,151.16806,830.831726,264.472534,115.56868,830.23877,175.789825,102.232147,734.71167,218.264969,164.177155,737.125916,266.672516,119.512451,737.183777,224.925812,65.745773,737.855652,311.975616,-416.510956,848.000916,314.335571,-487.550385,845.398376,393.692841,-485.467529,846.597656,390.404663,-415.203735,847.466675,306.256989,-410.808929,743.074036,309.186401,-491.475403,740.233704,401.655273,-486.90152,739.908813,396.095795,-408.520325,741.410583
00210_color_1715977380.682946.png,1409,1715977380.6859012,161.091034,-449.278839,857.168823,104.728836,-449.337555,814.948975,117.945442,-406.296326,843.606506,202.930923,-406.009583,842.327759,238.332291,-408.357727,823.877869,269.442719,-416.016846,813.707581,233.187897,-471.607208,845.953735,251.220078,-480.185333,829.513062,275.05777,-482.274536,807.300476,473.40329,18.80171,769.738342,447.846344,33.583328,760.64325,427.794281,43.312263,753.031799,556.083679,21.144693,765.298584,534.920349,46.116714,759.762573,509.510468,66.842102,752.775818,508.091583,-16.269358,782.275208,504.640686,-48.645351,770.729004,550.282043,-45.710182,783.442444,609.193665,-61.539516,795.275513,187.122299,979.990417,1493.923096,239.163666,974.166016,1516.290161,290.29483,986.294678,1498.560425,221.982071,74.472008,832.234863,182.647552,101.070107,831.58905,212.942215,151.123032,830.811035,264.391022,115.53331,830.223938,175.560806,102.295372,734.737,218.198959,164.128403,737.100525,266.616974,119.463631,737.166077,224.845566,65.71843,737.82959,296.632843,-414.549591,847.450195,297.481873,-487.530365,845.978027,377.807312,-483.680481,846.435486,374.676025,-413.351837,847.19696,290.759491,-408.67868,742.772156,293.868042,-488.821777,739.86969,385.900726,-485.084747,739.755127,380.693207,-406.628296,741.260071
00211_color_1715977380.717015.png,1412,1715977380.7159011,149.6745,-447.641113,857.519165,93.371552,-448.528259,815.105957,106.329071,-404.75647,843.306274,190.873779,-404.89978,841.714233,226.811951,-406.536896,823.672302,257.842499,-413.53714,813.861755,221.894806,-469.653259,846.067444,239.905884,-478.220856,829.455078,263.511627,-480.320496,807.125244,473.313629,18.727024,769.75061,447.745789,33.473148,760.622498,427.716339,43.27562,753.092834,556.050415,21.16316,765.428894,534.825378,46.046005,759.790588,509.426483,66.771057,752.793762,508.002594,-16.349951,782.293945,504.552368,-48.732357,770.723206,550.310364,-45.824455,783.394653,609.121216,-61.609364,795.275391,187.226776,979.976685,1494.021118,239.169724,974.167053,1516.283569,290.29541,986.291321,1498.563477,221.898621,74.424393,832.204346,182.585709,101.052177,831.579529,212.856903,151.082031,830.795166,264.30484,115.496796,830.217407,175.642548,102.152565,734.664246,218.110382,164.075546,737.071228,266.547699,119.408333,737.137573,224.762222,65.629608,737.801208,285.494141,-412.936523,847.438232,285.861115,-485.991791,845.892395,366.356171,-482.663208,846.346497,363.832489,-412.200073,847.165466,279.902679,-407.011017,742.628235,281.478729,-488.233307,739.809814,374.44632,-484.246094,739.655823,369.778961,-405.810669,741.107361
00212_color_1715977380.751318.png,1416,1715977380.755901,135.268402,-445.917786,857.112122,78.995918,-447.179932,814.497314,91.561165,-403.450836,842.506409,176.713852,-402.354828,841.824097,212.388977,-404.251099,823.594788,243.629608,-411.079163,813.854858,207.441681,-467.41272,845.850098,225.465683,-475.810913,829.274841,249.141281,-478.440552,806.849915,473.195862,18.637409,769.778259,447.735718,33.619122,760.790161,427.64212,43.262375,753.150269,555.948364,21.092196,765.453125,534.72644,45.936634,759.793152,509.354523,66.666115,752.81604,507.888794,-16.468838,782.274719,504.465149,-48.799953,770.744141,550.220337,-45.907555,783.413269,609.036377,-61.677101,795.287659,187.202225,979.978088,1494.026611,239.166718,974.161804,1516.28772,290.298004,986.285156,1498.561279,221.79393,74.379105,832.181335,182.495621,101.009155,831.568787,212.77356,151.061707,830.783325,264.196747,115.453995,830.209167,175.572586,102.11412,734.643921,218.034607,164.012527,737.036804,266.455719,119.33857,737.128357,224.66037,65.580238,737.801819,271.412903,-411.139008,847.024475,270.952362,-484.385956,845.66626,351.539062,-481.539307,846.114441,349.599396,-411.035034,846.992676,265.838135,-405.046417,742.458374,266.848541,-486.181793,739.468445,359.786926,-483.081207,739.53241,355.721344,-404.617279,740.971252
00213_color_1715977380.785182.png,1419,1715977380.785901,125.373199,-444.950745,856.446411,69.319847,-446.25412,813.474976,81.728142,-402.327759,841.643616,166.324387,-401.625641,840.978027,202.472916,-403.135681,823.211426,234.139877,-409.350464,813.705566,197.70575,-466.377045,845.360901,215.786789,-474.565308,828.823242,239.374969,-476.651642,806.649353,473.165771,18.635904,769.786743,447.633453,33.482735,760.712708,427.608521,43.290401,753.186462,555.921631,21.084145,765.471558,534.687561,45.934746,759.802734,509.332764,66.672386,752.825745,507.842896,-16.500975,782.277039,504.416168,-48.811485,770.75415,550.169678,-45.867737,783.470093,609.001404,-61.698238,795.293945,187.228851,979.967285,1494.02124,239.16687,974.16864,1516.280151,290.305359,986.303772,1498.551636,221.764862,74.387589,832.188904,182.459,101.003998,831.558228,212.725601,151.060684,830.788879,264.162964,115.447105,830.211182,175.525543,102.123779,734.653198,218.00293,163.991196,737.019836,266.435944,119.365952,737.141174,224.624222,65.559341,737.814087,262.213043,-409.48465,847.196594,260.811493,-483.372711,845.668884,341.616669,-480.980499,846.01825,340.137878,-410.749329,846.694153,256.536377,-404.004425,742.166565,256.956696,-484.88681,739.279358,349.850342,-482.605377,739.3125,346.464661,-403.939331,740.930054
00214_color_1715977380.819301.png,1422,1715977380.815901,116.543526,-444.18866,855.328918,60.881786,-445.374664,812.322021,73.356552,-401.200836,840.527527,158.193329,-400.259064,840.432617,194.014313,-402.008545,822.815002,226.488144,-406.898926,814.314331,189.108124,-465.278778,844.901917,207.249954,-473.663239,828.510742,231.216644,-475.987274,806.557739,473.120819,18.638277,769.809998,447.586792,33.457825,760.687561,427.590057,43.223511,753.124817,555.910217,21.093182,765.500793,534.659729,45.957657,759.829163,509.291107,66.628151,752.774536,507.823578,-16.495743,782.291382,504.39859,-48.804245,770.770569,550.168762,-45.897182,783.463501,608.979309,-61.681,795.294434,187.209915,979.983887,1494.029785,239.164413,974.169312,1516.285278,290.304199,986.308716,1498.568237,221.741684,74.395294,832.203979,182.435928,101.003883,831.566101,212.707016,151.048233,830.789429,264.145233,115.445084,830.217896,175.528702,102.131516,734.653137,217.981995,163.982147,737.015625,266.411774,119.362045,737.156067,224.615021,65.568207,737.808105,253.037781,-409.810516,846.854187,252.437057,-482.409851,845.40918,333.14035,-480.310425,846.000977,331.722717,-410.095978,846.558716,248.32518,-402.942749,742.171204,248.644043,-484.128632,739.187073,341.443024,-481.919586,739.386841,338.181946,-403.383484,740.837097
00215_color_1715977380.853183.png,1426,1715977380.855901,107.439293,-443.026154,854.395691,52.018894,-444.645752,811.190002,64.419128,-400.172272,839.157959,149.09671,-399.176941,839.527832,185.243088,-400.44754,822.27832,215.852966,-409.418793,812.05542,179.916092,-464.222351,844.469727,198.194489,-472.369415,828.289856,222.41716,-475.010162,806.338928,473.077393,18.605724,769.814575,447.536041,33.416996,760.688049,427.559235,43.248589,753.179382,555.908813,21.092276,765.512573,534.631226,45.915012,759.813599,509.261475,66.637047,752.800964,507.793243,-16.510988,782.293701,504.372253,-48.828678,770.777039,550.166809,-45.939251,783.438477,608.957153,-61.685654,795.305542,187.189407,979.992981,1494.045166,239.163422,974.166443,1516.282349,290.303192,986.303711,1498.558594,221.705765,74.368958,832.188171,182.401932,100.975822,831.550842,212.667099,151.035629,830.7901,264.098206,115.415039,830.207581,175.398193,102.186035,734.664978,217.941986,163.964005,737.018494,266.384277,119.318802,737.137329,224.575348,65.546326,737.806641,244.133057,-409.097626,846.60437,243.682495,-481.480988,845.08551,324.217926,-479.467499,845.842041,322.899628,-409.307281,846.295105,239.536224,-402.149841,741.888,239.75531,-483.073578,738.942749,332.610321,-481.091736,739.181274,329.454803,-402.475525,740.722107
00216_color_1715977380.887256.png,1429,1715977380.8859012,102.34317,-442.414795,853.859436,46.935932,-443.720856,810.490295,59.446259,-399.438232,838.635742,144.010712,-398.481903,839.167114,180.054016,-400.275665,821.917236,210.968719,-408.595093,812.004761,174.916,-463.692413,844.341064,193.196915,-471.900604,828.110718,217.58757,-474.618896,806.378845,472.937714,18.42621,769.623169,447.483429,33.34803,760.675659,427.537018,43.221519,753.162048,555.887207,21.098385,765.567505,534.607849,45.865501,759.818726,509.182037,66.572922,752.773254,507.743408,-16.563011,782.295715,504.339447,-48.865849,770.771545,550.142761,-45.965168,783.457031,608.930237,-61.731293,795.302063,187.212051,979.982849,1494.019653,239.163605,974.163879,1516.283447,290.297821,986.292358,1498.564087,221.676743,74.344383,832.177368,182.378494,100.941025,831.546448,212.637527,150.999344,830.773682,264.065491,115.383247,830.188354,175.298126,102.19278,734.65155,217.912537,163.940369,737.012268,266.349121,119.282616,737.118286,224.561707,65.521408,737.785095,239.488235,-408.36908,846.382996,238.333984,-480.943665,845.279785,319.222107,-479.138458,845.786133,318.152985,-409.024078,846.34198,234.804199,-401.503052,741.847229,234.809006,-482.706482,738.881165,327.66803,-480.873383,739.085144,324.700043,-402.152283,740.721985
00217_color_1715977380.922120.png,1433,1715977380.9259012,97.635002,-441.086334,854.089111,42.197727,-442.836273,810.420593,54.768616,-398.414307,838.55603,139.018433,-398.274139,838.798462,175.257904,-399.624908,821.833496,206.313248,-407.652008,812.137146,170.018188,-462.740601,844.356323,188.29686,-471.292755,828.013794,212.429947,-473.48938,806.21698,472.942657,18.367374,769.64325,447.397491,33.291531,760.685608,427.491089,43.215118,753.203491,555.853271,21.061842,765.579773,534.547729,45.838448,759.827271,509.156464,66.637115,752.903625,507.666473,-16.611643,782.29187,504.293976,-48.898033,770.795593,550.087402,-46.011368,783.481689,608.887756,-61.74004,795.321228,187.213531,979.973877,1494.026001,239.161606,974.163574,1516.289185,290.300537,986.298645,1498.553467,221.606155,74.318001,832.165771,182.321915,100.895088,831.517822,212.564911,150.988403,830.784363,263.999603,115.34066,830.19104,175.199203,102.19175,734.66571,217.858841,163.895935,736.999695,266.299072,119.253998,737.111145,224.496552,65.489723,737.770325,234.812668,-407.565826,846.540649,233.602859,-480.317017,844.980347,314.240997,-478.793671,845.628662,313.427368,-408.595032,846.300964,230.015869,-401.00412,741.773254,229.747253,-482.067657,738.779968,322.637207,-480.425629,739.013,319.910553,-401.884094,740.584045
00218_color_1715977380.962733.png,1437,1715977380.9659011,94.379036,-440.087616,854.43158,38.971771,-441.543152,810.648132,51.593624,-397.373383,838.651672,136.255142,-396.812988,839.5802,172.137222,-398.942139,822.053711,203.096588,-407.143555,812.137329,166.696884,-461.913513,844.542725,184.881012,-470.605286,828.101807,208.959091,-473.067963,806.296936,472.851074,18.327997,769.624084,447.333099,33.274376,760.694275,427.435028,43.214344,753.219482,555.802734,21.036768,765.593323,534.491943,45.830082,759.843262,509.094299,66.54995,752.831421,507.620697,-16.636204,782.280273,504.238617,-48.910049,770.799072,550.021729,-46.030109,783.481445,608.841858,-61.770329,795.315796,187.239746,979.957092,1494.012939,239.164566,974.169495,1516.28772,290.302185,986.303223,1498.564087,221.558578,74.287521,832.165283,182.267365,100.874016,831.511963,212.518005,150.963821,830.780884,263.944183,115.302414,830.176453,175.192688,102.152214,734.637756,217.799255,163.880264,737.003906,266.255249,119.255821,737.119507,224.44046,65.460342,737.769409,231.517441,-406.858673,846.649414,229.98233,-479.844604,844.947327,310.604553,-478.698792,845.556152,310.032745,-408.454529,846.191223,226.667603,-400.492096,741.715332,226.118271,-481.526031,738.756348,319.058044,-480.26062,738.951538,316.792328,-401.695892,740.524536
00219_color_1715977380.998955.png,1440,1715977380.995901,92.686462,-439.558319,854.653687,37.209412,-440.847076,810.89093,49.877892,-396.657867,839.169739,134.565384,-396.13385,839.629944,170.315918,-398.385498,822.033081,201.291183,-407.153778,811.794434,165.094604,-461.424377,844.573303,183.099823,-469.816772,828.2724,207.165161,-472.361206,806.239929,472.790222,18.351059,769.604065,447.333832,33.292049,760.682007,427.406006,43.211418,753.207886,555.796814,21.053864,765.579651,534.47583,45.853741,759.836975,509.016876,66.619713,752.843201,507.599823,-16.623667,782.277283,504.21994,-48.897804,770.791992,549.974915,-46.022636,783.481445,608.827148,-61.756546,795.309509,187.220413,979.970642,1494.017578,239.16954,974.164917,1516.283325,290.295593,986.279968,1498.540649,221.542313,74.284554,832.159912,182.246536,100.870033,831.508118,212.485138,150.966721,830.774902,263.913116,115.29776,830.163635,175.328217,102.0429,734.59967,217.771072,163.863617,736.984314,266.224731,119.226181,737.104553,224.418091,65.443375,737.779785,230.278946,-405.927856,846.495972,228.161331,-479.313141,844.851685,308.815399,-478.605011,845.55426,308.547485,-408.175751,846.412598,225.179245,-400.029907,741.694153,224.247864,-481.441223,738.85907,317.185913,-480.374023,738.908569,314.975128,-401.801208,740.380798
00220_color_1715977381.033546.png,1444,1715977381.035901,91.525505,-439.363373,854.431335,35.990585,-440.509033,811.027039,48.70018,-396.195862,839.144592,133.463623,-395.702942,839.592529,169.355072,-397.994354,821.984009,200.169998,-406.239044,811.984497,163.900543,-460.926147,844.606445,181.984833,-469.525238,828.357483,205.902191,-471.932373,806.141052,472.776672,18.334982,769.538208,447.334412,33.319141,760.679199,427.424591,43.230762,753.203186,555.803101,21.079498,765.577026,534.502502,45.864204,759.81427,509.05127,66.615799,752.842163,507.62677,-16.602289,782.285339,504.228363,-48.879917,770.777893,550.037415,-45.97184,783.482056,608.839111,-61.755844,795.291199,187.208252,979.97699,1494.021973,239.16806,974.170959,1516.283691,290.306061,986.308105,1498.562744,221.551788,74.29026,832.162903,182.261688,100.880516,831.513977,212.497589,150.971924,830.771729,263.920197,115.30307,830.171692,175.359344,102.056381,734.59906,217.782349,163.891708,736.996521,266.218719,119.269005,737.126282,224.424103,65.455643,737.77478,229.178955,-405.440643,846.586487,226.918259,-479.186584,844.884766,307.542786,-478.497681,845.54657,307.346161,-408.174042,846.247314,224.085266,-399.758972,741.753723,223.013748,-480.842285,738.709412,315.995178,-480.204773,738.919067,314.120972,-401.475372,740.466553
00221_color_1715977381.067974.png,1447,1715977381.065901,91.167404,-439.288544,854.393921,35.553791,-440.222992,811.103638,48.376232,-396.038239,839.270813,132.718353,-396.324097,839.165344,169.037949,-398.12204,821.972961,199.765305,-406.492065,811.920166,163.523544,-460.988312,844.57019,181.575714,-469.674316,828.304321,205.575912,-472.301208,806.291565,472.790283,18.376753,769.499573,447.354401,33.338432,760.678467,427.463013,43.245869,753.192444,555.823975,21.110462,765.56897,534.517944,45.898594,759.833557,509.085663,66.677025,752.861267,507.660797,-16.553352,782.281433,504.263275,-48.851803,770.776733,550.037048,-45.936687,783.486145,608.85907,-61.737003,795.286194,187.214081,979.972961,1494.019897,239.169525,974.171509,1516.286133,290.298859,986.293579,1498.549561,221.593658,74.327309,832.188477,182.293686,100.901123,831.525635,212.523315,150.984909,830.777649,263.953613,115.353767,830.18634,175.380981,102.058075,734.636047,217.807205,163.902496,736.996216,266.253601,119.276955,737.108887,224.448135,65.471008,737.780945,228.890411,-405.206299,846.489014,226.677063,-479.276337,844.936218,307.305267,-478.208374,845.538269,306.875946,-407.911102,846.271484,223.603256,-399.88147,741.719604,222.814301,-480.880768,738.699402,315.727509,-479.841705,738.934143,313.648529,-401.176758,740.503601
00222_color_1715977381.102320.png,1451,1715977381.105901,91.17794,-439.308868,854.414062,35.51408,-439.923859,811.223328,48.644115,-395.695374,839.203979,133.261307,-395.779633,839.713684,169.065674,-398.308167,822.058167,199.846924,-406.63678,812.036865,163.486023,-461.047333,844.630798,181.512955,-469.776154,828.332886,205.519135,-472.532257,806.405518,472.839233,18.421057,769.484314,447.393036,33.362362,760.66626,427.500031,43.256962,753.169006,555.859802,21.144379,765.556641,534.567932,45.922092,759.813354,509.143127,66.699715,752.876465,507.709442,-16.531454,782.270325,504.30603,-48.80534,770.766724,550.114258,-45.921001,783.465088,608.887024,-61.724422,795.272217,187.19278,979.99292,1494.04126,239.157501,974.169495,1516.280518,290.303223,986.301697,1498.555908,221.611374,74.324692,832.17749,182.310928,100.912888,831.545654,212.560638,151.012115,830.792969,263.996735,115.385315,830.20752,175.405975,102.061562,734.633423,217.833786,163.906174,737.001648,266.279236,119.293602,737.129333,224.497025,65.519203,737.781677,228.802994,-405.255371,846.514587,226.746674,-479.263885,844.94751,307.375793,-478.078156,845.555481,306.818726,-407.785187,846.278748,223.496475,-399.898712,741.735779,222.849609,-480.8927,738.721863,315.755737,-479.707397,738.942627,313.623932,-401.06192,740.52356
00223_color_1715977381.136756.png,1454,1715977381.1359012,91.217606,-439.137787,854.170898,35.626492,-439.599304,811.089844,48.85778,-395.352966,839.043579,133.445679,-395.562927,839.692261,169.246277,-398.230865,822.064758,200.034195,-406.705261,812.088074,163.498444,-460.951874,844.585693,181.512421,-469.73291,828.350159,205.544327,-472.483917,806.413025,472.929382,18.415962,769.51593,447.430359,33.379635,760.666443,427.517395,43.277012,753.181274,555.883484,21.128651,765.546936,534.578308,45.92778,759.808167,509.180298,66.671944,752.818054,507.745392,-16.503786,782.277344,504.338135,-48.799282,770.757324,550.137268,-45.918629,783.442505,608.922546,-61.72316,795.267395,187.231598,979.970337,1494.028687,239.16098,974.168091,1516.286621,290.298553,986.294678,1498.554688,221.644302,74.353386,832.198608,182.34314,100.920998,831.543945,212.580582,151.018448,830.793213,264.02063,115.391457,830.201538,175.446396,102.066124,734.635742,217.855072,163.939758,737.026611,266.290588,119.319824,737.140564,224.506332,65.521996,737.784363,228.842712,-405.283905,846.534058,226.821945,-479.230865,844.935791,307.419556,-478.06366,845.560425,306.830444,-407.803802,846.270508,223.53389,-399.906738,741.753967,222.896759,-480.874237,738.73938,315.798828,-479.691254,738.947388,313.707367,-401.015289,740.554871
00224_color_1715977381.171045.png,1458,1715977381.1759012,91.181625,-439.022949,853.839417,35.72253,-439.216431,810.723999,49.084099,-395.041595,838.619324,133.633972,-395.375153,839.627563,169.358429,-398.145782,821.99054,200.150467,-406.807404,812.070679,163.435196,-460.921844,844.439392,181.521011,-469.787079,828.256409,205.572464,-472.387268,806.379944,472.967682,18.517151,769.622131,447.474579,33.422932,760.658936,427.525024,43.29686,753.176758,555.888611,21.163334,765.555725,534.608398,45.958153,759.807129,509.158478,66.650085,752.749634,507.753021,-16.481689,782.273438,504.340302,-48.788437,770.749329,550.147583,-45.87421,783.44812,608.915161,-61.710217,795.260193,187.221573,979.976257,1494.035889,239.160965,974.169373,1516.288452,290.293884,986.290039,1498.564697,221.663849,74.357521,832.188416,182.358887,100.935242,831.556458,212.599182,151.014877,830.79657,264.039856,115.395233,830.204102,175.447601,102.079712,734.625061,217.867737,163.957642,737.029297,266.308868,119.308243,737.128113,224.53244,65.533829,737.792664,228.8703,-405.25882,846.55304,226.835678,-479.224457,844.948792,307.459106,-478.042755,845.579163,306.845581,-407.81546,846.249207,223.56665,-399.890015,741.756165,222.938614,-480.886688,738.748047,315.835999,-479.687042,738.948669,313.779785,-401.010956,740.566467
00225_color_1715977381.205359.png,1461,1715977381.2059011,91.136993,-438.978638,853.664551,35.720612,-439.073242,810.477966,49.170864,-394.906189,838.351379,133.650055,-395.369812,839.535156,169.387131,-398.155121,821.912292,200.155609,-406.836243,812.050354,163.385117,-460.973816,844.351746,181.539658,-469.779388,828.220154,205.590759,-472.321625,806.317017,473.055054,18.637976,769.812378,447.470032,33.407848,760.665405,427.530121,43.303226,753.196777,555.897827,21.158674,765.547913,534.609741,45.946781,759.80542,509.233246,66.630997,752.763855,507.745514,-16.475241,782.290161,504.334747,-48.792942,770.73938,550.155212,-45.880913,783.458374,608.92572,-61.733871,795.258057,187.220566,979.972656,1494.015259,239.163223,974.16748,1516.282837,290.29538,986.285706,1498.548096,221.674133,74.343079,832.186157,182.362595,100.918617,831.537781,212.60257,151.016052,830.791504,264.053131,115.400146,830.202454,175.44577,102.071609,734.632202,217.868225,163.935074,737.018555,266.310425,119.306984,737.128418,224.526337,65.515205,737.78949,228.895187,-405.272339,846.540161,226.8526,-479.229279,844.942139,307.454559,-478.067993,845.572449,306.873718,-407.805939,846.263428,223.57608,-399.887268,741.756165,222.948608,-480.881042,738.745789,315.836243,-479.671814,738.941284,313.766144,-401.040527,740.551086
00226_color_1715977381.240365.png,1464,1715977381.235901,91.077614,-438.948425,853.485596,35.639874,-439.047089,810.286194,49.201656,-394.859009,838.052673,133.604279,-395.399078,839.387634,169.346619,-398.148895,821.851501,200.181351,-406.769989,812.085754,163.290207,-461.023285,844.222778,181.530655,-469.919586,828.109863,205.572754,-472.256317,806.243896,472.970856,18.495474,769.58905,447.446381,33.397629,760.67041,427.526154,43.27845,753.162598,555.897339,21.15093,765.553284,534.605042,45.950375,759.799988,509.209747,67.016815,753.173462,507.943817,-16.368633,782.468262,504.325317,-48.808208,770.752441,550.146667,-45.88274,783.457031,608.920715,-61.754684,795.254333,187.212082,979.983459,1494.030151,239.163406,974.157776,1516.277222,290.299133,986.298706,1498.547363,221.665024,74.343681,832.180847,182.353195,100.923637,831.534729,212.591141,151.018753,830.788574,264.027374,115.392204,830.190918,175.424911,102.075943,734.621826,217.861572,163.926865,737.010071,266.30719,119.297737,737.127686,224.519348,65.522049,737.79248,228.950668,-405.101105,846.508484,226.78772,-479.28302,844.966919,307.437469,-478.072784,845.564392,306.840607,-407.808075,846.250793,223.555923,-399.888672,741.746948,222.92337,-480.907196,738.750916,315.800476,-479.68454,738.941772,313.783478,-401.02301,740.541809
00227_color_1715977381.276448.png,1468,1715977381.275901,91.133377,-438.758881,853.490723,35.547779,-439.082703,810.131104,48.93219,-395.054047,838.237244,132.951736,-396.157166,838.810059,169.264496,-398.212128,821.778687,200.136765,-406.763947,812.024963,163.245331,-461.081635,844.139587,181.471603,-469.970886,827.988892,205.562744,-472.220612,806.188477,472.971985,18.47245,769.615906,447.422333,33.37772,760.667175,427.504578,43.278637,753.17865,555.891724,21.125452,765.567688,534.583313,45.920135,759.818237,509.211548,66.696671,752.870361,507.739075,-16.508703,782.284424,504.317535,-48.830269,770.753235,550.133179,-45.906239,783.466614,608.911133,-61.762711,795.265747,187.209656,979.982544,1494.024048,239.162567,974.15863,1516.279541,290.306427,986.299683,1498.553345,221.640213,74.340973,832.186523,182.343002,100.910538,831.528564,212.581253,151.009232,830.789062,264.022186,115.372971,830.190552,175.134537,102.212097,734.675415,217.855164,163.929977,737.011353,266.296539,119.287895,737.119812,224.506622,65.513367,737.774841,228.866302,-405.200806,846.46521,226.787811,-479.245941,844.930786,307.407745,-478.071075,845.560425,306.825836,-407.805298,846.268494,223.542816,-399.897583,741.743774,222.878342,-480.899811,738.728271,315.801483,-479.710083,738.941833,313.788239,-401.032806,740.553467
00228_color_1715977381.311851.png,1472,1715977381.315901,91.028938,-438.865143,853.236084,35.549194,-438.972198,809.987915,48.816319,-394.97049,838.34906,132.975143,-396.092468,838.702576,169.233429,-398.216339,821.651001,200.106476,-406.777435,811.91156,163.196228,-461.04364,844.079651,181.444824,-469.887726,827.965881,205.556107,-472.189331,806.157471,473.008881,18.465559,769.624695,447.452484,33.387909,760.665405,427.513062,43.270027,753.180542,555.88446,21.143505,765.557678,534.579102,45.92683,759.812317,509.206543,66.661797,752.854065,507.714447,-16.483074,782.292847,504.313721,-48.82465,770.757812,550.125122,-45.899483,783.463684,608.900757,-61.749538,795.264343,187.196228,979.990967,1494.029297,239.165741,974.166931,1516.283691,290.307312,986.294739,1498.550659,221.638138,74.333107,832.187805,182.338715,100.910973,831.53717,212.572906,151.001328,830.785706,264.014221,115.374931,830.189697,175.406616,102.068527,734.62085,217.856644,163.912766,737.007324,266.289276,119.277054,737.115479,224.499344,65.489685,737.798096,228.982742,-404.893982,846.422302,226.744507,-479.319977,844.963501,307.396942,-478.072906,845.538452,306.82309,-407.804718,846.259399,223.529861,-399.91394,741.727295,222.876572,-480.923187,738.733826,315.78476,-479.702667,738.923706,313.778503,-401.032135,740.537292
00229_color_1715977381.346694.png,1475,1715977381.345901,91.009804,-438.875732,853.159424,35.549637,-438.988342,809.874878,48.983246,-394.879761,838.006042,132.969955,-396.09082,838.695557,169.271851,-398.193848,821.712952,200.094742,-406.826782,811.902771,163.159439,-461.09967,844.050842,181.435089,-469.905823,827.925964,205.575714,-472.130524,806.118713,473.039062,18.631838,769.823181,447.43988,33.379925,760.665405,427.518188,43.29747,753.184021,555.895264,21.136286,765.559692,534.588196,45.931713,759.813599,509.223816,66.650719,752.831909,507.741974,-16.498262,782.291443,504.317871,-48.824219,770.766541,550.130737,-45.892479,783.472839,608.903625,-61.744694,795.257019,187.201447,979.989319,1494.026123,239.160233,974.17041,1516.284058,290.29715,986.296631,1498.54834,221.642807,74.352142,832.195862,182.336334,100.928192,831.546814,212.576614,151.005768,830.794495,264.025879,115.391068,830.201721,175.397141,102.089302,734.6651,217.852295,163.9272,737.0047,266.305206,119.316307,737.134155,224.506332,65.519318,737.790039,228.246307,-406.469788,846.472412,226.795944,-479.24704,844.964417,307.416656,-478.063538,845.563171,306.839355,-407.822052,846.256592,223.538651,-399.90271,741.724609,222.903488,-480.929321,738.762939,315.789642,-479.682404,738.946167,313.780365,-401.009766,740.568359
00230_color_1715977381.381774.png,1479,1715977381.3859012,90.972626,-438.902679,852.918213,35.593693,-438.972046,809.52832,48.77142,-395.077026,837.991516,133.383133,-395.685364,838.975342,169.263977,-398.262024,821.661438,200.138855,-406.84137,811.967102,163.138657,-461.16217,843.958984,181.455414,-469.960724,827.855225,205.604736,-471.932648,806.023193,473.052917,18.642946,769.82196,447.432739,33.396019,760.680847,427.520935,43.294689,753.182739,555.903381,21.168486,765.568481,534.593384,45.934074,759.815613,509.206482,66.620949,752.79187,507.752167,-16.497961,782.290649,504.317871,-48.802849,770.761108,550.139343,-45.895546,783.45282,608.913086,-61.750458,795.257629,187.200226,979.983704,1494.025513,239.161179,974.170166,1516.282227,290.29776,986.289673,1498.542236,221.646561,74.353485,832.185425,182.347458,100.925545,831.542297,212.5867,151.010361,830.782898,264.02533,115.393074,830.205566,175.407486,102.076378,734.630432,217.853592,163.929428,737.002563,266.303711,119.307236,737.137146,224.521667,65.533722,737.802856,228.267319,-406.454376,846.478149,226.798416,-479.286377,844.971313,307.430786,-478.06485,845.570129,306.835449,-407.789368,846.276733,223.545303,-399.893677,741.731873,222.895233,-480.909485,738.744385,315.798523,-479.687317,738.943909,313.77301,-401.013123,740.560181
