mbdulkadiroglu/VisualAffordanceDataset/synchronized_frames_3.csv
RealSense_frame,Vicon_frame,Vicon_timestamp,RightHand1:Wrist1_X,RightHand1:Wrist1_Y,RightHand1:Wrist1_Z,RightHand1:Wrist2_X,RightHand1:Wrist2_Y,RightHand1:Wrist2_Z,RightHand1:Wrist3_X,RightHand1:Wrist3_Y,RightHand1:Wrist3_Z,RightHand1:Thumb1_X,RightHand1:Thumb1_Y,RightHand1:Thumb1_Z,RightHand1:Thumb2_X,RightHand1:Thumb2_Y,RightHand1:Thumb2_Z,RightHand1:Thumb3_X,RightHand1:Thumb3_Y,RightHand1:Thumb3_Z,RightHand1:IndexFinger1_X,RightHand1:IndexFinger1_Y,RightHand1:IndexFinger1_Z,RightHand1:IndexFinger2_X,RightHand1:IndexFinger2_Y,RightHand1:IndexFinger2_Z,RightHand1:IndexFinger3_X,RightHand1:IndexFinger3_Y,RightHand1:IndexFinger3_Z,Realsense:Camera1_X,Realsense:Camera1_Y,Realsense:Camera1_Z,Realsense:Camera2_X,Realsense:Camera2_Y,Realsense:Camera2_Z,Realsense:Camera3_X,Realsense:Camera3_Y,Realsense:Camera3_Z,LeftHand1:IndexFinger1_X,LeftHand1:IndexFinger1_Y,LeftHand1:IndexFinger1_Z,LeftHand1:IndexFinger2_X,LeftHand1:IndexFinger2_Y,LeftHand1:IndexFinger2_Z,LeftHand1:IndexFinger3_X,LeftHand1:IndexFinger3_Y,LeftHand1:IndexFinger3_Z,LeftHand1:Thumb1_X,LeftHand1:Thumb1_Y,LeftHand1:Thumb1_Z,LeftHand1:Thumb2_X,LeftHand1:Thumb2_Y,LeftHand1:Thumb2_Z,LeftHand1:Thumb3_X,LeftHand1:Thumb3_Y,LeftHand1:Thumb3_Z,LeftHand1:Wrist1_X,LeftHand1:Wrist1_Y,LeftHand1:Wrist1_Z,LeftHand1:Wrist2_X,LeftHand1:Wrist2_Y,LeftHand1:Wrist2_Z,LeftHand1:Wrist3_X,LeftHand1:Wrist3_Y,LeftHand1:Wrist3_Z,LeftHand1:Wrist4_X,LeftHand1:Wrist4_Y,LeftHand1:Wrist4_Z,CerealBox:Corner1_X,CerealBox:Corner1_Y,CerealBox:Corner1_Z,CerealBox:Corner2_X,CerealBox:Corner2_Y,CerealBox:Corner2_Z,CerealBox:Corner3_X,CerealBox:Corner3_Y,CerealBox:Corner3_Z,CerealBox:Corner4_X,CerealBox:Corner4_Y,CerealBox:Corner4_Z,CerealBox:Corner5_X,CerealBox:Corner5_Y,CerealBox:Corner5_Z,CerealBox:Corner6_X,CerealBox:Corner6_Y,CerealBox:Corner6_Z,CerealBox:Corner7_X,CerealBox:Corner7_Y,CerealBox:Corner7_Z,CerealBox:Corner8_X,CerealBox:Corner8_Y,CerealBox:Corner8_Z
00060_color_1715713630.476656.png,739,1715713630.481143,518.491943,1236.785034,1139.260254,477.709595,1266.685547,1097.959106,515.882019,1293.001953,1128.584473,570.221985,1265.808716,1140.350342,598.468994,1238.472046,1147.915771,612.084473,1203.95459,1154.18689,574.325317,1181.284302,1146.463379,595.133301,1168.900391,1126.608521,616.360413,1166.385498,1102.781372,192.367554,961.809875,1491.768188,243.326797,947.658813,1512.383789,297.280731,958.076233,1496.608276,33.630215,-29.665531,761.278137,64.207314,-21.30409,755.571106,85.274429,-14.983861,750.074036,-26.944448,-86.911285,762.920166,5.460943,-95.042107,757.403381,39.173019,-97.971512,750.275146,-15.384658,-27.181671,769.789551,-34.827171,-1.033939,759.866699,-65.806313,-25.509731,767.047791,-126.95417,-41.510967,778.155151,538.891663,-340.505188,741.407104,525.374023,-424.460297,739.874817,348.599243,-407.726044,740.146545,363.076538,-323.528046,741.538391,535.590271,-346.469421,1007.939575,526.060608,-436.107483,1005.71814,350.251343,-410.846069,1004.209656,359.610107,-322.972656,1007.291565
00061_color_1715713630.510728.png,742,1715713630.511143,529.0896,1229.54541,1141.130005,488.413025,1261.276001,1100.486694,528.219482,1286.098145,1130.437866,581.67218,1257.038208,1141.466797,609.251648,1228.823975,1148.341309,621.87616,1193.876953,1154.202637,582.985535,1172.593994,1146.564941,603.318604,1159.517334,1126.729492,624.680481,1157.41333,1101.799927,192.392578,961.784912,1491.760254,243.346741,947.635681,1512.376953,297.224121,957.988159,1496.63623,33.642502,-29.685591,761.278503,64.100502,-21.539555,755.42511,85.283302,-14.979662,750.077942,-26.958096,-86.892036,762.944702,5.460163,-95.021729,757.437134,39.177429,-97.989395,750.252686,-15.383761,-27.184273,769.7948,-34.835735,-1.055953,759.868347,-65.818634,-25.539165,767.045959,-126.944077,-41.58419,778.133789,539.003723,-340.393066,741.384094,525.366638,-424.438446,739.849976,348.587463,-407.715302,740.159302,363.070801,-323.515259,741.530273,535.694702,-346.193146,1007.935425,526.244995,-436.060669,1005.642639,350.297272,-410.674255,1004.212952,359.67691,-322.707153,1007.358521
00062_color_1715713630.544761.png,745,1715713630.541143,537.718445,1221.616089,1143.472778,498.434113,1255.431519,1103.194702,539.058655,1278.302002,1133.679688,591.352966,1246.731445,1144.324951,617.79895,1217.36377,1150.957764,628.924683,1181.852661,1156.510132,589.08252,1162.200195,1148.764282,609.458801,1148.848633,1128.766357,625.422119,1132.462891,1107.710083,192.396683,961.756348,1491.750244,243.355209,947.602844,1512.367188,297.303711,958.056702,1496.587891,33.653122,-29.683544,761.271423,64.180069,-21.496416,755.365234,85.279991,-14.9521,750.07019,-26.959244,-86.884842,762.937622,5.439736,-94.984177,757.515686,39.191837,-97.97905,750.242188,-15.377036,-27.213184,769.773865,-34.836563,-1.044573,759.872803,-65.823418,-25.550623,767.045898,-126.958504,-41.631779,778.104736,539.00592,-340.385101,740.890503,525.414612,-424.435852,739.757446,348.598053,-407.614777,740.46875,363.119781,-323.466492,741.508606,536.531433,-344.946899,1007.637512,526.928406,-434.974792,1005.883667,351.138855,-409.55011,1004.645447,360.519897,-322.089691,1006.965027
00063_color_1715713630.578715.png,749,1715713630.581143,547.851929,1209.681885,1146.78772,511.6409,1246.151489,1106.218872,552.947144,1266.110962,1137.398682,602.875427,1231.529297,1148.442627,627.370056,1200.510132,1155.273193,636.022583,1164.325439,1160.821411,595.283936,1147.115723,1152.576904,614.272827,1132.370239,1132.993774,635.962463,1128.398071,1108.201782,192.390762,961.763123,1491.749756,243.338898,947.64032,1512.367554,297.237152,958.051697,1496.564575,33.646076,-29.658768,761.282043,64.231857,-21.498812,755.333313,85.282181,-14.951342,750.0672,-27.005287,-86.767479,763.083496,5.465294,-94.850243,757.620667,39.199478,-97.955849,750.247925,-15.387699,-27.181007,769.782837,-34.828575,-1.036125,759.864441,-65.846092,-25.539383,767.06366,-126.95536,-41.66153,778.102051,539.059204,-340.272949,740.638855,525.387695,-424.285248,740.199219,348.648987,-407.402435,740.658142,363.081604,-323.371643,740.995728,536.432129,-342.506866,1007.464783,526.470947,-432.02655,1006.3797,350.999664,-407.253052,1004.873291,360.352905,-319.745209,1006.418091
00064_color_1715713630.612704.png,752,1715713630.611143,555.153503,1199.621216,1147.311279,520.902649,1237.867798,1106.887085,562.567383,1255.791626,1138.549927,611.258606,1218.638672,1149.656494,634.021973,1186.750244,1156.724731,640.721863,1150.198853,1162.268188,599.677856,1134.889771,1153.767578,618.55835,1119.168335,1134.120117,639.738159,1114.066528,1109.868286,192.383926,961.774719,1491.759399,243.416107,947.466797,1512.336304,297.285309,958.070557,1496.577393,33.635208,-29.633768,761.285828,64.214836,-21.531363,755.295288,85.279846,-14.94441,750.071045,-26.938271,-86.762215,763.041382,5.440704,-94.654915,757.808716,39.20042,-97.943062,750.254333,-15.403985,-27.159327,769.800049,-34.856186,-1.024138,759.866028,-65.862183,-25.528574,767.047485,-126.965042,-41.663136,778.080139,539.002808,-340.210846,740.664612,525.301208,-424.213379,740.739563,348.611572,-407.318512,740.701416,363.029999,-323.319794,740.499512,535.646606,-340.782196,1007.65564,525.835022,-430.166931,1006.880188,350.407959,-405.60437,1004.895203,359.780151,-317.817505,1006.100525
00065_color_1715713630.646971.png,756,1715713630.651143,563.411987,1185.082886,1145.347412,533.649048,1224.658203,1104.094727,577.579712,1239.286743,1135.226318,620.697632,1200.630859,1147.982422,642.947571,1166.527344,1154.376709,647.605469,1129.692627,1160.032959,605.731262,1116.730469,1151.206421,623.306763,1099.65979,1131.484375,644.576599,1094.348999,1107.080811,192.381302,961.763733,1491.752563,242.770081,945.031311,1511.578369,297.274628,957.21228,1495.66394,33.642918,-29.622633,761.310608,64.239006,-21.517677,755.276428,85.295166,-14.9237,750.065796,-26.937155,-86.600784,763.179077,5.46216,-94.519936,757.955627,39.227249,-97.897858,750.278381,-15.399908,-27.150709,769.799805,-34.83939,-0.976276,759.875732,-65.850174,-25.521679,767.029114,-126.947968,-41.637276,778.091003,539.061157,-340.155518,740.36499,525.340454,-424.162781,740.83252,348.64978,-407.228577,740.959106,363.055389,-323.251709,740.382385,536.271729,-339.53595,1007.333252,526.188782,-428.93335,1006.850586,350.786224,-404.289886,1005.151367,360.144623,-317.178375,1005.424011
00066_color_1715713630.681075.png,759,1715713630.681143,569.86377,1172.350952,1141.28833,543.579407,1213.211426,1099.480591,584.789429,1226.57019,1133.039185,629.695129,1184.391724,1143.328735,649.267395,1149.662354,1150.506592,652.024475,1112.746582,1156.23584,609.917603,1101.418091,1146.284912,627.476379,1084.547852,1126.343262,647.984192,1075.742798,1103.596191,192.388779,961.759888,1491.766479,242.773346,945.052246,1511.598267,296.67572,958.193298,1495.565063,33.665497,-29.592783,761.345398,64.252319,-21.523518,755.281677,85.311035,-14.921824,750.058655,-26.779774,-87.01516,762.685547,5.482483,-94.53508,757.928467,39.247353,-97.904213,750.271179,-15.399524,-27.13378,769.824341,-34.844582,-0.978773,759.874329,-65.843918,-25.489649,767.012878,-126.936241,-41.605461,778.088745,539.109619,-340.14032,740.2146,525.360901,-424.157379,740.654114,348.706909,-407.210419,741.049683,363.079346,-323.257568,740.443298,536.747131,-339.299408,1007.344849,526.585449,-429.017761,1006.690002,351.165131,-404.250458,1005.19397,360.508392,-317.174561,1005.51178
00067_color_1715713630.715154.png,762,1715713630.711143,580.19519,1156.390259,1133.612671,553.901184,1199.964966,1093.384399,595.822327,1211.077881,1127.280029,637.330444,1167.225586,1138.715698,655.770142,1131.376465,1145.124023,656.653503,1094.335815,1150.657593,614.466064,1084.881104,1139.977295,631.28894,1066.523804,1120.356079,651.971985,1058.82019,1096.887695,192.384552,961.756592,1491.752319,242.773392,945.057678,1511.604492,297.209839,957.2854,1495.682007,33.676708,-29.544678,761.373718,64.293762,-21.497541,755.295166,85.369431,-14.890421,750.02655,-26.723085,-86.934425,762.706299,5.519091,-94.416893,757.97821,39.306538,-97.802261,750.299744,-15.410308,-27.055958,769.821716,-34.85326,-0.886298,759.855469,-65.851158,-25.416603,766.980652,-126.898781,-41.519176,778.071655,539.115967,-340.113831,740.222656,525.344238,-424.159363,740.830444,348.689545,-407.184601,741.024658,363.078339,-323.22644,740.271729,536.615479,-338.787109,1007.305603,526.40271,-428.431976,1006.779785,351.010284,-403.730286,1005.185364,360.428406,-315.86261,1006.038757
00068_color_1715713630.749263.png,766,1715713630.751143,590.839966,1134.36792,1125.121826,567.627563,1179.122803,1084.596313,610.737854,1187.587646,1118.367676,649.711243,1141.819824,1129.889038,666.571228,1104.983765,1136.03418,665.628723,1068.077637,1140.959106,622.477478,1060.421997,1130.118042,639.948303,1042.532959,1110.287231,659.621704,1033.411133,1086.856079,192.31192,961.711731,1491.738647,242.694183,945.018799,1511.612061,297.173218,957.192993,1495.6875,33.761658,-29.466633,761.404297,64.373253,-21.399488,755.324524,85.463455,-14.786621,750.011475,-26.62302,-86.887901,762.723206,5.680074,-94.275635,758.093689,39.46928,-97.684731,750.321838,-15.350539,-27.037668,769.832764,-34.831467,-0.851836,759.846497,-65.783348,-25.416224,766.948364,-126.832947,-41.50758,778.048889,539.085754,-340.091492,740.235596,525.346069,-424.109589,741.157043,348.670258,-407.138428,741.014587,363.082001,-323.163727,740.021912,535.702637,-338.800812,1006.701721,526.070129,-427.483246,1007.074585,350.670227,-402.800049,1005.155579,359.97522,-315.79187,1004.976868
00069_color_1715713630.783175.png,769,1715713630.781143,600.284241,1115.317017,1118.587402,577.656738,1161.019653,1078.686157,621.805359,1168.042114,1111.873291,659.438843,1121.695068,1123.203369,676.792725,1083.762939,1128.259521,674.083313,1047.50415,1133.230225,631.864014,1042.045532,1122.487549,647.999451,1022.576782,1102.501099,667.496155,1013.103577,1079.382935,192.173752,961.685974,1491.738892,242.583344,945.016357,1511.658325,297.189423,957.339417,1495.624878,33.841854,-29.329233,761.458984,64.451141,-21.277456,755.339966,85.546455,-14.684702,750.011597,-26.527824,-86.771896,762.799744,5.857479,-94.124886,758.117859,39.623268,-97.506271,750.353027,-15.3156,-26.948404,769.854065,-34.807442,-0.763618,759.821594,-65.757553,-25.320753,766.924622,-126.762001,-41.473236,778.012817,539.002869,-340.045105,740.487122,525.325684,-424.176422,741.750671,348.60791,-407.105072,740.972168,363.064972,-323.08847,739.684448,535.112122,-337.419525,1007.156982,525.21405,-426.661133,1007.697205,349.771912,-401.730133,1005.06604,359.181976,-314.871277,1004.586121
00070_color_1715713630.817180.png,773,1715713630.821143,612.991333,1087.98999,1113.677612,589.782227,1134.696533,1074.724731,634.406616,1141.006104,1107.329468,671.989075,1094.013794,1117.414307,687.802979,1057.003296,1122.275757,686.545166,1019.633423,1126.161377,644.104736,1014.767029,1115.728516,659.770325,995.571228,1095.102661,678.344238,985.913635,1071.568604,192.268723,961.659668,1491.7323,242.679794,944.960022,1511.612427,297.194702,957.135071,1495.687744,34.004353,-29.183304,761.517395,64.607048,-21.148491,755.384705,85.731056,-14.529328,750.007751,-26.364386,-86.712624,762.788879,6.060957,-94.294601,757.895691,39.867786,-97.300865,750.385681,-15.184792,-26.879011,769.872192,-34.726025,-0.701355,759.806946,-65.686066,-25.266544,766.90564,-126.640305,-41.505417,777.960632,538.765259,-340.11731,741.284607,525.179138,-424.208893,742.893066,348.490845,-407.093231,740.638062,362.96759,-322.992889,739.096558,532.618835,-336.359558,1007.97522,523.375183,-425.192322,1008.121277,347.532318,-400.750916,1004.754211,356.949585,-313.118073,1004.285828
00071_color_1715713630.851143.png,776,1715713630.851143,621.689209,1067.670776,1113.019775,597.519714,1114.702881,1074.924927,641.771057,1121.25,1107.803101,679.82959,1073.904785,1117.531616,695.627441,1036.897461,1122.375122,694.312378,999.498718,1126.22522,652.250671,994.616394,1115.676025,666.621399,973.700317,1095.642944,685.919312,966.038879,1071.645386,192.279465,961.738159,1491.75061,242.703827,945.055237,1511.646729,297.264648,957.218628,1495.728516,34.100666,-29.083559,761.571106,64.706131,-21.044285,755.445007,85.860741,-14.414176,750.018494,-26.240387,-86.693207,762.808044,6.14379,-94.294685,757.88324,40.046173,-97.208122,750.373291,-14.988831,-26.8804,769.841003,-34.611469,-0.70292,759.779175,-65.59771,-25.258575,766.893738,-126.537514,-41.558792,777.931824,537.459473,-340.176941,741.746521,524.461426,-423.78244,743.759766,347.843567,-407.209686,740.45636,361.960419,-322.943848,738.703064,530.355591,-334.808838,1008.730042,520.538818,-421.114655,1007.690552,345.171936,-399.864502,1004.377625,354.282776,-312.888,1003.417603
00072_color_1715713630.885033.png,779,1715713630.881143,628.803284,1047.840332,1115.100342,603.80542,1094.942505,1077.182495,648.086487,1101.784058,1109.967529,686.416138,1054.415283,1119.633423,702.168579,1017.449524,1124.637085,700.778564,980.230469,1128.96521,658.517395,975.744568,1118.130249,672.881226,953.843811,1098.569214,692.240784,945.802185,1074.785645,192.251221,961.745178,1491.738892,242.665085,945.068298,1511.64624,297.221008,957.298401,1495.668701,34.191189,-29.002983,761.636719,64.722778,-20.945702,755.554199,85.930634,-14.342654,750.023987,-26.212032,-86.443542,763.075928,6.483998,-94.533882,757.539612,40.192677,-97.144226,750.37207,-14.909685,-26.782694,769.916809,-34.573803,-0.669645,759.795593,-65.552773,-25.280981,766.861511,-126.447006,-41.636864,777.929382,535.184265,-338.759155,742.19635,522.437744,-422.467285,743.961975,345.746948,-407.48703,740.306396,359.365479,-323.066254,738.473511,526.799255,-333.859497,1008.691528,517.847046,-421.476776,1009.010803,342.398895,-399.665497,1004.267944,350.942596,-312.622772,1003.156433
00073_color_1715713630.918875.png,783,1715713630.921143,633.809021,1023.023987,1122.527222,609.143188,1069.431885,1083.962524,654.47522,1076.486572,1114.933228,693.556702,1028.630859,1122.865479,709.433228,991.884521,1127.284546,708.978394,954.116699,1131.45166,665.850159,949.947144,1122.242065,679.233032,927.907349,1102.202515,697.639282,920.181274,1077.545044,192.311264,961.743286,1491.761719,243.246063,947.21814,1512.425537,296.305969,957.495178,1496.413574,34.247292,-29.016289,761.663574,64.841225,-20.718105,755.739746,85.988579,-14.235044,750.112793,-26.16082,-86.453201,763.062012,6.388348,-94.454941,757.656372,40.251286,-97.138451,750.357544,-14.897247,-26.798603,769.953552,-34.569271,-0.689143,759.819763,-65.54866,-25.316313,766.88678,-126.425919,-41.776943,777.924866,530.060486,-337.47879,741.887451,518.044128,-421.341431,743.743286,341.094849,-407.477417,740.342407,354.102295,-322.98996,738.531311,522.468628,-332.379608,1008.454346,514.341187,-421.651825,1009.262573,338.236328,-399.830597,1004.371765,346.14917,-312.719147,1003.120789
00074_color_1715713630.952442.png,786,1715713630.951143,635.944153,1004.491089,1128.877075,611.172424,1052.307983,1091.311035,657.468079,1058.189941,1121.130371,695.494873,1009.176636,1128.201172,710.841309,972.13385,1131.74353,709.705505,935.029114,1135.429199,666.873047,930.667419,1126.950195,679.575806,911.831909,1105.869141,696.455994,900.646545,1081.278687,192.328537,961.717651,1491.752808,243.273911,947.36145,1512.408813,297.21048,957.857178,1496.359253,34.223541,-29.016216,761.670471,64.83078,-20.707644,755.758972,86.0373,-14.104824,750.290955,-26.185869,-86.607147,762.88916,6.470947,-94.538689,757.583496,40.250011,-97.121025,750.359192,-14.917525,-26.857603,769.930176,-34.568916,-0.72417,759.80426,-65.562431,-25.337536,766.885071,-126.419258,-41.829769,777.907166,525.820312,-337.3638,741.981567,513.59967,-421.098236,743.717773,336.718994,-407.030304,740.237305,349.934021,-322.492035,738.510376,518.014465,-332.210388,1008.581787,509.778931,-421.718903,1009.482483,333.74707,-399.37027,1004.39978,341.728851,-312.010223,1003.213379
00075_color_1715713630.986454.png,790,1715713630.991143,634.511292,982.626648,1137.962402,612.419922,1032.625122,1101.459473,659.563965,1035.4104,1131.115356,693.925476,984.019531,1138.478516,707.258728,946.089478,1141.960449,705.121033,908.757568,1144.881104,659.989197,907.448547,1136.772583,672.058838,887.23175,1115.508301,688.605347,874.283508,1091.455444,192.300934,961.751099,1491.750366,243.276123,947.545654,1512.393311,297.17627,957.993835,1496.454712,34.232552,-29.016438,761.694946,64.849609,-20.724688,755.75531,86.048851,-14.094346,750.286987,-26.200937,-86.77652,762.731262,6.40966,-94.530472,757.568054,40.262386,-97.118073,750.353455,-14.905673,-26.840313,769.958374,-34.549431,-0.732715,759.815613,-65.573189,-25.372976,766.900452,-126.405243,-41.863911,777.907715,519.150391,-337.999115,741.848328,506.314941,-421.73819,743.522217,329.576233,-406.195129,740.265442,343.315765,-321.841095,738.375732,511.55484,-332.654266,1008.637756,502.42041,-422.137207,1009.316772,326.657227,-398.407684,1004.20929,335.362885,-311.414551,1003.084167
00076_color_1715713631.019749.png,793,1715713631.021143,632.560913,967.227661,1143.49353,612.730408,1018.682373,1107.735474,660.231934,1019.103271,1137.362915,691.957397,965.996399,1145.009399,702.521484,928.077026,1148.942749,698.522522,890.924622,1151.903076,654.584351,890.615295,1142.348267,665.186768,869.843994,1121.875488,681.125793,855.917603,1097.851562,192.346588,961.761108,1491.762207,243.312546,947.62146,1512.391479,297.187408,957.993225,1496.596558,34.260975,-28.99062,761.73407,64.982613,-20.449045,756.079224,86.023491,-14.205953,750.145752,-26.185902,-86.766273,762.711731,6.256978,-94.272255,757.847778,40.305588,-97.108871,750.353149,-14.874237,-26.815683,770.014587,-34.507717,-0.700806,759.845581,-65.55938,-25.353912,766.907227,-126.394691,-41.879322,777.930237,513.234192,-338.824249,741.700073,500.003876,-422.040375,743.505859,323.448395,-405.497742,740.122131,337.770264,-321.280487,738.421692,505.836792,-332.895844,1008.74353,495.719269,-421.587616,1009.010559,320.515686,-398.034485,1004.131104,329.65155,-310.981567,1002.994324
00077_color_1715713631.053663.png,796,1715713631.051143,631.475708,951.808472,1147.383667,613.476135,1004.458435,1112.347046,659.967773,1007.483704,1139.298096,690.752869,948.282043,1148.136963,700.613464,909.822083,1151.168457,694.716431,873.153625,1154.239136,650.161621,874.361084,1145.509155,659.231506,853.19397,1124.897827,674.446289,838.280823,1100.337646,192.357834,961.748718,1491.752197,243.298584,947.612549,1512.391968,296.203918,957.48877,1496.673706,34.298058,-28.94384,761.755981,64.97023,-20.496201,755.961182,86.019348,-14.210405,750.047119,-26.112362,-86.772697,762.739807,6.404222,-94.385582,757.692688,40.375187,-97.069244,750.35376,-14.835438,-26.777508,770.047974,-34.508488,-0.703122,759.852661,-65.523323,-25.377817,766.913086,-126.342476,-41.909866,777.969177,506.980408,-338.541595,741.892212,493.306427,-422.145508,743.616699,316.806427,-405.034973,739.936157,331.374146,-320.70517,738.39209,499.077454,-333.391327,1008.771667,488.949951,-422.189056,1009.041931,313.660248,-397.603546,1003.958557,323.052826,-310.751038,1002.994873
00078_color_1715713631.087410.png,800,1715713631.091143,631.701111,930.431885,1148.66748,615.09845,985.225281,1115.221436,662.096313,982.322144,1143.084961,689.482117,924.791504,1147.821533,697.885559,885.73822,1149.943848,690.050537,849.905518,1152.895996,644.403076,852.74823,1145.939087,651.740112,831.093628,1124.697632,664.817322,815.392395,1099.520874,192.339828,961.763062,1491.765381,243.311783,947.604614,1512.389893,297.097107,957.958313,1496.605591,34.413113,-28.704845,762.043579,65.042503,-20.480213,755.941345,86.102646,-14.164407,750.069397,-25.985867,-86.822823,762.697144,6.44149,-94.419365,757.625732,40.498436,-97.028305,750.322693,-14.77093,-26.790163,770.087341,-34.410122,-0.723806,759.885681,-65.449638,-25.466793,766.956116,-126.23867,-42.078018,777.989685,497.517273,-338.700897,741.995178,483.906647,-421.969635,743.634888,307.479065,-404.582855,739.740234,322.180634,-320.164673,738.253296,488.962219,-334.226288,1008.610596,479.324554,-423.015198,1009.274109,303.683075,-397.322754,1003.700256,313.388184,-310.469391,1002.80835
00079_color_1715713631.121349.png,803,1715713631.121143,630.650391,916.055481,1147.559082,615.923279,971.914917,1114.779541,662.700195,967.193054,1142.38623,687.901978,908.02417,1146.066528,695.24353,868.182556,1147.119995,685.974365,832.988586,1150.505127,640.438416,837.757141,1144.040161,645.650696,815.890869,1123.003662,657.820374,799.847046,1097.651123,192.3582,961.764038,1491.758667,243.322433,947.606262,1512.390991,296.204742,957.495056,1496.681885,34.395542,-28.50552,762.282532,65.015594,-20.463348,755.952515,86.080452,-14.164268,750.086975,-25.995136,-86.836403,762.68512,6.492802,-94.497269,757.53949,40.484318,-97.042313,750.339233,-14.765317,-26.830099,770.089111,-34.420753,-0.749316,759.89032,-65.468224,-25.505322,766.969238,-126.255753,-42.151196,778.005554,490.350067,-338.09967,742.200256,476.357513,-421.779572,743.65155,299.962799,-404.10672,739.530396,314.764404,-319.814301,738.067078,481.238922,-333.614136,1009.043701,471.159729,-421.934296,1009.078247,295.916504,-396.962189,1003.493774,305.686249,-310.041718,1002.695557
00080_color_1715713631.155370.png,806,1715713631.151143,630.242798,903.295593,1145.783813,617.412231,959.517456,1112.887451,664.246521,952.973694,1139.86731,686.623535,892.840942,1143.174072,692.343079,852.828857,1144.500854,680.23999,818.205078,1148.679077,636.362183,824.524231,1142.537964,641.132996,805.480469,1121.574463,651.10614,787.179932,1095.275757,192.351852,961.768555,1491.757324,243.31041,947.611938,1512.389771,297.146271,958.010071,1496.596924,34.308136,-28.620691,762.103027,64.970154,-20.511173,755.950745,86.048401,-14.172148,750.105164,-26.038855,-86.817535,762.704224,6.447108,-94.590111,757.406433,40.429958,-96.691475,750.69812,-14.798186,-26.809975,770.084167,-34.441208,-0.755966,759.885132,-65.49836,-25.488749,766.968811,-126.28479,-42.079357,778.007812,482.255219,-337.176636,742.024963,468.519348,-421.058929,743.651733,291.990448,-403.780762,739.487915,306.546936,-319.378845,738.000122,473.284485,-333.061615,1008.493286,463.464722,-421.095673,1008.779663,288.295074,-396.736847,1003.535278,297.647217,-309.708557,1002.61261
00081_color_1715713631.193915.png,810,1715713631.191143,631.322205,888.455627,1143.021973,620.917603,945.045715,1109.999756,668.629333,934.717651,1135.140137,688.092957,873.255432,1137.863281,689.969116,833.59259,1140.179565,677.140381,799.236328,1144.005005,632.34613,810.986267,1139.878784,633.176941,785.52948,1119.010376,643.524292,770.203735,1092.659424,192.37558,961.761108,1491.760498,243.319763,947.606506,1512.384033,297.123138,957.965332,1496.615845,34.222134,-28.656353,762.062683,64.880333,-20.534845,755.929565,85.974846,-14.232754,750.132996,-26.137028,-86.82872,762.716553,6.357016,-94.593117,757.414368,40.294868,-97.049355,750.363586,-14.855191,-26.817526,770.055481,-34.258675,-1.171584,759.706726,-65.525215,-25.465292,766.931519,-126.052887,-42.58308,778.009399,470.854401,-335.202454,742.127808,457.986481,-419.083069,743.40155,281.281189,-403.554291,739.243774,295.059143,-318.957153,737.944702,461.767822,-331.560608,1008.628723,452.88031,-420.835815,1009.057617,277.090027,-397.129333,1003.161926,285.669586,-310.038177,1002.542114
00082_color_1715713631.232742.png,814,1715713631.231143,633.487671,875.998413,1139.85498,626.71344,933.450073,1107.170532,674.133911,919.332275,1131.366577,688.972107,856.243042,1133.0896,687.287048,817.313965,1136.201294,672.372681,784.432739,1139.950928,627.723938,797.998047,1135.734253,628.382996,774.572449,1115.359619,635.473633,758.114197,1088.820679,192.368042,961.768311,1491.768066,243.327072,947.606506,1512.380737,297.154419,957.968018,1496.602417,33.959354,-28.287781,762.153259,64.912041,-20.908171,755.894409,85.937576,-14.355331,750.130798,-26.197212,-86.801643,762.718994,6.137689,-94.539108,757.545044,40.207478,-96.955002,750.52417,-14.698771,-27.039972,769.742432,-34.847633,-0.160839,759.854126,-65.429909,-25.419952,766.707886,-126.417206,-41.586964,777.917175,458.374298,-333.558777,742.28363,446.273254,-418.925354,743.923889,269.15155,-403.130524,738.957214,282.524475,-318.421539,737.932739,448.621582,-330.105957,1009.247192,440.181122,-419.010162,1008.769653,264.582794,-397.197205,1002.956299,272.717712,-310.017151,1002.59021
00083_color_1715713631.268342.png,818,1715713631.271143,637.420532,866.022339,1137.081299,634.665466,924.417053,1105.477295,681.384827,905.613342,1128.418457,690.493958,841.757202,1129.766235,685.822998,802.510986,1131.803467,667.768188,769.024597,1135.169922,624.495361,787.399658,1133.704834,622.728699,766.289307,1112.085327,628.028931,749.901123,1085.026978,192.375763,961.775208,1491.763428,243.32695,947.61731,1512.379761,297.190979,957.990784,1496.609985,33.86253,-28.329254,762.135315,64.672546,-20.601633,755.981812,85.799988,-14.248357,750.154724,-26.18148,-87.047035,762.595764,6.022824,-93.928444,757.892578,39.947895,-97.142609,750.292664,-15.233232,-26.517813,770.159485,-34.993752,-0.086925,759.908264,-65.490013,-25.402243,766.688599,-126.496407,-41.494503,777.947205,445.210358,-332.274628,742.143311,433.571503,-417.531006,743.716309,256.392731,-402.865997,738.715088,269.244598,-318.090057,737.657654,435.641449,-329.146851,1008.824951,427.657532,-418.713867,1008.669128,251.656235,-397.008026,1002.772949,259.342072,-309.84021,1002.341125
00084_color_1715713631.303612.png,821,1715713631.301143,641.447876,859.466309,1136.553589,641.77063,918.720215,1106.228027,687.936523,896.136353,1127.765015,692.774414,831.774902,1127.870728,685.554688,792.823181,1129.322144,665.637451,761.104187,1132.543579,622.539551,782.782166,1132.696533,619.294006,761.217285,1110.876221,622.859741,743.340454,1083.925171,192.375946,961.774841,1491.773804,243.336853,947.613464,1512.382446,296.252197,957.516113,1496.679321,33.808865,-28.299603,762.16626,64.618713,-20.617424,756.002014,85.742088,-14.219755,750.178528,-26.256453,-86.949211,762.665344,5.901695,-94.102585,757.537415,39.857101,-97.096161,750.317505,-15.323337,-26.319683,770.278198,-35.000393,-0.068129,759.909302,-65.527672,-25.314671,766.720642,-126.556351,-41.358753,778.0,434.315277,-331.382568,741.967773,422.958252,-415.081879,743.072205,246.018677,-402.473694,738.6297,258.495087,-317.715149,737.588989,424.567596,-328.608032,1008.635254,417.306824,-418.105682,1008.807556,241.135513,-397.130035,1002.692932,248.443588,-309.789459,1002.175598
00085_color_1715713631.338002.png,825,1715713631.341143,647.558716,852.000793,1138.387451,653.555237,911.222168,1108.95459,697.085999,884.771912,1130.800903,696.098083,820.152893,1129.749878,685.492249,782.087952,1130.232788,663.005798,752.689575,1133.034424,622.83313,777.851379,1133.272949,615.530334,756.522766,1112.655151,616.625732,738.252625,1086.03772,192.418381,961.744385,1491.750732,243.351685,947.596741,1512.372925,297.139465,957.975891,1496.568848,33.77776,-28.351337,762.131165,64.572449,-20.655403,755.975647,85.692451,-14.269115,750.188965,-26.502237,-86.355415,763.215942,5.812005,-94.082138,757.541504,39.75967,-97.089233,750.327515,-15.412822,-26.407227,770.229248,-34.734337,-0.244777,759.978027,-65.547546,-25.27619,766.713501,-126.563904,-41.221157,778.058411,420.006683,-330.014374,741.971436,408.757385,-413.953796,743.08551,231.787506,-402.208984,738.364441,243.839081,-317.442871,737.282104,410.020203,-326.97879,1008.52417,402.764832,-416.398254,1008.629333,226.55542,-396.583313,1002.525085,233.565628,-309.041992,1001.888062
00086_color_1715713631.372211.png,828,1715713631.371143,652.498474,847.184937,1142.107422,662.145813,905.932068,1113.273682,703.922363,877.08606,1135.516235,699.124146,812.680786,1134.375854,686.455261,776.111145,1135.06665,662.31842,747.190369,1136.953125,623.091187,774.841797,1137.438965,614.383789,753.755432,1117.275269,613.961914,734.825134,1091.026367,192.405869,961.742493,1491.765137,243.374496,947.580322,1512.372925,296.311951,957.506409,1496.682007,33.72353,-28.34,762.132996,64.531799,-20.645004,755.981445,85.64901,-14.284332,750.197083,-26.570166,-86.403954,763.127075,5.715688,-94.002357,757.56134,39.68325,-97.081718,750.326782,-15.361242,-26.457779,770.073425,-34.844578,-0.195428,759.887878,-65.61393,-25.120279,766.792908,-126.596939,-40.986355,778.09845,408.983917,-329.460052,742.278748,397.845795,-413.623413,743.417175,220.78717,-401.987366,738.176697,232.940125,-317.081787,737.075195,398.184326,-325.943024,1008.937256,390.702271,-414.767853,1008.782837,214.920624,-396.089203,1002.221375,221.717346,-308.652039,1001.538513
00087_color_1715713631.406497.png,832,1715713631.411143,659.907288,839.767334,1149.144897,671.853516,898.095093,1120.897705,712.499878,867.404663,1142.632812,705.048767,803.22583,1141.062256,690.68512,764.759155,1140.485229,665.49353,739.428711,1143.609131,627.460388,768.712769,1145.016113,617.385071,747.804016,1125.228027,615.119202,728.868103,1099.588989,192.4207,961.74353,1491.758789,243.391357,947.585144,1512.367798,297.148895,957.935913,1496.591431,33.713974,-28.351002,762.122314,64.527092,-20.678516,755.964905,85.627449,-14.303334,750.193359,-26.614126,-86.361763,763.161743,5.654665,-93.943665,757.575806,39.605194,-97.039207,750.339478,-15.343197,-26.414194,770.075378,-34.828327,-0.141245,759.88855,-65.629471,-24.382925,767.456116,-126.626045,-40.681599,778.126038,394.73175,-328.970703,742.590576,384.117401,-414.540558,744.516541,206.696838,-401.834106,737.873596,218.617798,-317.287598,736.487671,382.58136,-325.198883,1009.223083,375.944794,-414.73291,1009.399658,199.699844,-395.527863,1001.860291,206.353256,-307.957672,1001.090271
00088_color_1715713631.441417.png,835,1715713631.441143,664.593079,833.15271,1153.92688,677.105225,891.920105,1126.650024,717.628296,860.264954,1147.119995,709.123779,796.331543,1144.665161,694.151001,758.256653,1143.841064,668.809448,732.904114,1146.766846,631.035583,762.805664,1149.477905,620.326538,742.271118,1129.909546,617.16095,723.328674,1104.196655,192.419205,961.749512,1491.745483,243.37674,947.604919,1512.373291,297.116425,957.92218,1496.610962,33.668571,-28.353096,762.083313,64.496208,-20.681961,755.966919,85.475739,-14.140933,750.385498,-26.668306,-86.325424,763.178406,5.610595,-93.893356,757.590149,39.530464,-96.9543,750.426147,-15.389196,-26.357445,770.064331,-34.838203,-0.097637,759.903687,-65.830368,-24.112015,767.513184,-126.632843,-40.541149,778.126099,382.41272,-328.537018,742.333313,372.43045,-413.683655,743.899353,195.027969,-401.811188,737.529236,206.376068,-316.651062,736.822998,370.91153,-325.347626,1009.308105,363.945435,-414.339935,1008.710632,188.016602,-396.893433,1001.812317,194.349091,-309.033264,1001.165771
00089_color_1715713631.475099.png,838,1715713631.471143,667.624146,826.551025,1157.860107,680.993713,886.033264,1131.79126,721.09082,853.313477,1151.172607,711.22644,789.296326,1147.285278,695.852173,751.282532,1145.728271,670.131897,726.282471,1148.518066,632.843262,756.783997,1152.534546,621.802795,737.651794,1132.84082,617.290222,718.494385,1106.788818,192.399139,961.763,1491.766235,243.377747,947.608215,1512.375977,296.301086,957.50238,1496.671387,33.652515,-28.36657,762.076843,64.473755,-20.689629,755.975281,85.636398,-14.155606,750.342957,-26.707668,-86.30014,763.172729,5.582193,-93.896492,757.585144,39.49855,-96.854477,750.519836,-15.37663,-26.379398,770.058289,-34.821499,-0.114985,759.896667,-65.721054,-24.285099,767.342651,-126.647072,-40.444611,778.158447,371.37677,-328.22937,741.808228,360.733582,-414.235107,743.140442,183.302032,-400.967865,737.36438,195.130173,-315.60144,736.978821,360.641418,-325.782745,1008.8078,353.416748,-415.018372,1007.8125,177.560577,-396.337006,1001.535278,184.211578,-308.837555,1001.21405
00090_color_1715713631.509098.png,842,1715713631.511143,669.557556,818.919006,1162.153931,685.071655,877.973877,1136.135986,724.156006,843.512634,1155.093994,711.67041,780.047485,1151.634521,694.719238,742.479004,1150.033813,668.064148,718.575806,1152.984741,632.190002,750.499146,1156.861206,618.993103,729.579651,1136.90271,615.006775,712.907043,1111.235962,192.406158,961.75592,1491.770386,243.376663,947.595703,1512.374878,297.281281,957.985168,1496.615601,33.549454,-28.312,762.077393,64.203064,-20.422615,756.277893,85.557045,-14.140659,750.354309,-26.808283,-86.22625,763.229736,5.480919,-93.805496,757.62677,39.236717,-96.553177,750.828979,-15.475354,-26.337864,770.012756,-34.883266,-0.02449,759.885986,-65.744423,-24.163012,767.342407,-126.715332,-40.255177,778.153748,357.08017,-328.680603,741.550659,346.955353,-414.998749,743.711914,169.266434,-400.679413,737.196594,181.061295,-315.609619,736.54425,346.161804,-325.30426,1008.519287,338.749207,-414.197418,1007.887573,162.874588,-395.663452,1001.293518,169.603027,-308.071106,1000.849121
00091_color_1715713631.543114.png,845,1715713631.541143,670.251465,813.306946,1164.696289,687.418823,871.334106,1138.083252,725.548218,835.910339,1157.084717,711.150452,773.299683,1154.832886,693.289612,737.339539,1154.351196,665.726685,713.194519,1156.925659,630.810974,745.818848,1160.316406,617.685181,725.84314,1140.546875,612.85553,708.477356,1114.764893,192.384506,961.770935,1491.779663,243.370102,947.594666,1512.382202,296.304138,957.497681,1496.674927,33.464333,-28.269789,762.087463,64.392944,-20.444496,756.17218,85.456032,-14.164589,750.329468,-26.849146,-86.178398,763.286743,5.403112,-93.730179,757.698181,39.407028,-96.794716,750.484741,-15.540498,-26.255774,770.013611,-34.906693,0.013807,759.876343,-65.801712,-24.087206,767.365173,-126.785858,-40.167252,778.184265,346.286285,-326.821869,742.033813,335.842743,-411.374786,742.55835,158.719406,-400.636688,736.976013,170.316803,-315.375641,736.328796,334.701172,-325.000031,1008.495911,327.812927,-413.932098,1008.364197,151.918091,-395.561554,1000.944519,158.404404,-308.198059,1000.637512
00092_color_1715713631.576957.png,849,1715713631.581143,670.923706,803.96106,1166.316406,689.599792,861.361572,1139.156128,726.839294,824.89917,1157.892822,710.385315,762.984009,1155.892822,691.595032,727.322083,1155.618896,663.135742,704.316223,1158.933716,629.46875,737.739319,1162.436523,615.8797,718.661682,1142.799438,610.409119,700.845093,1116.76123,192.394287,961.774963,1491.768311,243.382919,947.60083,1512.377441,297.138489,957.9151,1496.631226,33.432953,-28.272804,762.053467,64.364883,-20.443707,756.156555,85.43853,-14.147321,750.351746,-26.870277,-86.166885,763.294617,5.401903,-93.730698,757.667114,39.392555,-96.783844,750.479675,-15.555827,-26.249178,770.013062,-34.922783,0.018053,759.868835,-65.842575,-24.111345,767.401123,-126.794907,-40.130714,778.458435,331.244537,-326.578033,741.911987,320.832672,-410.877136,742.430359,143.818832,-399.984528,736.610779,155.448975,-314.520416,736.161865,319.781403,-324.569916,1008.323181,313.217163,-413.874481,1007.74884,136.90799,-395.100677,1000.694763,143.437439,-307.508392,1000.47876
00093_color_1715713631.610909.png,852,1715713631.611143,670.926819,796.410461,1166.023438,690.415405,853.327393,1138.396973,727.164673,816.219421,1156.954956,709.502441,752.609436,1154.657227,689.871399,719.233093,1155.580933,661.033813,696.669067,1159.132324,628.194031,730.977478,1162.794312,614.321838,712.038025,1143.161499,608.395569,694.076294,1117.103882,192.410965,961.769348,1491.769531,243.375336,947.599915,1512.378052,297.158997,957.96106,1496.594727,33.239716,-27.769056,762.603699,64.348793,-20.463121,756.151184,85.417786,-14.183954,750.328735,-26.868034,-86.168541,763.294434,5.198253,-93.555328,757.913635,39.377274,-96.785698,750.515198,-15.547057,-26.273548,769.984863,-34.935074,0.013947,759.863037,-65.847794,-24.150408,767.410339,-126.908272,-40.076515,778.471802,321.59848,-326.655518,741.348816,310.543182,-411.129974,742.342773,133.475372,-399.104736,736.647034,145.597214,-313.808777,735.796631,310.414093,-323.508118,1007.972717,303.124329,-412.910217,1007.510803,126.858604,-393.382141,1000.866272,133.244843,-303.92276,1000.968201
00094_color_1715713631.645165.png,855,1715713631.641143,670.588074,788.952148,1164.589966,690.759583,845.10968,1136.259399,727.049255,807.447632,1154.751709,708.351257,743.781006,1152.89856,688.109009,711.20459,1154.61145,658.678955,687.890686,1158.084839,626.5755,724.055603,1162.176758,612.339966,705.027771,1142.919434,605.828857,687.110474,1117.255493,192.418472,961.74646,1491.753052,243.371231,947.589905,1512.365845,297.126587,957.90686,1496.61499,33.537853,-28.168495,762.111511,64.311302,-20.4785,756.142761,85.364197,-14.172262,750.357117,-26.934378,-86.149185,763.324646,5.446282,-93.606689,757.812744,39.319813,-96.778816,750.50592,-15.625344,-26.236357,770.021973,-34.979942,0.042213,759.867432,-65.893257,-24.11776,767.40863,-127.007988,-40.012184,778.483337,312.802002,-326.253326,741.485535,301.465179,-410.738037,742.722412,124.538239,-398.081116,736.520813,136.897369,-312.801239,735.559204,300.943726,-322.91095,1007.952454,293.077606,-410.712555,1007.557495,117.363472,-391.802643,1000.67627,124.561844,-303.835144,999.777344
00095_color_1715713631.679496.png,859,1715713631.681143,669.5047,777.47998,1160.994019,690.127686,833.704346,1131.310303,725.902649,795.680725,1150.097656,706.522644,733.480225,1149.837646,685.579407,700.335571,1151.755249,655.930237,678.673096,1156.465942,624.687439,712.873657,1159.913818,609.686401,695.221069,1141.239868,602.716248,677.005188,1115.741699,192.400528,961.763306,1491.750244,243.364838,947.612183,1512.376953,296.253845,957.491638,1496.660156,33.390293,-28.197735,762.100708,64.163361,-20.49509,756.182495,85.21608,-14.21236,750.328186,-27.070019,-86.077118,763.415649,5.327577,-93.599792,757.821533,39.135353,-96.830994,750.491089,-15.762638,-26.191002,770.004456,-35.100182,0.069829,759.833374,-66.038803,-24.046358,767.389893,-127.424446,-39.883217,778.664001,301.539825,-324.652039,740.786621,290.336884,-409.242859,741.943481,113.386116,-396.795685,736.462036,125.523209,-311.694366,735.354126,290.168182,-318.993134,1008.312012,282.976227,-409.164398,1006.931213,107.163658,-390.236572,1000.517029,114.261993,-302.589722,999.683228
00096_color_1715713631.715860.png,862,1715713631.711143,668.136963,768.25946,1156.629639,688.944153,824.897583,1127.076172,724.279663,786.905151,1146.187622,704.380493,726.003235,1146.982666,683.334961,691.906616,1148.464355,653.506836,670.732727,1153.650024,622.666687,706.299377,1157.027588,607.460266,687.526917,1138.511963,600.297546,669.252747,1113.172363,192.400253,961.774414,1491.748413,243.357162,947.619995,1512.373535,297.161438,957.982483,1496.599487,33.361637,-28.221668,762.079346,64.11261,-20.508648,756.175354,85.163818,-14.192987,750.351868,-27.110991,-86.05616,763.452026,5.29045,-93.578934,757.840332,39.279476,-96.863045,750.386963,-15.800107,-26.128662,770.026306,-35.093483,0.115832,759.854309,-66.056679,-23.956564,767.416443,-127.272278,-39.4702,778.631653,295.065399,-323.101685,740.541992,284.219421,-407.702179,741.783875,107.061104,-396.201904,736.332031,119.0084,-310.84256,735.220825,283.740662,-318.459137,1007.76886,276.90918,-407.873077,1006.752014,100.964104,-389.574127,1000.35022,107.676315,-301.90448,999.705078
00097_color_1715713631.749846.png,866,1715713631.751143,665.389343,757.691345,1152.964111,686.676086,813.999451,1123.58252,721.848022,775.394531,1142.032227,701.30011,714.271912,1142.244385,679.532959,679.652954,1143.277466,649.763733,659.66571,1148.73291,619.488159,695.141113,1153.270874,604.000183,677.055237,1134.142578,596.340149,659.092163,1108.865723,192.3815,961.785156,1491.765625,243.367432,947.611938,1512.382568,297.174286,957.972229,1496.595459,33.228554,-28.229832,762.069946,64.00692,-20.538591,756.163635,85.049126,-14.27055,750.34906,-27.263908,-85.9729,763.4646,5.180699,-93.603149,757.794556,38.992435,-96.873802,750.425903,-15.9606,-26.053722,770.063171,-35.152264,0.141084,759.848267,-66.132332,-23.88871,767.386108,-127.391083,-39.253792,778.572937,289.115448,-321.450836,740.87439,278.763824,-405.892212,742.103577,101.597664,-395.582306,736.216125,113.089722,-310.230072,734.872864,277.44754,-316.916687,1007.304321,271.215393,-406.748352,1007.384766,94.845596,-388.552917,1000.231628,101.128464,-300.667511,999.380432
00098_color_1715713631.784087.png,869,1715713631.781143,663.362122,751.042908,1151.565308,685.150452,806.011719,1121.261353,719.891296,767.224304,1140.005127,698.668091,706.592102,1140.550293,676.698914,672.758728,1141.98584,646.689514,652.386475,1147.095825,616.894958,688.02301,1151.594604,600.947021,670.2323,1132.923218,593.202332,652.184875,1107.459229,192.384384,961.748169,1491.763794,243.375549,947.589539,1512.372681,297.129181,957.922363,1496.609985,33.124962,-28.231495,762.100281,63.915962,-20.553213,756.171448,84.955467,-14.272351,750.383057,-27.384089,-85.906288,763.502258,5.098023,-93.591522,757.80072,38.789494,-96.959969,750.404175,-16.083525,-26.036377,770.096619,-35.189941,0.170958,759.854309,-66.206276,-23.781418,767.404846,-127.453003,-39.120182,778.568176,286.156006,-320.278625,740.624756,276.184143,-404.98468,742.111694,99.034416,-395.469116,736.261292,110.077484,-310.035065,734.831909,274.167877,-314.774292,1007.587219,268.692444,-405.20993,1007.440918,92.353203,-387.920502,1000.308777,98.210655,-299.99411,999.213074
00099_color_1715713631.818147.png,873,1715713631.821143,660.350769,741.773376,1149.827393,682.558533,796.292114,1119.689453,717.05957,757.973145,1138.562134,695.078796,696.296509,1138.942139,672.564331,663.224731,1140.778931,642.200256,643.316528,1146.196045,613.035339,679.303833,1150.535278,596.836731,661.529602,1131.859009,588.640808,643.443909,1106.694214,192.392029,961.75415,1491.75647,243.37059,947.602173,1512.380493,296.268158,957.48877,1496.660889,33.041389,-28.298695,762.057312,63.821793,-20.56296,756.173523,84.868896,-14.32499,750.370728,-27.528404,-85.852821,763.571228,5.001549,-93.586754,757.788879,38.605591,-97.093529,750.30957,-16.213911,-25.98476,770.123413,-35.243858,0.222846,759.846985,-66.254829,-23.678299,767.398132,-127.536964,-38.912628,778.582397,284.563446,-319.4263,740.637451,275.002167,-404.248169,742.222961,97.634155,-395.318359,736.130127,108.458656,-309.809937,734.829163,272.548462,-313.889557,1007.503601,266.863525,-403.34845,1007.3302,90.706535,-387.74231,1000.246521,96.185081,-299.863525,999.049805
00100_color_1715713631.852450.png,876,1715713631.851143,657.86438,734.27478,1148.962769,680.569092,789.105774,1119.476929,714.414124,747.970276,1137.836792,691.902466,688.861572,1138.352295,669.051025,655.756775,1139.819946,638.4823,636.044739,1145.019165,609.782043,672.436035,1149.821411,593.403687,654.851501,1130.839844,584.789917,636.962769,1105.816528,192.39502,961.764282,1491.767212,243.362228,947.609375,1512.382568,297.108765,957.919312,1496.620117,32.990547,-28.206856,762.098022,63.778229,-20.50849,756.207336,84.820915,-14.303004,750.386841,-27.579374,-85.780525,763.581543,4.905205,-92.930397,757.467285,38.55444,-97.20372,750.184875,-16.256989,-25.928465,770.11438,-35.259636,0.289363,759.841248,-66.278847,-23.55373,767.387268,-127.582756,-38.708267,778.558105,284.605652,-319.376892,740.332031,275.086426,-404.27301,741.812073,97.707741,-395.279022,736.218872,108.464401,-309.81073,734.971313,273.499817,-314.725891,1006.744263,267.623596,-404.910583,1007.825012,91.470741,-388.053986,1000.306458,96.958672,-300.121948,999.284729
00101_color_1715713631.886336.png,880,1715713631.891143,653.890686,725.344604,1149.42688,679.211548,781.094116,1122.7146,710.919312,737.881958,1138.77124,687.426514,679.995972,1139.458374,663.842529,646.702637,1140.563477,632.882812,627.353149,1145.216797,604.916077,664.032532,1149.613159,588.267151,646.800049,1130.802856,579.515625,628.878723,1105.829346,192.382431,961.769592,1491.755005,243.361038,947.600891,1512.375122,297.136139,957.937927,1496.602417,32.944302,-28.265533,762.102844,63.721352,-20.553562,756.179138,84.772705,-14.342159,750.37561,-27.636797,-85.788956,763.578125,4.920493,-93.580269,757.813904,38.593899,-97.255791,750.114868,-16.340731,-25.927612,770.150635,-35.268623,0.272636,759.848511,-66.294624,-23.549364,767.382812,-127.631393,-38.646576,778.572449,284.946167,-319.403503,738.916748,275.25415,-404.33905,739.81958,97.933891,-395.346771,736.527893,108.575706,-309.958771,735.643188,276.883636,-316.105621,1006.026855,271.120789,-405.635864,1005.009033,95.038811,-390.152527,1000.673767,100.353508,-302.274078,1000.226379
00102_color_1715713631.920504.png,883,1715713631.921143,650.997131,719.195374,1150.564697,677.249512,774.291687,1124.118164,708.225647,730.852356,1139.956909,683.717041,671.487488,1140.2677,659.878235,640.043091,1142.023193,628.507629,621.405334,1146.768555,601.05188,658.507812,1150.701782,584.218079,641.430847,1131.982788,575.253418,623.444092,1107.027954,192.396255,961.739868,1491.759644,243.369675,947.592651,1512.377563,297.141571,957.912903,1496.662476,32.918224,-28.260208,762.088318,63.702785,-20.546362,756.209961,84.760315,-14.371739,750.388062,-27.666861,-85.797913,763.612671,4.809626,-92.969902,757.476868,38.72002,-97.157333,750.173706,-16.309015,-25.905619,770.159424,-35.277088,0.294883,759.854187,-66.311768,-23.509872,767.390259,-127.664742,-38.570465,778.544495,285.284943,-319.379395,737.998352,275.489105,-404.381775,738.351318,98.116264,-395.513947,737.048584,108.792351,-310.035645,736.750916,279.554321,-317.816956,1005.361206,274.152466,-408.13205,1003.450378,97.967133,-392.468842,1001.315613,103.388466,-304.376526,1001.414795
00103_color_1715713631.955054.png,886,1715713631.951143,647.850952,713.025452,1151.617554,674.823853,767.546997,1125.622437,705.402405,723.982239,1141.376709,680.085938,664.959167,1141.99707,655.633972,633.560852,1143.69458,624.026245,615.366516,1148.394287,596.995483,652.909668,1151.962891,579.938904,635.77594,1133.351685,570.536255,617.904968,1108.828247,192.372284,961.759766,1491.765991,243.361038,947.592957,1512.37207,297.163513,957.93335,1496.641235,32.90416,-28.255529,762.098572,63.685028,-20.524376,756.201721,84.746567,-14.361212,750.374634,-27.687788,-85.700279,763.652832,4.851787,-93.48085,757.876099,38.804741,-96.983505,750.294861,-16.333445,-25.840618,770.160339,-35.28801,0.347013,759.839905,-66.31675,-23.427893,767.403198,-127.712112,-38.428917,778.548645,286.566162,-320.140625,738.033569,277.084991,-405.017944,737.752258,99.81604,-395.30426,737.413147,110.650108,-309.955841,737.651672,283.103973,-321.070251,1005.252808,277.089905,-411.16925,1003.199707,100.824509,-394.454559,1001.579895,106.18644,-305.274445,1003.349792
00104_color_1715713631.989259.png,890,1715713631.991143,643.007874,702.314514,1151.843384,671.123535,757.805481,1126.219727,700.673157,714.669617,1142.637207,674.411011,656.111572,1143.797363,649.639832,624.652466,1145.244263,617.76709,607.007019,1150.010376,591.121338,645.04126,1153.385986,573.696716,628.061279,1135.020752,563.801208,610.03772,1110.738403,192.371765,961.759399,1491.75708,243.360489,947.608643,1512.384888,297.153687,957.943115,1496.640381,32.884022,-28.299498,762.086487,63.676895,-20.572626,756.200073,84.702003,-14.357835,750.398926,-27.703903,-85.736984,763.663086,4.806136,-93.547096,757.869934,38.356602,-96.88842,750.523193,-16.337301,-25.872108,770.166992,-35.295589,0.343162,759.849609,-66.336906,-23.403715,767.416809,-127.727478,-38.398796,778.53772,292.871887,-321.023682,738.430237,282.597961,-405.694946,737.223328,105.298828,-395.336639,737.067139,116.683792,-309.932587,738.183838,289.004547,-324.562714,1005.542542,282.662659,-414.445374,1002.532837,106.368393,-397.055176,1001.250488,112.308083,-307.782471,1003.897888
00105_color_1715713632.023559.png,893,1715713632.021143,639.087097,697.378723,1152.924805,667.331116,751.155884,1126.560059,696.943237,707.779419,1143.073853,669.958618,649.451111,1144.586426,644.999329,618.206055,1146.389648,612.907837,600.901672,1151.394897,586.570374,639.447144,1154.859375,568.633118,622.683655,1136.935425,558.290344,604.227417,1112.973267,192.374634,961.758789,1491.774902,243.370209,947.609497,1512.387085,297.233002,958.029785,1496.572266,32.887169,-28.335337,762.072815,63.702194,-20.588625,756.185791,84.718277,-14.395167,750.362671,-27.721182,-85.732292,763.694763,4.816683,-93.538902,757.875244,38.366043,-96.919151,750.50293,-16.375143,-25.877344,770.133423,-35.291222,0.354016,759.837341,-66.296211,-23.373363,767.403931,-127.746162,-38.23838,778.488037,298.698334,-322.054108,738.71283,288.389282,-407.207855,737.358582,111.026863,-396.353424,737.020264,122.514168,-311.065857,738.160339,294.340271,-324.776459,1006.776306,288.140137,-415.932556,1002.605896,112.08799,-398.441284,1001.283752,118.338264,-310.555817,1002.995117
00106_color_1715713632.057986.png,897,1715713632.061143,633.726868,690.066284,1153.273682,662.601685,742.377563,1125.711182,691.634521,698.854126,1142.762817,663.738708,640.979248,1145.393311,637.87207,610.574585,1148.043579,605.625366,593.916504,1153.423584,579.908081,633.181885,1156.766846,561.184937,616.293274,1139.708984,549.948242,597.745972,1116.183105,192.384277,961.751831,1491.756226,243.355621,947.596802,1512.384399,297.186981,957.986389,1496.621704,32.872814,-28.373615,762.050964,63.67804,-20.599445,756.180237,84.701996,-14.378863,750.400024,-27.755745,-85.735115,763.710144,4.773084,-93.589798,757.873657,38.310032,-96.944016,750.50238,-16.359568,-25.895765,770.130432,-35.272968,0.325717,759.841492,-66.261993,-23.308699,767.422607,-127.750885,-38.301567,778.350647,307.48764,-324.0177,738.633179,297.189606,-408.86731,737.265198,119.877792,-397.779083,737.184814,131.373688,-312.532837,738.476685,303.832336,-327.683838,1006.002563,297.18161,-417.584686,1002.380127,121.1045,-399.800781,1001.539856,127.378654,-311.003998,1004.06311
00107_color_1715713632.092203.png,900,1715713632.091143,629.753845,684.536011,1152.319336,659.331116,735.933716,1124.252075,687.802307,692.352844,1141.780762,658.599304,635.209717,1145.610229,632.319397,605.136658,1148.537842,599.842041,589.148315,1154.096436,574.77478,629.089478,1157.39209,555.615234,612.244446,1140.600708,543.802368,593.639648,1117.529175,192.402008,961.734741,1491.744873,243.358551,947.594482,1512.374878,297.303253,958.016479,1496.605713,32.783619,-28.428886,762.008972,63.579395,-20.67338,756.135132,84.635689,-14.465569,750.38147,-27.929346,-85.778206,763.743408,4.232062,-93.377991,758.210632,38.124214,-97.029808,750.523865,-16.358421,-25.899441,770.086243,-35.300461,0.350935,759.818359,-66.299904,-23.216259,767.39801,-127.818588,-37.927643,778.240845,315.271332,-325.38266,738.685974,304.950043,-410.142883,737.360413,127.589836,-398.769592,737.420044,139.372116,-313.377716,738.827148,312.20163,-330.285645,1005.199341,305.160461,-419.017365,1002.334106,129.161484,-401.056519,1001.582153,135.535278,-311.266693,1005.011536
00108_color_1715713632.126292.png,904,1715713632.131143,624.067261,679.013855,1150.790161,654.935303,728.226746,1121.245972,682.882019,684.508728,1139.511108,651.924927,627.77063,1144.028442,624.906311,598.516296,1147.664185,591.955811,583.534912,1153.710571,567.895569,624.530762,1156.572266,548.225342,607.977051,1140.112671,535.785217,589.248108,1117.316895,192.369919,961.746155,1491.749512,243.348511,947.595154,1512.374023,297.27536,958.006531,1496.618286,32.561802,-28.502237,761.982117,63.505852,-20.670778,756.148376,84.573311,-14.486585,750.404602,-28.056324,-85.708107,763.842651,4.295056,-93.576775,757.951721,38.009598,-97.01368,750.592834,-16.436804,-25.838314,770.095032,-35.321426,0.430042,759.827942,-66.32769,-23.067959,767.388733,-127.71006,-37.688484,778.274902,327.648499,-327.134674,738.837097,317.016418,-411.50592,737.422119,139.831131,-399.740723,737.587036,151.861633,-314.473022,739.008301,324.089172,-329.793213,1007.114502,317.510925,-418.887451,1001.42218,141.51004,-402.225647,1001.851196,148.152298,-312.152252,1005.644104
00109_color_1715713632.160167.png,907,1715713632.161143,620.843689,674.12738,1148.002686,652.144226,721.837952,1114.542847,679.375488,676.354919,1135.61377,647.145508,622.580078,1142.343262,619.392761,594.005554,1146.320923,586.130432,580.024963,1152.788818,563.06958,621.584473,1155.158936,542.844666,605.245728,1138.751587,529.918274,586.575562,1116.385376,192.376831,961.730469,1491.729004,243.362381,947.593933,1512.376099,297.214264,958.009399,1496.573486,32.425678,-28.675201,761.948914,63.36858,-20.819263,756.102173,84.468681,-14.589117,750.398987,-28.22558,-85.834335,763.804321,4.108467,-93.754631,757.902771,37.851727,-97.113869,750.575073,-16.589716,-25.952888,770.086182,-35.371754,0.347121,759.838196,-66.416832,-23.085558,767.385193,-127.722916,-37.728859,778.143066,338.436005,-328.019684,738.792969,327.48584,-412.499359,737.463013,150.227707,-400.601898,737.82373,162.303253,-315.42981,739.118469,335.340118,-332.925018,1005.463745,328.068146,-421.698303,1002.676514,152.059769,-402.881287,1002.028809,158.71611,-313.626862,1004.998901
00110_color_1715713632.194113.png,910,1715713632.191143,617.4021,669.685242,1144.884033,649.45282,713.76123,1108.914185,676.040161,671.727356,1132.858521,642.342651,617.274414,1139.741821,613.791504,589.67865,1144.537598,580.087708,576.733093,1151.325562,558.288513,618.764404,1152.935547,537.576843,602.837952,1137.020264,523.918884,583.995361,1114.916992,192.373276,961.729248,1491.724609,243.364899,947.592041,1512.373169,297.194885,957.964661,1496.606079,32.318569,-28.7034,761.928162,63.122444,-20.763418,756.226685,84.399353,-14.616614,750.434875,-28.328186,-85.804863,763.841553,3.950356,-93.788307,757.915527,37.752666,-97.146721,750.590332,-16.684834,-25.961439,770.070374,-35.407299,0.349763,759.819519,-66.474487,-23.044453,767.358093,-127.948715,-37.688568,777.750549,349.820679,-328.900208,738.964355,338.846069,-413.666077,737.67749,161.578644,-401.659882,737.996521,173.723267,-316.671204,739.780396,346.599548,-332.685486,1006.342407,339.587433,-422.778412,1002.687683,163.680618,-403.864288,1002.306458,170.452362,-315.21933,1004.799988
00111_color_1715713632.227949.png,914,1715713632.231143,612.500793,662.955505,1139.454346,646.537292,706.46051,1103.501831,671.344788,662.770691,1126.985962,635.479187,609.749451,1134.946045,606.287292,583.072632,1140.154419,571.776001,572.096802,1147.802612,551.737183,614.198914,1148.450317,530.459595,598.675293,1132.572021,516.390503,580.202576,1110.698364,192.37085,961.733398,1491.734619,243.365097,947.588318,1512.382568,297.224457,957.952881,1496.619385,32.361816,-28.727297,761.929626,63.323418,-21.028803,755.951294,84.462563,-14.618946,750.401978,-28.254244,-85.855911,763.793213,4.011869,-93.814301,757.901001,37.773716,-97.112335,750.596741,-16.613651,-25.970192,770.077087,-35.37569,0.320303,759.839722,-66.406319,-23.085056,767.358521,-127.851799,-37.748333,777.762268,366.989899,-331.417725,738.768738,355.259308,-415.563385,737.777283,178.148163,-402.598969,738.295715,190.628296,-317.4664,739.687195,364.066437,-335.863251,1005.718018,356.203918,-424.557281,1002.809143,180.359039,-405.005646,1002.487061,187.435196,-315.860382,1005.526428
00112_color_1715713632.261823.png,917,1715713632.261143,608.410645,657.092651,1134.777466,643.45813,699.778442,1098.355835,667.411255,655.574585,1121.760254,630.202881,603.267029,1129.952148,600.381042,577.431641,1135.590088,565.960449,566.735291,1143.255859,546.579102,609.64917,1144.050903,524.551025,594.569153,1128.688721,510.089111,576.51825,1106.592285,192.379517,961.726868,1491.726562,243.36145,947.591431,1512.376953,297.163757,957.976135,1496.588501,32.360935,-28.75165,761.942932,63.336285,-21.038517,755.939453,84.431168,-14.698849,750.331909,-28.223953,-85.930779,763.799988,4.078099,-93.911194,757.867188,37.824165,-97.23555,750.487061,-16.605698,-26.011488,770.079224,-35.35725,0.254572,759.846924,-66.386299,-23.216785,767.349304,-127.827988,-37.817738,777.761963,380.457764,-333.113159,739.017273,368.484863,-417.54538,738.016174,191.464127,-403.422394,738.523376,204.27887,-318.570953,739.892334,377.099915,-335.619324,1007.551331,369.485657,-426.325806,1002.893188,193.674637,-405.861908,1002.749573,200.371506,-315.286438,1006.440979
00113_color_1715713632.295660.png,920,1715713632.291143,604.557068,649.508606,1130.058472,639.721313,692.792908,1093.818481,662.996338,647.933899,1115.770874,625.236084,595.417175,1123.168457,594.731018,570.584045,1129.03064,560.635986,559.796936,1137.039307,542.007019,602.951538,1139.526855,519.816528,588.38147,1124.182617,504.056946,571.355469,1102.279785,192.369553,961.733459,1491.728149,243.361847,947.59259,1512.376709,297.137939,957.954163,1496.605225,32.377613,-28.774448,761.930176,63.355854,-21.075512,755.904053,84.473068,-14.745167,750.282959,-28.212351,-85.960457,763.777405,4.069134,-93.917122,757.882507,37.854038,-97.343475,750.385681,-16.570904,-26.033691,770.091125,-35.355793,0.263364,759.853088,-66.656052,-23.236366,767.196106,-127.839821,-37.855957,777.733398,394.583435,-335.203735,739.137817,382.085876,-419.621063,738.112671,205.061401,-404.40799,738.937683,218.527084,-319.504242,740.077759,391.63089,-337.720032,1007.282166,383.248047,-428.095642,1003.137085,207.667786,-406.563385,1003.075745,215.859161,-317.528503,1005.873535
00114_color_1715713632.329654.png,924,1715713632.331143,598.828674,638.795593,1124.173096,633.549194,683.412903,1088.278687,656.685486,636.620544,1106.828491,617.689758,585.272156,1114.173584,587.115723,559.890808,1119.444092,552.889587,549.712585,1128.657593,535.720215,593.320374,1134.381592,512.618042,579.655334,1119.438232,495.256073,564.26947,1097.63501,192.364578,961.730896,1491.734497,243.346252,947.582397,1512.376343,297.281494,957.99939,1496.61499,32.426968,-28.780937,761.935974,63.37048,-21.123568,755.874695,84.493126,-14.781551,750.257446,-28.17326,-85.993813,763.774902,4.114566,-93.998032,757.855042,37.875118,-97.433418,750.338928,-16.545774,-26.066507,770.092896,-35.182766,0.118259,759.921936,-66.234291,-23.912001,766.643555,-127.80452,-37.894646,777.648804,413.874939,-338.083313,739.169189,400.753906,-422.101898,738.243103,223.974091,-406.052094,739.218811,237.899002,-321.265991,740.276672,410.909576,-339.135315,1008.044495,402.098083,-428.447479,1002.27478,226.655411,-407.264801,1003.302673,235.293472,-318.653748,1005.927917
00115_color_1715713632.363814.png,927,1715713632.361143,593.24176,632.001038,1119.605469,627.937012,676.48999,1083.239502,650.575073,628.917175,1100.48877,610.545471,578.047119,1108.06189,579.565491,553.577026,1114.347656,545.467651,544.006775,1124.328003,529.452576,587.925598,1131.236206,505.501495,574.846558,1116.77063,487.271271,560.063782,1095.123413,192.358734,961.732361,1491.743042,243.358047,947.597595,1512.376099,297.188782,958.029053,1496.549072,32.501877,-28.757528,761.921692,63.481728,-21.102472,755.887634,84.564178,-14.785256,750.188965,-27.878433,-86.380447,763.439514,4.197696,-94.000961,757.865417,37.999153,-97.425514,750.309143,-16.414768,-26.04384,770.084351,-35.410835,0.197415,759.704285,-66.160202,-23.959251,766.559998,-127.736855,-37.835041,777.565796,428.242676,-340.025482,739.254517,414.757263,-424.164429,738.504089,238.009659,-407.525391,739.470886,252.207306,-322.615723,740.371582,425.839691,-342.091156,1007.096619,416.279785,-430.167542,1002.640747,240.831467,-408.3703,1003.640442,250.054092,-321.114746,1005.15332
00116_color_1715713632.399456.png,931,1715713632.401143,585.320862,622.758667,1113.574097,619.803101,667.255676,1076.881958,641.614807,618.476135,1091.817871,599.854797,568.028992,1099.221191,568.517578,544.418884,1106.528687,534.934082,536.172974,1117.995728,520.496643,578.655701,1126.332764,495.913025,567.866699,1113.133667,476.015106,554.915955,1091.96228,192.405746,961.740417,1491.746826,243.373398,947.598083,1512.380371,297.296234,958.015259,1496.622192,32.820606,-28.665979,761.886536,63.822979,-21.077253,755.887878,84.862137,-14.769065,750.125793,-27.559654,-86.262398,763.345215,4.651621,-93.636192,758.442322,38.325802,-97.466209,750.260803,-15.904307,-26.067671,770.234192,-35.301769,0.289453,759.733215,-65.893944,-23.98317,766.47699,-127.525612,-37.829521,777.57428,446.37558,-342.970825,739.385498,432.151703,-427.013763,738.466797,255.601013,-408.878784,739.641235,270.407776,-324.30304,740.813049,443.961182,-345.371979,1007.284302,434.078552,-435.255096,1003.539917,258.805389,-410.533508,1003.852722,268.465027,-322.123138,1006.376648
00117_color_1715713632.432754.png,934,1715713632.431143,579.14386,615.784119,1108.791626,613.71283,660.136169,1071.889526,634.855774,610.676575,1085.389038,591.968567,560.851929,1092.859985,560.41925,538.083191,1100.834106,526.848755,530.32135,1113.141724,513.871033,573.267395,1122.982666,488.564972,562.979309,1109.801147,467.616089,550.972839,1089.113525,192.379257,961.751465,1491.757568,243.363205,947.601135,1512.387695,297.240326,958.006531,1496.599854,33.158493,-28.615488,761.842285,64.120506,-21.089031,755.85022,85.169579,-14.715341,750.104553,-27.237743,-86.377533,763.243469,4.803096,-94.102783,757.740173,38.746498,-97.277893,750.401672,-15.602631,-26.341061,769.795593,-35.157349,0.309054,759.731445,-65.853767,-23.843863,766.702332,-127.190979,-38.137688,777.542786,459.596252,-345.823578,739.52655,444.798126,-429.718689,738.61322,268.296875,-410.182983,739.674805,283.725464,-325.752747,740.922302,457.141754,-348.314514,1007.323242,446.457642,-438.243958,1003.743652,271.410675,-411.985718,1003.878601,280.847198,-322.049438,1007.361633
00118_color_1715713632.466110.png,937,1715713632.461143,573.211975,608.155273,1103.390747,607.889465,652.306885,1066.413208,628.483582,602.248474,1078.609009,584.515869,553.142944,1086.537964,552.762207,530.880432,1094.925781,519.418091,523.637512,1107.975464,507.425476,566.922852,1118.830444,481.503265,557.198853,1105.853271,459.729675,545.971375,1085.721191,192.36644,961.754211,1491.770874,243.36232,947.585388,1512.383301,297.200073,958.01886,1496.557251,33.34655,-28.663994,761.837524,64.262932,-21.081467,755.836975,85.334587,-14.720226,750.095093,-27.056358,-86.531349,763.150208,5.281603,-94.515556,757.431091,38.915615,-97.567863,750.124451,-15.457342,-26.452675,769.787354,-34.706638,-0.381133,759.528625,-65.572701,-24.286097,766.666077,-127.033623,-38.496445,777.548584,472.046265,-348.868774,739.400696,456.594147,-432.035217,738.593567,280.403534,-411.663239,739.808411,296.230927,-327.504639,740.930115,468.879944,-350.454346,1007.941956,458.760651,-441.798584,1003.903015,283.490295,-413.767059,1003.934021,294.047668,-324.953583,1007.051208
00119_color_1715713632.499250.png,941,1715713632.501143,566.7724,595.943726,1095.870239,601.394165,640.710999,1059.450806,621.393372,589.930115,1069.480957,576.53479,541.411133,1076.922974,544.688049,519.441162,1085.592651,511.609497,512.179443,1099.199219,500.45108,555.530884,1111.536133,473.787476,547.462341,1099.473389,451.550629,536.680054,1079.403564,192.394135,961.75531,1491.763916,243.359497,947.591675,1512.383423,296.278259,957.507324,1496.670044,33.694229,-28.18981,762.216309,64.572014,-20.877157,755.834473,85.736275,-14.520945,750.079346,-26.686041,-86.496628,763.123047,5.723379,-94.537445,757.406616,39.411861,-97.330063,750.208496,-15.069755,-26.542301,769.637268,-34.370537,-0.348534,759.561279,-65.371849,-24.244947,766.673462,-126.763939,-38.646496,777.489807,486.87851,-351.447876,739.819702,471.293427,-435.573547,738.752991,295.110626,-414.060699,740.025269,311.455414,-329.563782,741.264221,484.835571,-355.096497,1007.036316,473.271515,-444.545349,1003.974304,298.334045,-415.548096,1004.118225,308.759003,-326.130981,1007.346985
00120_color_1715713632.532881.png,944,1715713632.531143,563.665649,586.519348,1090.920654,598.384827,631.643066,1054.744263,618.106812,580.429871,1063.304932,572.575195,532.325867,1070.618042,540.684387,510.37204,1079.147217,507.695557,503.202667,1093.332764,497.23465,546.587585,1106.505249,470.291809,538.917786,1094.825806,447.565552,528.697144,1074.818848,192.383255,961.749451,1491.754272,243.356995,947.592834,1512.389404,297.159576,957.960571,1496.620605,33.725243,-28.301355,761.999268,64.853966,-20.727118,755.836975,86.056717,-14.362006,750.103149,-26.32719,-86.614761,763.040894,6.20449,-94.753593,757.282227,39.65847,-96.989029,750.647522,-14.708013,-26.487446,769.813843,-34.166901,-0.418272,759.573181,-65.156097,-24.35158,766.708679,-126.465126,-38.916996,777.514709,497.100037,-353.690948,739.833557,481.294525,-437.706909,738.901062,305.361725,-415.754181,740.133301,321.748932,-331.542877,741.064087,494.965973,-356.449463,1007.280212,483.015594,-445.461395,1003.942139,308.336029,-416.851135,1004.100342,318.830444,-327.129913,1007.57251
00121_color_1715713632.566287.png,948,1715713632.571143,562.617859,574.512695,1084.68811,597.191528,619.464111,1048.463623,616.353943,567.786255,1055.697144,570.271362,520.446716,1063.63916,538.214478,498.721924,1072.603882,505.443146,491.824219,1087.366577,495.801086,535.366821,1101.235596,468.498627,528.138184,1090.144897,445.25061,518.530151,1070.505127,192.381805,961.740723,1491.74585,243.357666,947.581848,1512.392944,297.181152,957.962219,1496.618652,34.447937,-28.937525,761.463135,65.129929,-20.738684,755.758911,86.087524,-13.81865,750.319275,-26.158546,-86.509285,763.091064,6.980332,-95.31205,756.991394,40.088718,-96.547569,750.892212,-14.507148,-26.590378,769.806702,-33.933605,-0.594897,759.508301,-65.026855,-24.451506,766.729919,-126.252037,-39.181995,777.529053,508.597015,-356.225311,739.815796,492.77597,-440.077332,738.929199,316.697418,-417.739746,740.208069,333.438873,-333.554871,741.166443,506.471802,-358.920502,1007.135376,494.544067,-448.063049,1004.032043,319.942627,-419.253571,1004.272095,331.660797,-331.318542,1006.686218
00122_color_1715713632.599457.png,951,1715713632.601143,563.447998,565.922607,1080.073608,598.068542,610.538757,1043.729004,616.769104,558.625671,1049.992188,570.179565,511.975098,1058.720093,537.734924,490.193451,1067.859985,505.419128,483.851532,1083.444336,496.560181,527.577759,1097.595215,469.027496,520.724487,1087.024902,445.354462,511.528717,1067.728394,192.368546,961.721619,1491.736694,243.34671,947.572083,1512.380859,297.15213,957.933105,1496.607544,34.678303,-28.846205,761.433899,65.405113,-20.678307,755.723572,86.612213,-14.079193,750.342468,-25.935961,-86.449471,763.082581,6.573084,-94.690361,757.341614,40.324425,-96.453156,750.945251,-14.369897,-26.520409,769.773438,-33.788212,-0.570702,759.45929,-64.914864,-24.462887,766.650574,-126.109955,-39.206314,777.492554,515.937683,-357.973816,739.896057,499.958038,-441.730377,738.945496,323.979309,-418.808319,740.101685,340.830383,-334.769104,741.467529,513.857666,-360.52243,1007.717957,501.684662,-448.473022,1002.767822,327.28775,-420.952484,1004.267578,338.914307,-331.738434,1007.939697
00123_color_1715713632.633057.png,954,1715713632.631143,565.570435,558.256958,1075.17981,600.157715,602.241638,1038.203125,618.245728,550.065125,1043.938843,571.178406,504.184296,1053.690063,538.846985,483.437866,1064.01709,506.391815,477.109528,1079.630859,498.242493,520.812317,1093.699219,470.575623,514.250427,1083.617065,446.455627,505.387115,1064.854614,192.37027,961.719116,1491.732178,243.326569,947.555786,1512.353149,297.122955,957.925232,1496.613525,34.910492,-28.743765,761.449036,65.693008,-20.490694,755.802185,86.926208,-13.83471,750.502441,-25.614836,-86.360596,763.070496,6.863555,-94.587448,757.363647,40.814758,-96.84095,750.563965,-14.136623,-26.492304,769.768982,-33.582226,-0.597307,759.416138,-64.68734,-24.500431,766.633423,-125.824036,-39.326088,777.538025,522.352905,-359.121521,739.939392,506.327637,-443.077057,738.921204,330.315186,-420.088898,740.066772,347.187805,-336.193787,741.30188,519.978577,-362.059998,1007.776367,508.445129,-453.156311,1004.320007,333.523651,-422.36972,1004.198547,344.9328,-332.727722,1008.3302
00124_color_1715713632.666440.png,958,1715713632.671143,569.91748,548.447266,1067.533569,604.815125,591.717712,1029.965576,621.951843,539.153442,1034.567749,573.560608,494.389069,1045.605957,540.950012,474.333801,1056.537476,508.604584,469.225983,1072.964966,502.090271,512.629517,1087.780396,474.016174,506.892792,1078.132568,449.159637,498.879364,1059.858643,192.368073,961.70929,1491.728271,243.351791,947.610596,1512.380737,297.167847,957.953064,1496.617676,35.16362,-28.762762,761.456604,65.941086,-20.488556,755.782349,87.135498,-13.824723,750.471619,-25.330057,-86.478416,763.019043,7.10279,-94.677055,757.361389,41.225189,-97.388405,750.021179,-13.936619,-26.602123,769.785828,-33.380085,-0.721389,759.470459,-64.481705,-24.686237,766.675781,-125.564232,-39.596592,777.618774,528.934143,-360.290771,740.040588,513.253052,-444.130463,738.679077,337.12915,-421.891144,740.01947,353.721741,-337.781982,741.415588,527.007812,-364.354553,1007.419922,515.268494,-454.897491,1004.441406,340.226746,-424.478607,1004.086731,351.750061,-335.832581,1007.507202
00125_color_1715713632.699522.png,961,1715713632.701143,575.171753,541.258789,1060.594238,609.935852,583.979065,1022.514221,626.30188,531.124084,1026.313599,577.572266,487.424225,1038.490601,544.542175,467.737885,1050.045532,512.494568,462.915588,1067.102905,507.140411,506.579285,1082.234741,478.641174,501.574768,1073.722778,453.308655,493.733856,1055.917969,192.351212,961.712646,1491.725952,243.351028,947.603394,1512.378052,297.249695,958.000183,1496.605957,35.246365,-28.691645,761.45459,66.032684,-20.427197,755.792969,87.216301,-13.755815,750.510071,-25.206367,-86.396355,763.025452,7.233405,-94.605377,757.400146,41.197956,-97.257523,750.142883,-13.866182,-26.555199,769.78479,-33.312836,-0.676901,759.481323,-64.421692,-24.652792,766.661133,-125.480011,-39.598022,777.57312,532.818726,-361.036896,740.08313,517.191711,-444.77359,738.55957,341.097992,-422.717438,739.876587,357.58194,-338.857788,741.400085,530.638855,-364.571899,1008.256409,518.754578,-454.988129,1004.06073,344.106873,-425.783905,1004.015808,354.438873,-335.790405,1007.629272
00126_color_1715713632.733284.png,964,1715713632.731143,581.777344,534.101318,1052.235962,616.590759,575.950989,1013.725281,632.208496,522.848816,1016.763306,582.160461,479.647491,1029.67334,550.218201,460.930542,1042.905762,518.2323,456.514374,1060.286865,514.248413,500.677399,1075.894653,485.246613,495.648773,1067.841431,459.242859,488.337769,1050.692383,192.366821,961.732544,1491.725464,243.351013,947.612854,1512.376099,297.352203,958.050537,1496.59436,35.339382,-28.670012,761.451416,66.056236,-20.459635,755.784912,87.190102,-14.038109,750.091736,-25.064037,-86.36647,763.034546,7.367597,-94.530838,757.43689,41.351692,-97.345016,750.009155,-13.795927,-26.534399,769.776733,-33.225254,-0.699567,759.458435,-64.3312,-24.675312,766.655457,-125.384689,-39.689911,777.565796,535.62854,-361.534973,740.195312,520.015015,-445.551666,738.690247,343.842682,-423.341583,739.813538,360.36676,-339.43692,741.403687,534.080322,-367.609985,1007.290955,521.506348,-455.894806,1004.082947,346.73938,-426.927399,1003.938782,358.13446,-338.372711,1007.465698
00127_color_1715713632.766664.png,968,1715713632.771143,592.758057,522.992004,1039.423096,628.343201,564.086853,1000.079163,642.676331,510.695984,1002.255676,591.956421,469.283386,1016.953613,559.001892,451.320404,1030.528931,526.738037,447.718018,1048.014404,524.629089,491.861298,1064.315186,495.283569,487.720245,1056.892944,468.53067,481.879089,1040.787842,192.407578,961.74884,1491.748901,243.356796,947.608215,1512.381836,297.122559,957.943237,1496.606567,35.365261,-28.633789,761.456116,66.114044,-20.491182,755.717102,87.207359,-14.004949,750.102295,-25.00783,-86.39222,763.046936,7.408576,-94.518555,757.442871,41.411228,-97.445381,749.898315,-13.786836,-26.554688,769.763123,-33.210999,-0.687057,759.466003,-64.347885,-24.695017,766.674683,-125.39576,-39.786449,777.592041,537.288513,-362.097687,740.262085,522.00531,-445.502808,738.501099,345.993408,-423.910065,739.78949,362.327179,-339.840546,741.481506,535.953369,-368.838287,1006.674744,523.440918,-457.078796,1004.412537,348.850891,-427.506683,1003.88501,359.631134,-337.684875,1008.132568
00128_color_1715713632.799879.png,971,1715713632.801143,602.290466,513.911987,1027.796387,638.790771,554.197327,987.939697,652.34906,500.705719,989.708679,600.10376,460.025391,1005.56781,566.270142,442.737823,1018.657593,534.35083,440.762054,1036.714844,533.586548,484.597412,1053.296143,503.816589,481.26236,1046.478394,476.800995,475.893707,1030.837158,192.408798,961.756775,1491.762329,243.358826,947.605469,1512.369995,297.19989,957.970032,1496.616455,35.360004,-28.608473,761.472961,66.111336,-20.469011,755.715881,87.197983,-13.982552,750.09198,-25.000961,-86.374008,763.042236,7.414768,-94.46524,757.479736,41.403839,-97.430183,749.888672,-13.794323,-26.510723,769.788818,-33.244518,-0.670748,759.471863,-64.382416,-24.682484,766.664062,-125.417305,-39.82732,777.589172,538.021057,-362.046265,740.206421,522.32428,-445.613586,738.628418,346.261444,-423.957916,739.772095,362.716278,-339.836426,741.354858,535.679626,-367.616638,1006.895447,523.651917,-457.060425,1004.641052,349.030334,-427.305145,1003.87262,360.227753,-338.255402,1008.01123
00129_color_1715713632.833986.png,974,1715713632.831143,612.92511,503.74234,1014.395264,649.372742,543.659912,974.199219,662.349426,489.881165,975.373779,609.890625,449.966919,992.203125,576.133118,433.681549,1006.18866,543.828186,431.915436,1024.284912,544.198547,475.325928,1041.160645,514.315247,472.157257,1034.950195,486.703217,467.394562,1019.8927,192.382309,961.765991,1491.769775,243.354477,947.60968,1512.386353,297.274384,957.981079,1496.650513,35.34716,-28.601753,761.479065,66.086563,-20.444273,755.736938,87.246834,-13.848206,750.257202,-25.004333,-86.393883,763.0354,7.431314,-94.490936,757.477478,41.396713,-97.412643,749.896179,-13.81359,-26.492258,769.799744,-33.253784,-0.654579,759.483521,-64.398537,-24.715965,766.688782,-125.432968,-39.959866,777.628906,538.02948,-362.027435,740.364929,522.327759,-445.492523,738.932373,346.279968,-423.871887,739.663818,362.714294,-339.745911,741.138916,535.308228,-367.016113,1007.199646,523.010986,-456.509216,1005.18811,348.458252,-426.513214,1003.726501,360.176819,-337.980408,1007.436035
00130_color_1715713632.871314.png,978,1715713632.871143,626.615601,488.812469,996.391968,664.312134,528.246155,956.081848,676.384155,474.220398,956.420105,622.572205,435.465179,974.020813,588.288452,418.843323,987.519348,556.249329,418.223145,1005.825989,557.407959,461.809113,1023.291931,527.601318,458.968475,1018.525269,499.304932,454.815491,1004.595642,192.385727,961.766724,1491.774292,243.356339,947.609558,1512.387451,297.185852,957.982788,1496.616089,35.314102,-28.602936,761.487244,66.078133,-20.327129,755.830139,87.241486,-13.739754,750.392151,-25.01791,-86.400101,763.032227,7.415779,-94.470062,757.472534,41.380417,-97.391891,749.909241,-13.834854,-26.539034,769.791748,-33.295223,-0.692267,759.499756,-64.430695,-24.761936,766.700623,-125.452652,-40.081451,777.672791,538.031372,-362.002563,740.802429,522.225769,-445.376404,739.766174,346.087952,-423.776978,739.276367,362.620148,-339.551849,740.464478,533.595459,-365.226105,1007.948181,521.326904,-454.767059,1005.865479,346.513672,-424.983002,1003.382446,357.80127,-335.982361,1006.675964
00131_color_1715713632.907538.png,982,1715713632.911143,639.316895,473.676239,979.210144,679.210266,512.409912,939.091003,690.367981,457.978973,938.784851,635.031738,420.507416,957.078796,600.679321,403.822113,970.213257,568.679382,402.539093,988.436462,569.980103,447.896301,1006.965881,540.073059,446.06662,1004.043823,510.798706,442.799255,992.797424,192.387878,961.766479,1491.772461,243.354202,947.609436,1512.384766,297.263092,957.971436,1496.645752,35.277176,-28.57419,761.505981,65.9561,-20.383823,755.829407,87.264038,-13.616266,750.549927,-25.058807,-86.347824,763.029419,7.393073,-94.443916,757.460815,41.33036,-97.294441,750.00354,-13.889791,-26.488693,769.815186,-33.331856,-0.667897,759.504761,-64.481911,-24.761915,766.690491,-125.484016,-40.104984,777.673828,537.890869,-361.907928,741.832458,521.930603,-445.443024,741.41864,345.940308,-423.656952,738.824036,362.469696,-339.482117,739.369568,530.610413,-363.420197,1008.635742,518.541931,-452.511017,1007.133728,343.637421,-422.528107,1002.90094,354.814514,-333.659302,1005.517822
00132_color_1715713632.941659.png,985,1715713632.941143,649.217712,463.986969,967.726929,689.709473,501.102264,926.53949,700.31958,446.60611,927.568115,644.568909,410.267212,947.05542,610.332214,394.014099,960.631958,578.566284,392.758636,978.927002,580.107727,439.562103,997.039368,550.391968,437.893707,995.60614,520.470703,434.526886,986.421082,192.391907,961.76947,1491.759033,243.359879,947.605225,1512.386841,297.145966,957.965271,1496.593506,35.255478,-28.564631,761.516602,66.014664,-20.302914,755.833252,87.280792,-13.557186,750.627808,-25.070312,-86.341393,763.000183,7.363771,-94.421417,757.47583,41.311501,-97.181,750.10614,-13.934273,-26.445795,769.816711,-33.351627,-0.651357,759.503784,-64.508842,-24.774572,766.672302,-125.50177,-40.114376,777.693237,536.932861,-361.939423,742.799988,521.026306,-445.681213,742.882935,345.152039,-423.396393,738.688965,361.791229,-339.302155,738.795105,527.89563,-361.480316,1009.549744,515.360229,-449.742981,1008.133057,340.742493,-420.310333,1002.827148,352.273346,-332.119446,1004.35553
00133_color_1715713632.975529.png,988,1715713632.971143,658.488831,455.454803,958.449829,700.267334,490.01123,916.136047,710.215759,435.401184,919.270996,653.943298,400.781036,940.266724,619.833618,384.939148,954.166565,588.161926,383.973969,972.525513,589.399963,433.220734,989.094727,559.701294,431.855988,989.16803,529.525208,428.750916,981.917908,192.39035,961.770691,1491.758911,243.363647,947.598755,1512.372314,297.117767,957.920105,1496.617676,35.285267,-28.558115,761.502747,66.019096,-20.305923,755.826843,87.257797,-13.590002,750.555908,-25.068563,-86.299416,763.028687,7.386904,-94.376671,757.463623,41.319351,-97.017082,750.239685,-13.911097,-26.449324,769.81958,-33.377586,-0.623485,759.490479,-64.517632,-24.750483,766.679443,-125.486374,-40.165817,777.673645,534.195374,-362.023834,742.582703,517.874084,-445.567871,743.05481,342.172394,-422.775391,738.983032,359.139496,-338.546082,738.695984,525.241943,-360.435608,1009.05896,512.814514,-449.272125,1008.640198,337.873901,-418.211304,1002.966858,349.773285,-330.277985,1003.960938
00134_color_1715713633.009674.png,992,1715713633.011143,669.003418,442.636292,950.436584,713.003601,475.188995,907.635254,721.971191,419.824036,913.154419,664.518555,387.799286,935.171753,630.721985,373.369995,949.334595,598.755737,372.497223,966.879089,599.51532,423.926422,981.257874,569.647644,423.302643,981.448242,539.580994,420.812927,975.53894,192.401962,961.755249,1491.766357,243.359177,947.603027,1512.375732,297.212738,957.935608,1496.651001,35.28476,-28.551479,761.547729,66.024315,-20.291639,755.842773,87.332474,-13.503077,750.680115,-25.044456,-86.286446,762.991455,7.420696,-94.366577,757.448975,41.413288,-96.78772,750.449707,-13.923296,-26.437883,769.854004,-33.351219,-0.636262,759.505371,-64.526505,-24.787689,766.673889,-125.465065,-40.244122,777.719727,528.338135,-361.505188,741.478943,511.457489,-445.029327,742.156372,335.830719,-420.950623,739.352905,353.355774,-337.0849,738.665771,521.279419,-358.499786,1008.51355,507.822815,-447.147797,1007.553955,333.680847,-416.024353,1003.467224,346.406158,-329.262299,1003.448853
00135_color_1715713633.045104.png,995,1715713633.041143,675.79248,432.975525,948.70343,720.557007,464.915771,906.03241,729.225403,409.416626,912.541748,671.422546,378.079224,934.331848,637.385376,363.610657,948.261841,605.397766,362.870605,965.484375,606.100464,415.085175,979.427063,576.243469,414.552399,979.564697,546.158875,412.113953,973.881042,192.395767,961.767578,1491.75293,243.354263,947.60199,1512.384766,297.127228,957.908508,1496.643066,35.288403,-28.555717,761.567322,66.01561,-20.285803,755.861511,87.265907,-13.617881,750.536011,-25.062601,-86.278488,763.006775,7.392037,-94.356644,757.451355,41.397205,-96.792458,750.448059,-13.932317,-26.466623,769.885132,-33.353878,-0.631297,759.527649,-64.529762,-24.801271,766.689819,-125.45192,-40.245682,777.739319,523.782776,-360.867523,741.370728,506.690979,-444.206818,742.240173,331.042877,-419.7341,739.52417,349.014313,-336.150818,738.595703,516.53363,-356.597931,1009.138245,503.710754,-447.345917,1007.867676,329.105469,-414.573395,1003.577454,342.012299,-327.924561,1003.45459
00136_color_1715713633.080606.png,999,1715713633.081143,682.781921,422.04892,952.057007,728.609985,453.721802,909.793213,737.170349,398.373413,917.054016,679.469727,366.878143,938.151428,645.328918,351.543579,951.216003,613.783264,350.230225,968.479858,613.544617,403.471313,982.727356,583.612,402.050659,983.563293,553.583374,399.747223,978.960449,192.391037,961.764893,1491.755005,243.346512,947.607178,1512.380859,297.244263,958.046509,1496.573364,35.288254,-28.575766,761.587158,66.094101,-20.04928,756.160217,87.12146,-13.841028,750.264709,-25.077065,-86.269257,762.989014,7.375457,-94.366737,757.46051,41.35128,-96.812752,750.424011,-13.942829,-26.455254,769.902039,-33.367641,-0.626371,759.527832,-64.541801,-24.761082,766.673645,-125.467804,-40.159821,777.753357,515.660278,-359.723694,740.925049,498.41922,-443.263123,741.932434,322.896881,-418.109222,739.64032,341.00415,-334.563782,738.740479,509.539429,-356.306335,1008.067505,495.7948,-444.938995,1007.283447,321.739319,-412.789429,1003.788452,334.631317,-324.983887,1004.474548
00137_color_1715713633.115431.png,1002,1715713633.111143,687.139709,415.83197,956.959595,733.865784,447.3685,915.046753,742.290833,391.986145,922.415894,684.490295,360.646545,943.41272,650.576843,344.784973,956.210205,618.981934,342.897858,973.252991,618.287354,397.033844,987.77002,588.564148,395.579651,989.435913,558.387146,393.339966,986.020325,192.394958,961.751282,1491.753296,243.350082,947.604309,1512.380981,297.247223,958.026672,1496.570557,35.193119,-28.553825,761.739929,66.045662,-20.18359,755.994202,87.093178,-13.881249,750.185974,-25.083155,-86.23436,763.015747,7.383284,-94.338669,757.463623,41.266518,-96.946938,750.37384,-13.937776,-26.429379,769.921021,-33.362617,-0.607201,759.514954,-64.517525,-24.700403,766.699463,-125.448975,-40.050045,777.711487,508.41629,-359.131165,740.891846,490.898376,-442.508759,741.858643,315.450409,-416.489258,739.649475,333.90918,-333.106201,738.71228,502.449402,-355.822815,1008.137939,488.410553,-444.593353,1007.233765,314.425751,-411.598938,1003.694641,327.99292,-325.204681,1003.54126
00138_color_1715713633.150074.png,1006,1715713633.151143,691.793579,408.594543,963.623779,740.496826,439.425812,922.639954,748.569336,383.936554,929.953186,689.794739,353.604858,951.068298,656.085327,337.072327,962.98175,624.977295,334.259369,979.459717,623.080627,391.216064,994.420532,593.501709,390.107117,997.526794,563.29718,388.380463,995.984802,192.37764,961.783081,1491.766479,243.351181,947.608398,1512.37854,297.282623,958.019653,1496.617798,35.334328,-28.359545,761.843933,66.031075,-20.125505,756.021729,87.116058,-13.878525,750.193726,-25.075298,-86.181374,763.065308,7.387379,-94.32225,757.506042,41.287777,-97.072403,750.211182,-13.90451,-26.397257,769.924927,-33.358929,-0.553395,759.536621,-64.482117,-24.608833,766.689392,-125.431793,-39.85463,777.680786,497.244843,-357.461517,740.843018,479.510162,-440.732635,741.718384,304.144104,-414.609741,739.547852,322.710388,-331.300812,738.67572,491.242554,-354.395386,1007.979248,477.060181,-442.562988,1006.652588,303.227753,-410.064087,1003.618225,316.766388,-323.750183,1003.408569
00139_color_1715713633.184601.png,1009,1715713633.181143,694.533936,403.639099,967.632446,744.924011,434.17984,927.627686,753.22821,378.488953,935.209412,694.108215,348.423035,956.414062,661.049744,331.078705,967.726379,630.507263,326.855469,983.91803,626.368042,386.16745,998.437439,597.569641,385.858612,1003.777954,567.350891,384.339081,1004.710571,192.401093,961.75885,1491.745361,243.355011,947.609436,1512.376587,297.272217,958.005554,1496.603271,35.331539,-28.22419,762.00592,66.038918,-20.128538,756.043091,87.133781,-13.915299,750.194397,-25.061829,-86.18116,763.062439,7.400067,-94.32943,757.4953,41.290104,-97.095764,750.210327,-13.926554,-26.377489,769.9198,-33.355221,-0.564154,759.512695,-64.479538,-24.575106,766.66333,-125.42617,-39.775867,777.651367,487.524384,-355.413177,740.861938,470.118591,-439.024139,741.69519,294.680389,-413.46936,739.244202,312.89212,-329.904724,738.604736,480.707611,-351.328766,1008.859375,467.374634,-441.13681,1006.759521,293.503998,-408.933563,1003.424316,306.648499,-321.744629,1004.058838
00140_color_1715713633.219292.png,1013,1715713633.221143,698.213684,396.364014,971.280884,750.559875,426.371277,932.730591,758.759827,371.088318,940.073242,698.748047,341.171692,961.204163,666.314514,323.060608,971.886047,636.69281,317.880585,988.140381,631.315918,379.593414,1002.478699,603.491699,378.892731,1010.743286,573.97467,378.255493,1015.468689,192.412292,961.757874,1491.75708,243.35257,947.609985,1512.375977,297.114594,957.938843,1496.606323,35.282784,-28.314323,761.918457,66.032623,-20.13368,756.044128,87.125488,-13.937521,750.197693,-25.082027,-86.223129,763.061584,7.371712,-94.37915,757.477234,41.280895,-97.124825,750.201233,-13.897593,-26.445042,769.920532,-33.331715,-0.596731,759.533203,-64.445602,-24.593931,766.670532,-125.411095,-39.701187,777.677673,473.645355,-352.785248,741.055542,456.626038,-436.054352,741.768494,281.038239,-411.645905,738.954529,298.868622,-327.915802,738.350769,466.068939,-349.243561,1008.832947,453.031525,-438.55069,1006.732727,278.937531,-407.512665,1002.952454,291.777771,-320.953644,1003.170105
00141_color_1715713633.253981.png,1016,1715713633.251143,701.054138,390.13559,973.01709,753.760193,420.380066,934.985962,762.078796,365.14917,942.228577,701.605164,334.717377,962.958862,668.734924,316.771942,973.196899,638.408569,311.864075,988.653748,634.509766,373.379822,1004.311584,607.079346,372.755676,1013.366089,577.846863,372.274658,1019.478821,192.402969,961.757629,1491.750977,243.362915,947.605469,1512.36731,297.192139,957.96106,1496.612793,35.224594,-28.28862,761.898804,65.997116,-20.130245,756.049377,87.095795,-13.933966,750.195251,-25.132151,-86.223885,763.064819,6.997542,-94.454704,757.649841,41.231091,-97.106789,750.239929,-13.916987,-26.402348,769.906677,-33.34758,-0.565953,759.508423,-64.459244,-24.52417,766.647156,-125.437424,-39.508717,777.630798,461.64093,-350.22937,740.984497,445.116211,-433.629791,741.542114,269.327606,-410.471191,738.734619,286.572266,-326.753479,738.18866,454.070465,-346.843811,1008.404114,441.571259,-434.715668,1005.652405,267.270081,-406.400757,1002.883301,279.585114,-319.477814,1003.405579
00142_color_1715713633.288453.png,1020,1715713633.291143,702.553711,382.627808,972.539673,756.848267,413.450409,935.960388,765.907837,358.297699,944.122253,706.154297,327.782104,965.158569,672.544373,308.317596,973.78418,639.87384,302.980164,986.345459,637.367676,364.77356,1003.760681,610.858398,363.642731,1014.480957,582.211365,361.542603,1023.160706,192.413834,961.745361,1491.752686,243.358658,947.608215,1512.369263,297.170288,957.940186,1496.61853,35.16906,-28.329645,761.884155,65.945328,-20.198751,755.999451,87.058685,-13.972865,750.210632,-25.209953,-86.230965,763.096924,7.194385,-94.136269,757.777344,41.149197,-97.147034,750.236206,-13.881764,-26.254608,770.138733,-33.341038,-0.600475,759.484802,-64.442757,-24.499279,766.647766,-125.458511,-39.328487,777.652588,445.21521,-346.779388,741.234802,429.434296,-430.361542,741.35907,253.421539,-409.045288,738.326904,269.870605,-324.962433,738.09906,437.567841,-345.817047,1008.308899,425.175629,-434.096802,1006.464355,250.543472,-406.092285,1002.448303,262.071838,-318.743652,1003.361328
00143_color_1715713633.322789.png,1023,1715713633.321143,702.541504,376.272125,971.05011,758.819214,407.573181,936.314819,767.81427,352.287415,944.311829,706.998474,321.858826,964.079651,673.139343,301.595978,970.98291,640.050354,295.607971,981.959045,637.78717,358.076965,1000.707886,612.049194,356.934204,1012.261841,584.278137,355.263763,1022.739319,192.415024,961.750732,1491.755493,243.354431,947.605896,1512.378784,296.272217,957.50531,1496.683228,35.128937,-28.357019,761.853943,65.868759,-20.173716,756.023438,86.994072,-13.996347,750.236816,-25.448334,-86.166985,763.34137,7.105387,-94.152153,757.776733,41.043373,-97.146965,750.267822,-13.948485,-26.264269,770.045105,-33.368542,-0.566228,759.494385,-64.489433,-24.451948,766.674866,-125.505013,-39.177452,777.660767,432.60141,-344.705017,741.265076,416.946442,-428.343445,741.200256,240.864014,-407.455658,738.053101,257.092194,-323.557465,738.134277,424.370453,-345.361359,1007.849548,412.501038,-433.188904,1006.324158,237.75209,-405.518494,1002.189636,248.978165,-318.697601,1002.832153
00144_color_1715713633.357327.png,1027,1715713633.361143,702.014954,368.18103,967.00415,760.789246,400.140106,935.251404,769.656494,344.673187,943.495972,709.002625,314.080688,961.32666,676.782837,292.556274,967.676514,645.726807,284.281982,978.742798,638.954041,350.466675,995.151123,616.188293,350.187592,1009.446167,590.911011,349.49527,1024.860474,192.396271,961.764893,1491.750854,243.355728,947.60553,1512.367798,297.14859,957.981323,1496.577026,35.007542,-28.366684,761.823303,65.725212,-20.211411,756.00885,86.887108,-13.982657,750.272461,-25.493427,-85.967995,763.425781,6.980122,-94.149529,757.765015,40.907948,-97.132973,750.281067,-14.027046,-26.276791,769.979675,-33.229687,-0.544241,759.633484,-64.566299,-24.40984,766.672791,-125.58329,-39.049667,777.68335,414.511963,-342.598206,740.95929,399.420319,-426.219269,740.876709,223.049118,-406.352783,737.839539,239.023361,-322.11496,737.922729,406.630585,-342.827972,1007.828125,395.08902,-431.038116,1006.120056,220.272491,-404.13205,1001.984131,231.011307,-317.294678,1002.628662
00145_color_1715713633.391642.png,1030,1715713633.391143,702.4375,362.348022,964.707275,762.231934,394.436646,934.643005,770.770874,338.548889,942.684937,709.378235,308.091064,959.503357,678.340881,286.24765,965.12323,650.061646,276.945587,977.127258,640.787842,346.709534,992.314148,620.009155,348.24411,1007.960571,596.776978,349.442352,1025.895142,192.395935,961.752014,1491.76123,243.364304,947.604553,1512.382568,297.152771,957.968872,1496.605957,34.939674,-28.408001,761.809875,65.660034,-20.219992,755.99762,86.818832,-14.010125,750.291748,-25.592772,-86.014015,763.420166,6.848771,-93.906227,757.551636,40.835175,-97.129082,750.286438,-14.074743,-26.325914,769.966858,-33.42345,-0.493106,759.618835,-64.720894,-24.054056,767.240479,-125.612068,-39.025269,777.749451,401.235626,-341.293579,740.590942,386.321655,-424.861603,740.873352,209.945862,-404.99826,737.853516,225.806915,-320.771393,737.683228,393.643768,-341.20639,1007.1651,382.638062,-429.895599,1006.03363,207.356079,-402.323395,1002.117371,218.124222,-315.306702,1002.393127
00146_color_1715713633.426508.png,1034,1715713633.431143,703.944092,355.505432,962.895935,764.900269,387.62851,933.990356,773.050781,331.569,942.11615,711.242432,301.464722,958.167603,681.170471,279.01416,963.339661,655.641663,268.865601,976.577515,643.583008,340.997192,990.041565,624.389893,343.29657,1006.230591,602.944397,345.925262,1026.052979,192.389389,961.762024,1491.768677,243.354721,947.606628,1512.374634,297.187714,957.943542,1496.661743,34.775711,-28.513872,761.790527,65.463661,-20.310688,755.982727,86.647865,-14.045463,750.315491,-25.779232,-86.065262,763.425964,6.696054,-94.204094,757.741272,40.632343,-97.150414,750.276672,-14.224083,-26.350975,769.954895,-33.541447,-0.482426,759.62146,-64.635597,-24.097956,767.010559,-125.750648,-38.92355,777.749023,384.742401,-338.503906,740.751404,370.291199,-422.121857,741.58667,193.938461,-403.461731,737.765503,209.219009,-319.031189,736.989624,376.201019,-336.118378,1007.547607,365.21933,-424.809845,1006.932739,190.238724,-398.795258,1001.848328,200.414948,-311.825867,1001.668701
00147_color_1715713633.460706.png,1037,1715713633.461143,705.811401,350.818695,962.687927,767.301392,382.879517,934.216553,775.107361,326.74881,941.945557,712.957886,296.822784,957.591614,683.16687,274.282471,962.238159,658.590088,263.755005,975.570251,645.336731,336.015961,989.015869,626.661133,338.387543,1005.631714,605.799683,341.596344,1025.747803,192.384537,961.782166,1491.772095,243.349442,947.608521,1512.375977,296.298065,957.518982,1496.68103,34.62743,-28.575905,761.789978,65.278481,-20.40786,755.948608,86.574417,-13.960629,750.420959,-25.970524,-86.083908,763.468262,6.535416,-94.206055,757.775879,40.453045,-97.135323,750.276062,-14.396966,-26.346542,769.963196,-33.613003,-0.462496,759.638916,-64.671997,-24.026875,767.124146,-125.890778,-38.826332,777.72052,371.782166,-335.390472,740.159607,358.224884,-420.411072,741.691162,181.457092,-401.99234,737.867981,196.069794,-317.663177,736.776367,364.075195,-332.14328,1007.108093,353.801086,-420.770721,1006.484985,178.520584,-396.487457,1001.997375,188.049728,-308.916321,1001.913208
00148_color_1715713633.495070.png,1040,1715713633.491143,707.761475,346.502625,962.867859,769.925537,378.536499,934.910095,777.248657,322.337494,942.250549,714.254761,292.575775,956.991394,684.382324,270.135834,960.921631,659.791321,259.389282,973.948059,647.027222,332.132233,988.569885,628.062927,334.578186,1004.909058,606.708069,337.18988,1024.719116,192.388077,961.771118,1491.762817,243.355118,947.611389,1512.380371,297.235016,957.962952,1496.651733,34.52108,-28.65032,761.793579,65.147255,-20.527266,755.948669,86.45649,-14.038243,750.406555,-26.103382,-86.122711,763.442627,6.385237,-94.269798,757.767639,40.232727,-97.118301,750.39978,-14.476034,-26.411291,769.999756,-33.677963,-0.471309,759.689758,-64.73365,-24.032732,767.1604,-125.985298,-38.766144,777.73468,358.994171,-332.637421,739.718323,346.565582,-417.907562,741.630249,169.439163,-400.340302,737.806396,183.385147,-315.720306,736.813354,351.797333,-329.23822,1006.903625,342.104004,-418.058624,1006.234985,166.73674,-395.321106,1002.00354,175.584671,-307.779327,1001.436829
00149_color_1715713633.529034.png,1044,1715713633.531143,710.278564,341.989441,963.0755,772.814514,373.77182,935.18988,779.749329,317.538605,942.30011,715.767761,287.732086,956.604675,685.807861,266.025574,960.435242,661.026001,255.427368,973.28479,648.663025,327.988373,988.509033,629.003723,330.58252,1004.164124,606.954956,333.363037,1023.222656,192.384003,961.760193,1491.769043,243.353836,947.6073,1512.376465,297.244598,957.979004,1496.645996,34.336639,-28.675632,761.814331,65.051163,-20.464857,756.040039,86.237968,-14.095676,750.399841,-26.350418,-86.078659,763.502136,6.14589,-94.160858,757.820984,40.155392,-97.001007,750.428101,-14.667142,-26.336338,769.986877,-33.839493,-0.358319,759.713989,-64.861092,-23.89765,767.16394,-126.156776,-38.500565,777.688599,343.937988,-329.045197,740.002136,330.904022,-412.950378,740.685852,154.23613,-397.21048,737.349487,168.100021,-312.740509,736.482178,335.919708,-327.158447,1006.540894,326.883911,-416.494415,1006.098877,151.009995,-393.102203,1001.56366,159.787949,-305.603455,1001.28363
00150_color_1715713633.563305.png,1047,1715713633.561143,712.31543,339.499908,963.050598,774.485352,371.008179,934.776306,781.200012,314.704498,941.756042,717.173157,285.013336,956.220581,687.141052,263.652618,960.279846,662.009705,253.034836,973.248291,649.771118,325.151764,988.630127,629.546997,327.87735,1004.180298,607.019043,330.913879,1022.438782,192.368393,961.771729,1491.778076,243.354294,947.602844,1512.375854,297.202789,957.996765,1496.619019,34.174351,-28.724455,761.843933,64.895348,-20.554684,756.026733,86.083359,-14.193323,750.37207,-26.50915,-86.128166,763.490051,5.996153,-94.186127,757.821533,39.979549,-97.034538,750.401306,-14.798301,-26.399097,769.960388,-33.976768,-0.389898,759.747925,-64.972321,-23.909813,767.209045,-126.44313,-38.377327,777.980835,333.415009,-326.895477,740.080811,320.779205,-412.514954,741.359924,143.767639,-395.546448,737.067017,157.54924,-310.800385,736.36853,324.594421,-325.465057,1006.817566,315.898071,-414.521454,1006.114136,140.075378,-391.634399,1001.352051,148.70546,-303.972198,1001.041077
00151_color_1715713633.597713.png,1051,1715713633.601143,715.075317,336.940796,962.904297,776.391235,368.315735,933.783936,782.891541,311.872711,940.578613,719.312805,282.162354,955.39563,688.822266,260.981964,959.940186,663.031799,250.543503,972.975281,651.982117,322.625519,989.632629,631.120789,325.180389,1004.68335,608.018799,328.157013,1022.371399,192.37645,961.774292,1491.776855,243.348953,947.620667,1512.380859,296.286896,957.52771,1496.681519,34.183968,-28.761833,761.921082,64.710777,-20.69478,756.046814,85.854141,-14.322102,750.372314,-26.684959,-86.172852,763.469727,5.810933,-94.226051,757.82251,39.749828,-97.082123,750.362549,-15.048921,-26.580051,769.875854,-34.056194,-0.416375,759.785583,-65.097031,-23.971489,767.243347,-126.610565,-37.981491,778.479431,319.823822,-324.478638,739.84491,307.038574,-408.362701,740.439453,130.164764,-393.268097,736.708679,143.960861,-308.506134,736.17572,311.336273,-322.864899,1006.704468,302.445831,-412.348816,1005.825378,126.617836,-389.39325,1000.913879,135.151642,-302.036224,1000.934692
00152_color_1715713633.632003.png,1054,1715713633.631143,717.013306,335.204193,962.73291,777.656677,366.168762,932.713684,783.975281,309.969543,939.636169,720.548767,280.448669,954.824829,689.871948,259.559235,959.80896,663.719604,249.395004,973.062439,653.587585,320.963806,990.314941,632.343323,323.434509,1005.158691,608.821228,326.156067,1022.364136,192.383835,961.765564,1491.771606,243.35173,947.613831,1512.383057,296.267731,957.504456,1496.685791,34.039047,-28.819639,761.926025,64.579803,-20.757933,756.048218,85.686958,-14.406019,750.363831,-26.821552,-86.186058,763.457214,5.455785,-94.010178,758.117065,39.590233,-97.130363,750.340759,-15.099253,-26.434713,770.055603,-34.030327,-0.290758,759.953796,-65.192818,-23.991901,767.247925,-126.643509,-38.0467,778.375854,311.278442,-322.952637,739.791809,298.782898,-408.968781,741.084656,121.570198,-391.436768,736.567932,135.428696,-306.873108,736.00824,302.597565,-321.283875,1006.797058,293.584137,-410.811829,1005.671631,117.809273,-387.613861,1000.727295,126.442429,-300.190796,1000.749329
