mbdulkadiroglu/VisualAffordanceDataset/synchronized_frames_15.csv
RealSense_frame,Vicon_frame,Vicon_timestamp,RightHand1:Wrist1_X,RightHand1:Wrist1_Y,RightHand1:Wrist1_Z,RightHand1:Wrist2_X,RightHand1:Wrist2_Y,RightHand1:Wrist2_Z,RightHand1:Wrist3_X,RightHand1:Wrist3_Y,RightHand1:Wrist3_Z,RightHand1:Thumb1_X,RightHand1:Thumb1_Y,RightHand1:Thumb1_Z,RightHand1:Thumb2_X,RightHand1:Thumb2_Y,RightHand1:Thumb2_Z,RightHand1:Thumb3_X,RightHand1:Thumb3_Y,RightHand1:Thumb3_Z,RightHand1:IndexFinger1_X,RightHand1:IndexFinger1_Y,RightHand1:IndexFinger1_Z,RightHand1:IndexFinger2_X,RightHand1:IndexFinger2_Y,RightHand1:IndexFinger2_Z,RightHand1:IndexFinger3_X,RightHand1:IndexFinger3_Y,RightHand1:IndexFinger3_Z,LeftHand1:IndexFinger1_X,LeftHand1:IndexFinger1_Y,LeftHand1:IndexFinger1_Z,LeftHand1:IndexFinger2_X,LeftHand1:IndexFinger2_Y,LeftHand1:IndexFinger2_Z,LeftHand1:IndexFinger3_X,LeftHand1:IndexFinger3_Y,LeftHand1:IndexFinger3_Z,LeftHand1:Thumb1_X,LeftHand1:Thumb1_Y,LeftHand1:Thumb1_Z,LeftHand1:Thumb2_X,LeftHand1:Thumb2_Y,LeftHand1:Thumb2_Z,LeftHand1:Thumb3_X,LeftHand1:Thumb3_Y,LeftHand1:Thumb3_Z,LeftHand1:Wrist1_X,LeftHand1:Wrist1_Y,LeftHand1:Wrist1_Z,LeftHand1:Wrist2_X,LeftHand1:Wrist2_Y,LeftHand1:Wrist2_Z,LeftHand1:Wrist3_X,LeftHand1:Wrist3_Y,LeftHand1:Wrist3_Z,LeftHand1:Wrist4_X,LeftHand1:Wrist4_Y,LeftHand1:Wrist4_Z,Realsense:Camera1_X,Realsense:Camera1_Y,Realsense:Camera1_Z,Realsense:Camera2_X,Realsense:Camera2_Y,Realsense:Camera2_Z,Realsense:Camera3_X,Realsense:Camera3_Y,Realsense:Camera3_Z,Cup:Corner1_X,Cup:Corner1_Y,Cup:Corner1_Z,Cup:Corner2_X,Cup:Corner2_Y,Cup:Corner2_Z,Cup:Corner3_X,Cup:Corner3_Y,Cup:Corner3_Z,Cup:Corner4_X,Cup:Corner4_Y,Cup:Corner4_Z,Cup:Corner5_X,Cup:Corner5_Y,Cup:Corner5_Z,Cup:Corner6_X,Cup:Corner6_Y,Cup:Corner6_Z,Cup:Corner7_X,Cup:Corner7_Y,Cup:Corner7_Z,Cup:Corner8_X,Cup:Corner8_Y,Cup:Corner8_Z,Coffee:Corner1_X,Coffee:Corner1_Y,Coffee:Corner1_Z,Coffee:Corner2_X,Coffee:Corner2_Y,Coffee:Corner2_Z,Coffee:Corner3_X,Coffee:Corner3_Y,Coffee:Corner3_Z,Coffee:Corner4_X,Coffee:Corner4_Y,Coffee:Corner4_Z,Coffee:Corner5_X,Coffee:Corner5_Y,Coffee:Corner5_Z,Coffee:Corner6_X,Coffee:Corner6_Y,Coffee:Corner6_Z,Coffee:Corner7_X,Coffee:Corner7_Y,Coffee:Corner7_Z,Coffee:Corner8_X,Coffee:Corner8_Y,Coffee:Corner8_Z
00097_color_1715976876.130028.png,1073,1715976876.133327,-350.99649,146.025024,1074.37146,-419.955353,142.50914,1082.018433,-396.856201,189.574371,1093.934937,-333.540222,199.725159,1068.012695,-299.613556,205.166656,1053.55957,-265.686218,197.388794,1049.020752,-283.7052,130.685593,1055.866699,-261.689362,117.386726,1044.242432,-237.241882,107.301445,1028.172241,290.029114,-22.91963,763.685181,260.281525,-16.535574,756.626709,237.731247,-13.312263,751.486877,369.043732,3.18344,765.61615,341.414459,21.144777,758.360657,310.663757,32.495049,751.168579,331.642426,-46.171284,775.514282,337.18045,-77.846008,766.39978,378.855652,-65.645348,781.820923,443.785278,-68.005783,797.241455,185.940048,980.28363,1492.383179,239.178253,974.158691,1516.292969,290.295166,986.295349,1498.583618,541.786621,-505.742371,834.217224,491.952789,-511.159485,834.026611,484.95166,-450.647461,834.183533,544.147949,-450.882263,834.679443,487.353973,-514.479309,738.22052,481.065002,-438.052826,739.348938,546.503357,-440.734528,739.907166,547.845886,-508.513153,740.231506,322.835693,274.302521,846.072571,392.08197,287.46814,845.507446,374.923615,367.307312,845.75,307.674347,351.490143,844.3797,320.389771,265.161346,741.11554,398.707855,280.872925,740.281616,377.446655,372.862701,738.770508,301.40213,354.163208,738.716125
00098_color_1715976876.167288.png,1076,1715976876.163327,-340.553925,141.98941,1068.72998,-409.364777,138.430786,1077.461304,-386.445618,185.58342,1088.754395,-323.558899,195.415665,1061.802979,-289.726349,201.273834,1047.221191,-255.839371,193.57373,1042.321045,-273.633057,126.604301,1049.761719,-251.719391,113.227226,1038.269409,-227.27121,102.788292,1022.192017,290.033508,-22.912142,763.673279,260.338715,-16.448872,756.637512,237.718689,-13.322934,751.45282,369.040924,3.184987,765.61145,341.465179,21.123524,758.348572,310.694733,32.269379,750.893616,331.624207,-46.175316,775.514526,337.169952,-77.846268,766.389343,378.831055,-65.650375,781.810303,443.782104,-68.030762,797.239319,185.925095,980.335754,1492.334717,239.176331,974.151855,1516.282227,290.293182,986.285828,1498.580688,541.809387,-505.514191,834.079651,491.938873,-511.163879,834.019775,484.940216,-450.6987,834.191711,544.153564,-450.90097,834.666931,487.346832,-514.524902,738.231445,481.053772,-438.046265,739.316528,546.507935,-440.754181,739.901917,547.835693,-508.545044,740.224243,322.847534,274.266266,846.048096,392.064148,287.443176,845.485962,374.837891,367.382568,845.9151,307.679901,351.494751,844.38678,320.385284,265.162903,741.117249,398.691772,280.840332,740.261353,377.449005,372.855713,738.765991,301.392975,354.158142,738.710022
00099_color_1715976876.202351.png,1080,1715976876.203327,-326.180237,136.121338,1061.368408,-395.091187,132.071243,1071.003052,-372.30661,179.560654,1081.555176,-309.830872,189.654755,1053.653442,-276.32077,195.513168,1038.612671,-242.481567,188.08165,1033.427734,-259.788055,120.914352,1041.890015,-237.938919,107.326218,1030.689087,-213.426788,96.639565,1014.935364,289.994415,-22.855021,763.689331,260.373138,-16.315325,756.690674,237.701462,-13.272874,751.443359,369.03302,3.237813,765.625793,341.423767,21.21159,758.317627,310.665894,32.556221,751.098694,331.617371,-46.117592,775.525757,337.161652,-77.791954,766.400452,378.805237,-65.591888,781.849609,443.742004,-68.086456,797.255859,185.925278,980.283508,1492.35376,239.17186,974.159119,1516.291138,290.296539,986.293945,1498.59375,541.497009,-506.191956,834.128113,491.935364,-511.164124,834.027283,484.709229,-451.257629,834.233643,544.153992,-450.817413,834.640198,487.296295,-513.607117,737.684814,481.047821,-438.063934,739.323547,546.497559,-440.756927,739.909607,547.843384,-508.529663,740.228149,322.841705,274.294922,846.054993,392.078827,287.454834,845.499695,374.820282,367.379547,845.908142,307.674286,351.482788,844.363037,320.390656,265.167694,741.12207,398.694122,280.86087,740.274536,377.430115,372.872375,738.790405,301.394592,354.153992,738.719116
00100_color_1715976876.237689.png,1083,1715976876.2333272,-315.483673,131.217285,1056.432373,-384.039917,126.833855,1066.505371,-361.532043,174.954437,1076.437988,-299.21405,184.455597,1048.168701,-265.788025,190.192719,1032.887329,-231.836548,183.155518,1027.669067,-249.196777,115.827301,1036.370117,-227.403564,102.064133,1025.385986,-202.801224,91.166969,1009.730591,289.983307,-22.793728,763.721191,260.333618,-16.285263,756.685059,237.659561,-13.254385,751.419373,369.017242,3.277126,765.621277,341.424194,21.270283,758.308655,310.693512,32.359066,750.832947,331.578857,-46.052784,775.530457,337.163361,-77.730537,766.395142,378.765625,-65.573265,781.87616,443.7052,-68.140839,797.261475,185.946777,980.348999,1492.312622,239.17598,974.15863,1516.288086,290.285278,986.297485,1498.59668,541.489136,-506.217834,834.124878,491.928741,-511.165863,834.033508,484.701141,-451.260468,834.2229,544.154236,-450.756805,834.571838,487.299042,-513.599365,737.659912,481.037323,-438.066132,739.32843,546.505005,-440.807983,739.882263,547.816772,-508.544434,740.216553,322.828583,274.289337,846.051697,392.064056,287.437378,845.482849,374.915649,367.286377,845.740723,307.677612,351.485352,844.369507,320.371063,265.164124,741.104919,398.69104,280.832855,740.248108,377.460846,372.861633,738.772522,301.385895,354.150085,738.71814
00101_color_1715976876.272689.png,1087,1715976876.273327,-300.575989,123.455574,1050.722046,-368.886444,118.807327,1061.424805,-346.692749,166.716583,1071.018433,-284.770081,176.943451,1042.076172,-251.576126,182.851227,1026.523438,-217.437225,175.916992,1021.043518,-234.471252,108.469559,1030.609497,-212.591766,94.495636,1019.801636,-188.062363,83.329666,1004.372375,289.957336,-22.701714,763.830383,260.283112,-16.261343,756.694641,237.639008,-13.21307,751.419617,369.033234,3.285169,765.656799,341.427795,21.267002,758.295593,310.697876,32.352421,750.807068,331.547821,-46.027195,775.612549,337.125427,-77.724663,766.413635,378.771149,-65.60215,781.886169,443.677582,-68.277534,797.222595,185.944687,980.289001,1492.322388,239.17334,974.152893,1516.287354,290.284363,986.28772,1498.586426,541.488342,-506.207886,834.124207,491.941956,-511.152496,834.028259,484.70285,-451.260773,834.24707,543.914429,-451.226013,834.563599,487.308594,-513.61438,737.695251,481.030151,-438.036316,739.289734,546.507629,-440.767273,739.896423,547.841431,-508.534607,740.224365,322.83667,274.298157,846.044312,392.060883,287.437714,845.479858,374.831604,367.378876,845.880981,307.668945,351.486115,844.354675,320.387115,265.147552,741.099609,398.685669,280.85495,740.25,377.455139,372.865845,738.76593,301.390839,354.156067,738.696411
00102_color_1715976876.307661.png,1090,1715976876.303327,-289.076721,117.123436,1047.14917,-357.309021,111.466248,1058.524658,-335.602386,159.749283,1067.352905,-273.857239,170.655838,1037.752075,-240.714752,176.894211,1022.239685,-206.830521,170.199188,1016.646729,-222.816757,102.610275,1027.164429,-200.788834,88.932045,1016.680237,-176.100327,77.80397,1001.467712,289.891876,-22.64253,763.953308,260.202728,-16.248232,756.718201,237.893738,-12.800689,751.596741,368.991882,3.291068,765.693665,341.4151,21.276615,758.324158,310.6745,32.354744,750.770935,331.521179,-46.020969,775.689514,337.063141,-77.751579,766.39502,378.762085,-65.625084,781.867615,443.657257,-68.324051,797.189697,185.946381,980.339539,1492.310669,239.168961,974.160034,1516.291992,290.289246,986.298889,1498.59668,541.485046,-506.221161,834.128723,491.942841,-511.152222,834.033691,484.717041,-451.252777,834.226013,543.90863,-451.23877,834.56427,487.302521,-513.590271,737.66095,480.510101,-438.951477,738.992676,546.497314,-440.730499,739.885986,547.817993,-508.537048,740.221069,322.835541,274.288361,846.026672,392.065826,287.459076,845.495361,374.902405,367.282104,845.718323,307.667511,351.476074,844.35907,320.377441,265.169678,741.097046,398.689392,280.852417,740.253296,377.430908,372.871521,738.758484,301.390167,354.147491,738.695007
00103_color_1715976876.342596.png,1094,1715976876.343327,-273.476868,107.129196,1042.75769,-341.421509,100.886978,1054.752808,-320.406677,149.571335,1062.625854,-258.957153,160.864563,1032.610962,-225.939392,167.442993,1016.779297,-191.825958,161.142014,1011.197815,-207.026611,93.5802,1023.172241,-184.804306,79.827774,1012.798645,-159.891205,68.899055,997.746887,289.82608,-22.596989,764.047913,260.131989,-16.208569,756.756042,237.905914,-12.697521,751.624084,368.951935,3.293844,765.733398,341.374878,21.27422,758.344177,310.661438,32.330647,750.720703,331.462006,-46.057789,775.814453,337.023193,-77.774544,766.422974,378.746857,-65.647583,781.902649,443.636139,-68.364754,797.192749,185.921768,980.279236,1492.337769,239.16832,974.168518,1516.290649,290.290649,986.29718,1498.586914,541.482971,-506.203308,834.11615,491.935547,-511.146912,834.021973,484.716522,-451.241791,834.228516,543.918579,-451.220581,834.55127,487.305542,-513.623291,737.669617,480.511902,-438.921875,738.990906,546.526062,-440.522644,739.847961,547.833618,-508.521606,740.214355,322.833374,274.295868,846.039001,392.075348,287.454407,845.494141,374.820679,367.387634,845.881714,307.665405,351.47702,844.348877,320.37738,265.159973,741.094666,398.687744,280.857086,740.25531,377.438446,372.870483,738.76001,301.39209,354.163086,738.702026
00104_color_1715976876.377575.png,1097,1715976876.373327,-261.428558,98.264244,1039.650879,-329.214111,91.56826,1051.850586,-308.583252,140.571503,1058.997314,-247.352051,151.949356,1028.83728,-214.508926,158.556564,1012.863159,-180.235077,152.612305,1007.306702,-194.895294,84.859474,1020.243408,-172.493423,71.329781,1009.97113,-147.480652,60.317585,995.159546,289.812805,-22.559801,764.094299,260.112823,-16.215841,756.755127,237.943665,-12.629211,751.657104,368.95816,3.284904,765.732544,341.383026,21.272062,758.351501,310.658722,32.330898,750.708923,331.449432,-46.055496,775.872864,337.038422,-77.757484,766.439087,378.747955,-65.640526,781.930664,443.640442,-68.36692,797.197388,185.945724,980.269348,1492.331299,239.170853,974.155212,1516.291138,290.289276,986.295654,1498.596313,541.490784,-506.211395,834.115784,491.935028,-511.160553,834.01416,484.723999,-451.239136,834.208008,543.913513,-451.227936,834.547424,487.309296,-513.614624,737.672546,480.677734,-438.98526,739.079407,546.150696,-441.429932,739.714233,547.839966,-508.529602,740.216553,322.828735,274.289642,846.032288,392.070374,287.445221,845.48761,374.825195,367.378601,845.877441,307.668976,351.474731,844.351135,320.38028,265.169128,741.078552,398.691193,280.827423,740.232361,377.43573,372.862518,738.75946,301.384064,354.155762,738.699951
00105_color_1715976876.412480.png,1101,1715976876.413327,-244.417175,84.063049,1035.111816,-311.797943,76.753738,1047.559082,-291.64856,126.081779,1053.832642,-230.686508,137.746628,1023.370605,-197.78537,144.315781,1007.247437,-163.57637,138.40625,1001.520508,-177.760635,70.600388,1015.61676,-155.287277,57.275642,1005.716675,-130.221207,46.417992,991.118958,289.809509,-22.54785,764.136841,260.114349,-16.185429,756.77417,237.984604,-12.565751,751.684998,368.935852,3.290809,765.763977,341.3703,21.261003,758.363464,310.676697,32.302475,750.692261,331.451599,-46.040249,775.961914,336.990997,-77.768112,766.439575,378.727722,-65.677658,781.97937,443.629791,-68.412346,797.236023,185.951096,980.259094,1492.337036,239.170624,974.153198,1516.290649,290.285217,986.287659,1498.588623,541.495422,-506.19812,834.108459,491.944885,-511.172424,834.017151,484.731537,-451.252045,834.209961,543.928589,-451.225677,834.539429,487.326752,-513.619812,737.653931,480.518158,-438.947449,738.987671,546.302185,-441.369049,739.643066,547.825317,-508.534027,740.209167,322.852753,274.279816,846.002686,392.070343,287.425751,845.4599,374.83194,367.370911,845.876587,307.673706,351.47876,844.344055,320.407379,265.158997,741.076355,398.694977,280.865997,740.255859,377.433807,372.860596,738.74353,301.390259,354.158112,738.691528
00106_color_1715976876.447237.png,1104,1715976876.443327,-230.761566,71.936966,1031.199829,-297.865662,64.415596,1043.775391,-278.085266,113.866333,1049.359863,-217.399368,125.459793,1018.750793,-184.339081,132.197723,1002.673645,-150.236481,126.396851,997.013855,-163.88089,58.628555,1011.966919,-141.424911,45.151142,1002.059448,-116.412971,34.077744,987.542175,289.808807,-22.534033,764.16925,260.118652,-16.190216,756.775574,237.972916,-12.57881,751.669006,368.926636,3.271874,765.787964,341.370697,21.243872,758.375854,310.660645,32.285522,750.704834,331.444336,-46.054768,776.009155,336.974518,-77.80883,766.443604,378.726044,-65.677521,782.016357,443.630524,-68.478851,797.245911,185.940933,980.326233,1492.332764,239.170395,974.155579,1516.283936,290.290222,986.297485,1498.591187,541.512085,-506.19989,834.10437,491.957794,-511.148285,834.016907,484.728577,-451.256348,834.213989,543.933594,-451.211853,834.53772,487.323822,-513.623718,737.653992,480.525604,-438.944519,738.987671,546.230591,-441.59314,739.605652,547.831665,-508.529419,740.201538,322.847748,274.310028,846.02002,392.091278,287.424896,845.454407,374.858124,367.367035,845.863403,307.685211,351.468475,844.34259,320.396698,265.175507,741.079712,398.691589,280.864532,740.233948,377.443237,372.868286,738.750916,301.400726,354.154694,738.687134
00107_color_1715976876.482331.png,1108,1715976876.4833272,-211.28627,53.813389,1025.344727,-277.968933,46.006676,1037.802002,-258.6091,95.664513,1042.590454,-198.01503,107.306732,1012.065796,-165.045914,113.87236,995.90564,-130.869797,108.050766,990.296631,-144.175125,40.476536,1006.486206,-121.623367,26.879566,997.023621,-96.570831,15.683309,982.627136,289.818817,-22.502228,764.226135,260.124817,-16.175148,756.793579,237.990479,-12.55403,751.67688,368.875885,3.205155,765.813904,341.385376,21.199923,758.405884,310.714081,32.254669,750.717834,331.457611,-46.063606,776.094116,336.987549,-77.804947,766.455688,378.734406,-65.736778,782.066101,443.640656,-68.597206,797.301392,185.943222,980.322388,1492.320435,239.18074,974.157593,1516.292114,290.287415,986.283508,1498.576172,541.535522,-506.1828,834.099854,491.976898,-511.149292,833.997803,484.75946,-451.246704,834.203918,543.961731,-451.212555,834.535645,487.338806,-513.61792,737.653748,480.561676,-438.902679,739.001953,546.268921,-441.427673,739.651062,547.858887,-508.531738,740.191223,322.857117,274.285919,845.99939,392.097137,287.423248,845.44928,374.866577,367.37326,845.858398,307.700409,351.48056,844.347595,320.403412,265.167206,741.078918,398.724579,280.835144,740.213989,377.446442,372.873077,738.751282,301.41803,354.160156,738.694824
00108_color_1715976876.517108.png,1111,1715976876.5133271,-195.759933,39.170139,1020.16449,-262.126373,31.192331,1032.470459,-242.893265,81.054871,1036.9552,-182.502411,92.562508,1006.569275,-149.317383,99.136581,990.490723,-115.354195,93.146072,985.000122,-128.534439,25.784355,1001.697327,-105.936111,12.124499,992.261353,-80.84024,0.734627,977.986877,289.856384,-22.495846,764.318115,260.171051,-16.16641,756.861633,238.035736,-12.53793,751.693848,368.934998,3.161325,765.866943,341.386383,21.137424,758.472656,310.719849,32.214329,750.786926,331.509827,-46.218563,776.24939,337.052521,-77.846184,766.482483,378.788696,-65.801102,782.067017,443.687592,-68.662506,797.282959,185.939056,980.269409,1492.349976,239.173187,974.159302,1516.288818,290.288239,986.273315,1498.568237,541.577576,-506.166168,834.111938,492.013245,-511.145996,833.997803,484.80957,-451.214142,834.234131,543.997925,-451.185333,834.542908,487.396851,-513.544189,737.672913,480.60379,-438.88736,739.014221,546.323425,-441.541565,739.566528,547.918152,-508.504639,740.205017,322.869171,274.326599,846.02533,392.113434,287.480408,845.475708,374.879333,367.401886,845.866577,307.708069,351.49176,844.335632,320.421875,265.198853,741.095642,398.722687,280.879578,740.231445,377.464508,372.898865,738.75354,301.419434,354.179077,738.692505
00109_color_1715976876.552199.png,1115,1715976876.553327,-173.587585,19.192339,1011.650208,-239.630981,10.826192,1024.23584,-220.705399,60.797951,1028.284912,-160.546112,72.462151,997.561951,-127.478256,79.125618,981.56134,-93.317078,73.050774,975.807007,-106.363922,6.014771,993.136963,-83.786331,-7.660095,983.763367,-58.76368,-19.102846,969.476624,289.869385,-22.490616,764.372803,260.191772,-16.160448,756.893066,238.073395,-12.529305,751.689941,368.961487,3.133124,765.914612,341.435791,21.080507,758.499817,310.746857,32.221329,750.813293,331.526611,-46.332905,776.375854,337.089264,-77.888031,766.501953,378.83902,-65.809196,782.05127,443.727692,-68.685425,797.232239,185.942825,980.320923,1492.335693,239.171478,974.169189,1516.287231,290.281342,986.259094,1498.561523,541.616699,-506.142792,834.094299,492.056488,-511.101318,834.000427,484.836975,-451.174774,834.22345,544.044495,-451.145599,834.526917,487.415161,-513.531128,737.672058,480.642456,-438.868225,739.007996,546.363708,-441.410278,739.625977,547.946899,-508.482513,740.193787,322.909241,274.335999,846.01416,392.136414,287.505249,845.471985,374.980408,367.354279,845.724121,307.721558,351.52948,844.341309,320.432953,265.214203,741.095215,398.734497,280.901184,740.225952,377.486664,372.921295,738.745789,301.43219,354.209564,738.688782
00110_color_1715976876.587141.png,1118,1715976876.583327,-156.272949,4.654101,1004.431702,-221.559998,-4.542738,1017.25769,-203.144775,45.756954,1020.852356,-143.670044,57.935081,989.819763,-110.908882,64.324348,973.320496,-76.431763,59.101921,968.283813,-88.909409,-8.182192,986.067566,-66.212982,-21.84288,976.808411,-41.029408,-33.26368,962.7146,289.830292,-22.473255,764.428101,260.14624,-16.146276,756.900146,238.028152,-12.506745,751.701172,368.912689,3.12706,765.967163,341.355316,21.09874,758.533264,310.716675,32.231167,750.816284,331.470001,-46.351494,776.435059,337.043549,-77.873154,766.533569,378.785828,-65.824364,782.140991,443.687897,-68.693321,797.311462,185.923737,980.266541,1492.37915,239.166611,974.170837,1516.292358,290.282501,986.285645,1498.57959,541.599548,-506.128906,834.118713,492.050018,-511.101837,834.019531,484.84021,-451.172729,834.234314,544.025269,-451.147339,834.535095,487.419647,-513.525513,737.688599,480.607239,-438.885406,738.987732,546.352783,-441.482269,739.588318,547.946533,-508.467133,740.213501,322.888306,274.325714,846.039734,392.133881,287.510468,845.491943,374.873199,367.411621,845.858337,307.699219,351.508484,844.338806,320.42868,265.203735,741.111633,398.739197,280.908539,740.26825,377.449127,372.926697,738.777893,301.427612,354.197083,738.6875
00111_color_1715976876.622374.png,1122,1715976876.623327,-131.808472,-13.981152,994.105042,-196.173141,-24.701044,1007.61792,-178.953293,26.079433,1010.539429,-120.400932,39.368214,978.724792,-87.956512,46.297447,961.842102,-53.476116,41.522774,956.29187,-64.358803,-25.728626,975.52356,-41.405426,-38.833004,966.793152,-16.060259,-50.099483,952.691772,289.82782,-22.462717,764.474304,260.145905,-16.13385,756.923157,238.044388,-12.475236,751.702148,368.85611,3.039604,766.02002,341.374756,21.033749,758.593079,310.726807,32.225536,750.870361,331.436401,-46.363674,776.510681,337.003662,-77.901764,766.538086,378.737518,-65.857094,782.266174,443.64624,-68.816177,797.404236,185.938446,980.281494,1492.366821,239.162949,974.167114,1516.288818,290.286713,986.296753,1498.589233,541.625,-506.133606,834.125488,492.118439,-511.236847,834.180176,484.856812,-451.166046,834.239197,544.047546,-451.136444,834.555908,487.477661,-513.468506,737.668762,480.672058,-438.852173,739.009277,546.386169,-441.387848,739.650635,547.998718,-508.442932,740.218384,322.910278,274.363098,846.052185,392.154388,287.53772,845.493103,374.898193,367.451111,845.869568,307.713928,351.539825,844.356689,320.434662,265.222473,741.106018,398.749298,280.917389,740.237488,377.456604,372.945526,738.764587,301.426544,354.224518,738.705383
00112_color_1715976876.657093.png,1125,1715976876.653327,-113.0336,-26.989819,986.617676,-176.893234,-39.075375,1000.644104,-160.627411,11.979364,1003.084778,-102.836502,26.545235,970.881775,-70.688576,33.905506,953.717163,-36.121593,29.63019,947.951416,-45.685005,-37.368862,968.056091,-22.442381,-50.408833,959.313354,3.186657,-61.123974,945.466858,289.895233,-22.338102,764.499817,260.175934,-16.048195,756.912537,238.070145,-12.43014,751.691406,368.937042,3.130377,766.032227,341.423462,21.099575,758.558716,310.798859,32.244595,750.787781,331.47876,-46.286621,776.579163,337.045197,-77.850891,766.584106,378.734314,-65.771523,782.360596,443.699249,-68.806435,797.442078,185.923096,980.316528,1492.359131,239.169846,974.16925,1516.291748,290.285675,986.29834,1498.587158,541.69165,-506.113098,834.090515,492.270416,-510.937164,834.13208,484.898773,-451.158539,834.221497,544.127563,-451.101837,834.53479,487.496826,-513.50238,737.682678,480.709076,-438.7966,739.021851,546.418091,-441.36438,739.642456,548.024353,-508.419525,740.196167,322.949463,274.378357,846.023193,392.169373,287.530762,845.454163,375.011505,367.372284,845.686462,307.755157,351.541382,844.326538,320.468262,265.247284,741.088257,398.776337,280.930206,740.227173,377.502075,372.963562,738.744995,301.459198,354.225616,738.675476
00113_color_1715976876.691858.png,1129,1715976876.693327,-88.763695,-43.476772,976.98761,-152.37532,-56.646866,991.338318,-137.175873,-5.327075,994.090454,-80.051483,10.363418,961.43927,-48.135803,18.916115,944.709229,-13.583939,15.421984,938.699951,-21.58223,-51.680126,958.422791,1.931614,-64.090935,949.639038,27.815098,-74.152306,935.680298,289.776367,-22.489727,764.518555,260.097565,-16.149872,756.957275,237.990494,-12.492707,751.708679,368.802277,2.919816,766.083008,341.306641,20.936848,758.639404,310.728088,32.096043,750.845703,331.393494,-46.457619,776.671509,336.929047,-78.000336,766.536682,378.588806,-65.859116,782.466125,443.587006,-69.087708,797.472534,185.936691,980.253113,1492.358032,239.165283,974.167175,1516.291626,290.289581,986.307983,1498.5979,541.586365,-506.165375,834.099182,492.268677,-510.873627,834.119568,484.833832,-451.225311,834.206116,544.020752,-451.216217,834.537598,487.419617,-513.591675,737.654114,480.628754,-438.89679,739.007568,546.324707,-441.469971,739.630005,547.927063,-508.507477,740.184875,322.906799,274.304901,846.03418,392.146179,287.436798,845.468994,374.89212,367.369781,845.855164,307.718964,351.482086,844.356567,320.439941,265.179779,741.097656,398.731934,280.847046,740.223877,377.462891,372.880859,738.767151,301.436768,354.166077,738.689941
00114_color_1715976876.726756.png,1132,1715976876.723327,-72.143814,-54.36404,969.537231,-135.356155,-68.651672,984.269592,-121.042618,-17.161705,987.332214,-64.522652,-0.277355,954.427612,-32.750492,8.893875,937.602539,1.672008,5.910643,931.359131,-4.829556,-61.205959,950.608459,18.750095,-72.99147,941.435059,44.705463,-82.492722,927.261292,289.86734,-22.442532,764.53595,260.182373,-16.141722,756.942871,238.08667,-12.505426,751.706909,368.942657,2.927415,766.11084,341.436768,20.939465,758.650574,310.840576,32.112526,750.842529,331.47821,-46.480701,776.689697,337.033966,-77.978622,766.542175,378.62796,-65.842262,782.500488,443.662659,-69.183105,797.43988,185.941254,980.320984,1492.373901,239.167786,974.163696,1516.289551,290.290619,986.292908,1498.581909,541.684937,-506.181122,834.055603,492.406311,-510.835693,834.080933,484.932648,-451.224304,834.188538,544.132507,-451.170532,834.503235,487.494141,-513.599854,737.614014,480.724213,-438.913452,738.953613,547.06781,-442.924286,739.624207,548.043762,-508.523407,740.136902,323.009644,274.311676,846.022522,392.229309,287.440308,845.440186,375.084137,367.297241,845.683899,307.806427,351.487244,844.352051,320.506409,265.17572,741.083984,398.822205,280.856567,740.210144,377.549164,372.892456,738.74762,301.510712,354.139618,738.669067
00115_color_1715976876.760836.png,1136,1715976876.7633271,-52.69276,-67.167023,958.989624,-115.339272,-83.527924,974.363098,-102.523308,-31.630489,977.376221,-46.784214,-12.76795,943.94104,-15.669436,-3.104935,926.118103,18.832695,-5.076222,919.494141,14.313917,-72.317543,938.887329,38.120079,-83.442444,929.470032,64.164055,-92.196007,915.013428,290.007996,-22.43207,764.603821,260.311615,-16.159147,756.988953,238.232605,-12.488886,751.732971,369.070984,2.880644,766.189087,341.572632,20.891752,758.727112,310.988708,32.125946,750.888245,331.654572,-46.540215,776.776611,337.175201,-78.039703,766.555176,378.752899,-65.906128,782.543152,443.798553,-69.345596,797.404968,185.929825,980.303345,1492.333618,239.1604,974.166626,1516.286499,290.285736,986.289795,1498.579712,541.926453,-506.134583,834.00647,492.657379,-510.760773,834.080566,485.144714,-451.129059,834.162109,544.348816,-451.101105,834.456665,487.732666,-513.456116,737.57782,480.936279,-438.873566,738.951477,547.209717,-442.738037,739.47345,548.278748,-508.462738,740.111755,323.10141,274.337952,846.016724,392.307922,287.495087,845.44342,375.174896,367.34082,845.668091,307.890442,351.524902,844.345032,320.593658,265.215607,741.092468,398.916107,280.904175,740.205505,377.641663,372.943451,738.730103,301.563049,354.195892,738.674438
00116_color_1715976876.795135.png,1139,1715976876.793327,-40.398075,-76.50042,949.692261,-102.48481,-94.257439,965.809814,-90.833252,-42.127186,968.588501,-35.877945,-22.236624,934.295471,-5.161133,-11.698816,916.322021,29.213982,-13.144342,909.179504,26.223415,-80.399826,928.662781,50.219044,-90.888832,919.051697,76.393501,-98.995552,904.267822,290.065094,-22.2852,764.637085,260.344421,-16.024374,756.990417,238.249435,-12.384749,751.723755,369.135284,3.004192,766.180664,341.620026,21.071981,758.732178,311.023956,32.26833,750.864624,331.66687,-46.37265,776.804932,337.236084,-77.922676,766.617615,378.804535,-65.747017,782.599243,443.859589,-69.177284,797.477844,185.937119,980.309021,1492.376343,239.168823,974.169861,1516.284912,290.291809,986.315369,1498.592896,541.993103,-506.022339,834.019287,492.73761,-510.761688,834.104553,485.254944,-451.02774,834.173401,544.454346,-451.020203,834.434021,487.832367,-513.366638,737.592468,481.037842,-438.805847,738.954407,546.733582,-441.256439,739.570068,548.378723,-508.381531,740.114929,323.135925,274.411896,846.027954,392.362518,287.575684,845.423157,375.247437,367.402222,845.62616,307.920776,351.58432,844.34552,320.641937,265.275574,741.092285,398.940033,280.969727,740.186035,377.688263,373.01236,738.698181,301.596924,354.249268,738.658508
00117_color_1715976876.829399.png,1143,1715976876.833327,-27.156664,-89.21067,934.797913,-88.325249,-108.251541,952.640808,-77.772728,-55.759964,955.263,-24.257347,-34.497314,919.51123,5.953071,-23.49605,900.618347,40.055843,-24.27256,892.439087,39.173824,-91.13604,912.29895,63.087433,-101.41021,902.158691,89.026489,-108.822716,886.765442,290.016815,-22.29282,764.616638,260.307861,-16.0369,756.971985,238.215378,-12.40229,751.697266,369.110199,3.036761,766.216797,341.579498,21.06826,758.719482,310.975983,32.231289,750.817688,331.639679,-46.381554,776.794495,337.184692,-77.927849,766.6026,378.737915,-65.763474,782.655457,443.808746,-69.14666,797.528809,185.934143,980.214783,1492.376831,239.168091,974.166992,1516.284058,290.290436,986.308472,1498.5896,541.989197,-506.072357,834.004272,492.481354,-511.231415,834.155945,485.179016,-451.05835,834.167969,544.398132,-451.039673,834.450439,487.753082,-513.441284,737.596191,480.958466,-438.81424,738.936523,546.979187,-442.070587,739.549133,548.308044,-508.407288,740.112244,323.107635,274.389252,846.025452,392.33786,287.535492,845.423584,375.237427,367.365082,845.602417,307.902832,351.558807,844.337158,320.61322,265.242004,741.08075,398.915283,280.964569,740.198486,377.665039,372.979889,738.706421,301.589905,354.221313,738.655151
00118_color_1715976876.863910.png,1146,1715976876.863327,-19.48543,-99.034172,922.615295,-79.93718,-118.853714,941.688599,-70.247299,-66.209885,944.171936,-17.941629,-44.731079,906.665283,12.062198,-33.135052,887.848328,46.149849,-33.343956,879.250183,46.315304,-99.943153,899.153748,70.215721,-109.76474,888.584839,96.03508,-116.884148,872.876343,289.846741,-22.338291,764.602234,260.130402,-16.041677,756.939941,238.049942,-12.408595,751.653503,368.919189,3.051055,766.229248,341.426758,21.026583,758.639038,310.849121,32.233074,750.767029,331.441895,-46.358955,776.857422,336.985443,-77.875153,766.594177,378.571808,-65.780205,782.708313,443.628265,-69.142265,797.618713,185.928757,980.356262,1492.352295,239.16954,974.164246,1516.288818,290.296875,986.309814,1498.603394,541.728943,-506.119659,834.039978,492.199585,-511.120972,833.948486,484.99408,-451.173767,834.157776,544.180725,-451.1604,834.443909,487.505585,-513.594604,737.618103,480.746948,-438.903717,738.951416,546.698181,-442.044586,739.565063,548.098328,-508.507263,740.12616,323.00943,274.320892,846.030945,392.232819,287.440979,845.418213,375.122162,367.291138,845.636536,307.818054,351.481476,844.331055,320.524139,265.18811,741.07251,398.829681,280.877075,740.188477,377.566223,372.907013,738.72113,301.511841,354.165863,738.664917
00119_color_1715976876.898223.png,1149,1715976876.893327,-13.818184,-108.894569,910.502686,-73.485451,-129.662811,930.306274,-64.410332,-76.890419,932.716003,-12.653252,-54.187737,894.894836,16.596111,-42.858906,874.946777,50.45195,-42.880718,865.893799,51.661015,-109.277077,885.679138,75.765236,-118.649986,874.900024,101.337959,-125.552383,858.791077,289.697021,-22.414112,764.557678,260.002777,-16.090672,756.895813,237.916122,-12.443209,751.608337,368.748779,2.936563,766.193359,341.293671,20.960478,758.620117,310.709717,32.168411,750.73291,331.29126,-46.407806,776.826355,336.809479,-77.923225,766.495911,378.414764,-65.882118,782.758789,443.485687,-69.280106,797.656738,185.947922,980.258911,1492.326782,239.179367,974.165222,1516.295654,290.292969,986.280884,1498.583496,541.587097,-506.284546,834.020203,492.014893,-511.225952,833.937988,484.820587,-451.309021,834.127075,544.001953,-451.265686,834.458496,487.368561,-513.689453,737.579895,480.585297,-439.012634,738.933472,546.462463,-442.033844,739.555847,547.898621,-508.648407,740.116272,322.962463,274.188141,845.969482,392.184998,287.330414,845.381287,375.044556,367.200684,845.660583,307.777985,351.391266,844.3125,320.481354,265.080994,741.037903,398.77301,280.763794,740.173279,377.509827,372.779877,738.705627,301.472534,354.082886,738.65863
00120_color_1715976876.932860.png,1153,1715976876.933327,-8.242035,-121.925385,894.480408,-67.160416,-143.796982,915.029846,-59.025631,-90.830009,917.010437,-8.494311,-67.75869,877.961609,20.783701,-56.503777,857.424622,54.250641,-56.671944,847.602356,56.753586,-122.116966,868.841125,80.774261,-131.269196,857.762268,106.088814,-138.169525,841.309387,289.73645,-22.328707,764.617249,260.020325,-16.024014,756.913818,237.944092,-12.376534,751.61615,368.805756,3.007448,766.298889,341.312744,21.036148,758.683289,310.742615,32.19688,750.708191,331.308838,-46.36356,776.892029,336.846954,-77.872528,766.532166,378.548431,-65.979156,782.711426,443.489594,-69.299171,797.744812,185.946793,980.292725,1492.332764,239.17926,974.163818,1516.290405,290.299713,986.300964,1498.593506,541.51947,-506.256989,834.05426,491.998566,-511.21991,833.897461,484.76059,-451.339172,834.12439,543.962402,-451.299805,834.533569,487.462585,-513.621155,737.509399,480.655212,-438.968323,738.922363,546.438232,-441.666443,739.658997,547.985046,-508.575134,740.139038,323.01297,274.267731,845.993164,392.214569,287.416138,845.400024,375.073456,367.269257,845.655273,307.810913,351.44812,844.321838,320.502441,265.139526,741.057617,398.812347,280.8349,740.175842,377.524536,372.868469,738.718689,301.491028,354.147858,738.66748
00121_color_1715976876.966963.png,1156,1715976876.963327,-5.382244,-131.750961,883.006287,-63.766716,-154.394135,903.749756,-56.493526,-101.336853,905.180237,-6.43383,-77.90667,865.420105,22.606434,-66.85923,844.803467,56.131607,-66.826965,835.009521,59.704941,-130.963959,857.133301,83.531685,-140.229553,846.024048,109.084038,-147.07283,829.63147,289.844727,-22.255556,764.637329,260.131104,-15.979976,756.954834,238.043213,-12.355824,751.619263,368.902374,3.094532,766.30481,341.458038,21.120258,758.69519,310.855713,32.313595,750.766846,331.423187,-46.300545,776.961914,337.009674,-77.810196,766.61969,378.654114,-65.822472,782.780518,443.634918,-69.179665,797.753723,185.94136,980.243408,1492.315918,239.173233,974.169434,1516.290894,290.28775,986.295837,1498.592773,541.784973,-506.138916,834.005859,492.260773,-511.108826,833.904724,485.027222,-451.217499,834.114258,544.217773,-451.156128,834.452026,487.649597,-513.478271,737.514709,480.835327,-438.872101,738.930725,546.500854,-441.374237,739.624268,548.163391,-508.48645,740.085449,323.066193,274.299652,845.989136,392.261932,287.447784,845.383911,375.139801,367.320312,845.634216,307.842224,351.510254,844.331848,320.557312,265.176483,741.046814,398.858612,280.875122,740.159668,377.608337,372.923584,738.699524,301.532654,354.184753,738.656189
00122_color_1715976877.001091.png,1160,1715976877.0033271,-2.911411,-143.54483,869.455261,-60.42942,-168.085922,889.959534,-55.014404,-114.519142,890.108154,-5.283172,-90.376297,849.860352,24.354801,-78.435371,829.854736,57.466743,-78.798065,819.934631,62.567822,-141.121124,844.849915,86.885963,-150.273621,833.996887,112.697014,-157.013794,818.093628,289.785919,-22.27523,764.602295,260.084839,-15.988333,756.926392,238.001358,-12.335003,751.617981,368.854492,3.112174,766.288086,341.390411,21.112629,758.687317,310.807037,32.2603,750.711365,331.332336,-46.304539,776.890625,336.953125,-77.814285,766.581665,378.507568,-65.691826,782.841797,443.58725,-69.138496,797.735535,185.925278,980.362427,1492.337891,239.17717,974.169434,1516.292236,290.28772,986.294434,1498.578857,541.743042,-506.105957,834.030518,492.2034,-511.07132,833.957703,484.971558,-451.134552,834.158447,544.197327,-451.107269,834.44873,487.514709,-513.517578,737.577881,480.725433,-438.870026,738.933411,546.352905,-441.271271,739.604004,548.062744,-508.463806,740.108826,323.007507,274.320679,845.983887,392.217957,287.471436,845.379944,375.096802,367.317444,845.619507,307.818726,351.512695,844.311523,320.524628,265.174774,741.041687,398.821747,280.88736,740.155457,377.567505,372.927063,738.692505,301.502014,354.207855,738.645752
00123_color_1715976877.035442.png,1163,1715976877.033327,-1.812306,-151.807343,861.061829,-58.833897,-177.650848,880.59259,-54.742752,-123.867081,879.960022,-4.889347,-99.088409,840.31543,25.181635,-86.653503,821.055054,58.44429,-86.485634,811.699524,64.053619,-148.789276,837.629028,89.094742,-157.202957,827.822815,115.391357,-163.787781,812.639893,289.549133,-22.462452,764.556213,259.887054,-16.081984,756.89209,237.77475,-12.42017,751.612549,368.600555,2.920282,766.266602,341.149017,20.942244,758.656372,310.609253,32.141506,750.746399,331.135529,-46.390232,776.88562,336.702728,-77.877159,766.487732,378.288788,-65.879509,782.819885,443.305847,-69.302895,797.781067,185.943665,980.276733,1492.322266,239.174927,974.163269,1516.295654,290.289917,986.299316,1498.586914,541.410278,-506.295197,834.072876,491.831146,-511.219452,833.996887,484.700928,-452.03125,834.434937,543.843262,-451.29068,834.514099,487.170319,-513.710327,737.633118,480.423218,-439.017609,738.963684,546.033752,-441.442047,739.629211,547.711487,-508.666107,740.179688,322.842072,274.18222,845.960815,392.077728,287.338562,845.401428,374.930084,367.187347,845.676208,307.682556,351.382446,844.292358,320.369324,265.071472,741.032593,398.665527,280.736694,740.160645,377.451965,372.763641,738.679688,301.398468,354.081848,738.647827
00124_color_1715976877.069762.png,1167,1715976877.073327,-0.495348,-162.355469,851.882996,-57.502605,-189.205322,869.526062,-54.790058,-135.38623,868.242004,-3.757236,-109.940056,830.253784,25.848974,-98.928673,810.708191,60.278439,-96.690819,803.751099,66.230217,-158.231079,830.840759,91.717674,-166.292862,822.110779,118.714005,-172.317734,807.987549,289.554352,-22.417578,764.613037,259.870514,-16.035797,756.910522,237.777481,-12.37725,751.602356,368.585815,2.911096,766.429077,341.115631,20.924686,758.742065,310.600708,32.170582,750.79187,331.108612,-46.370033,776.929382,336.694458,-77.883011,766.459839,378.252655,-65.982956,782.823853,443.246277,-69.559319,797.807617,185.94873,980.199219,1492.33728,239.18045,974.160156,1516.29248,290.289154,986.28656,1498.585693,541.155334,-506.399261,834.121094,491.583435,-511.365051,833.85199,484.408783,-452.153839,834.406311,543.55304,-451.470978,834.656433,487.223175,-513.658142,737.480408,480.44693,-438.998993,738.90271,546.036194,-441.348602,739.780457,547.74408,-508.581055,740.212219,322.872437,274.243713,845.958801,392.098938,287.386292,845.38623,374.960297,367.251526,845.649658,307.708191,351.4422,844.297607,320.387085,265.15033,741.039612,398.709076,280.797791,740.153809,377.463837,372.827881,738.683289,301.407043,354.129486,738.634766
00125_color_1715976877.104310.png,1170,1715976877.103327,0.122872,-169.723145,846.106506,-57.247639,-197.404373,861.672485,-55.298779,-143.474976,860.278442,-2.897399,-117.231529,824.23584,27.236227,-105.97496,805.598755,61.915825,-103.621559,799.825012,67.636414,-164.692535,827.210266,93.443512,-172.59494,819.395325,121.014984,-178.401825,806.155396,289.530518,-22.368198,764.615723,259.871765,-16.034327,756.914429,237.769501,-12.376256,751.611816,368.601746,2.990728,766.369995,341.144592,20.999962,758.684875,310.605347,32.224827,750.758484,331.10968,-46.337753,776.933105,336.693695,-77.816109,766.522766,378.329193,-65.889641,782.830261,443.285614,-69.368095,797.849121,185.938263,980.31012,1492.313721,239.174728,974.160217,1516.288208,290.283295,986.290771,1498.593018,541.466553,-506.257904,834.063049,491.904755,-511.205078,833.972717,484.786835,-452.024353,834.452759,543.935486,-451.223389,834.477295,487.251282,-513.694336,737.622742,480.451019,-439.007568,738.94696,546.052551,-441.328125,739.615112,547.769043,-508.612396,740.153137,322.845367,274.207916,845.983582,392.072052,287.341583,845.406006,374.838928,367.310516,845.837097,307.680115,351.414917,844.315979,320.373688,265.10968,741.044373,398.683929,280.786163,740.194702,377.447418,372.782532,738.694763,301.383392,354.109344,738.666138
00126_color_1715976877.138826.png,1174,1715976877.143327,0.088862,-178.652832,838.969971,-57.80484,-207.180511,851.801575,-56.652798,-153.220032,850.388611,-2.625701,-126.367928,816.822754,28.121811,-114.800819,799.468445,63.114807,-111.599365,795.370117,68.549904,-172.711884,822.977112,94.740463,-180.127396,816.33844,122.966118,-185.183502,804.42572,289.512054,-22.397184,764.619202,259.860901,-16.026056,756.930847,237.734695,-12.370647,751.616638,368.552795,2.941663,766.451477,341.087891,20.922461,758.726746,310.544678,32.181664,750.804626,331.072174,-46.310825,776.937988,336.668213,-77.847511,766.480896,378.271393,-66.021431,782.850647,443.203552,-69.524734,797.894043,185.926956,980.380981,1492.302612,239.173477,974.169189,1516.291504,290.277161,986.291931,1498.581543,541.147461,-506.411255,834.114258,491.61264,-511.33783,833.872925,484.425018,-452.226685,834.464905,543.59137,-451.468414,834.641907,487.213257,-513.654419,737.471558,480.404449,-439.052032,738.928406,546.030823,-441.350098,739.755371,547.727661,-508.606659,740.209045,322.836121,274.214539,845.969116,392.065216,287.359711,845.419495,374.912476,367.223206,845.67511,307.672241,351.425354,844.310974,320.372345,265.1026,741.022034,398.664795,280.774841,740.173035,377.435669,372.81189,738.700195,301.376312,354.1185,738.661743
00127_color_1715976877.173795.png,1177,1715976877.173327,-0.340577,-184.349213,833.983093,-58.854881,-213.490768,845.20105,-58.480343,-159.495117,843.447632,-2.728594,-131.820572,811.59906,28.223345,-120.005165,794.983276,63.05109,-116.634583,791.630005,68.456802,-177.782547,819.729004,95.226784,-184.321365,814.032227,123.675888,-189.648178,802.685364,289.535706,-22.400091,764.599792,259.887878,-16.056841,756.916565,237.774216,-12.395225,751.620911,368.591736,2.947513,766.414429,341.11261,20.932724,758.701355,310.573303,32.176739,750.796936,331.098694,-46.313763,776.929443,336.695801,-77.839897,766.498352,378.316559,-66.008408,782.844055,443.256287,-69.479309,797.888672,185.951736,980.221008,1492.361084,239.182892,974.165955,1516.28772,290.287903,986.29895,1498.597046,541.29187,-506.357605,834.082886,491.751923,-511.284637,833.933655,484.569092,-452.202667,834.489502,543.701965,-451.38205,834.569031,487.232452,-513.641724,737.532959,480.408997,-439.019958,738.935059,546.039368,-441.358856,739.716919,547.733398,-508.61615,740.192932,322.827362,274.212372,845.986267,392.075134,287.357788,845.414856,374.925659,367.225433,845.677795,307.675018,351.41687,844.309021,320.368805,265.105743,741.029297,398.682495,280.778809,740.184814,377.457733,372.782471,738.685852,301.390564,354.093903,738.656372
00128_color_1715976877.208496.png,1181,1715976877.213327,-1.867427,-190.957916,828.008667,-61.315063,-221.023407,836.164246,-61.817196,-167.105927,834.383606,-3.729348,-138.656342,805.36969,27.715473,-126.610085,789.742737,62.806107,-122.46933,787.977234,67.714195,-183.855972,816.487915,94.558693,-190.362106,811.633423,123.494781,-195.451523,801.323181,289.527252,-22.45153,764.625427,259.87738,-16.093681,756.915588,237.777313,-12.4107,751.633728,368.560333,2.867903,766.476074,341.090851,20.869213,758.788025,310.564758,32.120277,750.850464,331.089447,-46.320721,776.938782,336.683014,-77.845757,766.460693,378.295502,-66.103027,782.892395,443.222321,-69.600899,797.949036,185.94519,980.248474,1492.333618,239.178024,974.151306,1516.286133,290.276459,986.279724,1498.567383,541.339233,-506.350708,834.072693,491.770935,-511.26474,833.945374,484.601227,-452.242889,834.50824,543.728699,-451.37323,834.571045,487.225464,-513.653015,737.535706,480.414246,-439.019348,738.954407,546.039551,-441.412109,739.696899,547.724426,-508.622406,740.178955,322.818695,274.203156,845.978455,392.063599,287.350281,845.418518,374.91745,367.208496,845.679077,307.672791,351.410828,844.31897,320.356842,265.107086,741.036621,398.664642,280.748505,740.164124,377.440674,372.796692,738.707214,301.388733,354.094635,738.666626
00129_color_1715976877.243241.png,1184,1715976877.2433271,-4.017018,-195.941666,823.918335,-63.898651,-226.52475,828.916748,-64.956192,-172.550766,827.428101,-4.847781,-142.85704,802.07428,26.807611,-130.978821,787.320374,62.408184,-125.619278,787.826111,66.132294,-188.324677,815.232056,93.110886,-194.955994,811.185974,122.54911,-199.417496,802.141235,289.556976,-22.447224,764.62915,259.893677,-16.077122,756.940369,237.792007,-12.411452,751.650757,368.568176,2.880298,766.502563,341.091187,20.850266,758.802856,310.58429,32.121319,750.885437,331.101501,-46.345612,776.970642,336.693176,-77.862053,766.488403,378.30481,-66.085411,782.945435,443.247375,-69.586365,797.979797,185.96434,980.329041,1492.366211,239.179062,974.164978,1516.287109,290.286255,986.290466,1498.574219,541.334961,-506.289825,834.094788,491.791809,-511.237549,833.968506,484.652313,-452.253418,834.532776,543.754333,-451.332123,834.553833,487.204132,-513.686646,737.6026,480.414795,-439.033936,738.948242,546.073914,-441.478363,739.703369,547.727722,-508.611389,740.192139,322.813629,274.2164,845.990784,392.068146,287.374878,845.43811,374.833862,367.302338,845.841736,307.675781,351.413788,844.322876,320.352356,265.09433,741.054871,398.665955,280.787842,740.205933,377.440887,372.783539,738.69104,301.383911,354.098602,738.661377
00130_color_1715976877.277999.png,1187,1715976877.273327,-6.697172,-200.590607,819.321289,-66.935738,-231.886688,821.221069,-68.704987,-177.804688,820.33728,-7.238415,-147.559326,797.717896,25.043762,-134.722015,784.717712,60.088444,-129.66684,785.853516,63.7943,-192.423859,813.475342,90.997475,-198.556595,810.488953,120.629265,-202.825333,802.280579,289.574463,-22.506378,764.679565,259.91391,-16.127882,756.973328,237.820862,-12.46264,751.646973,368.565063,2.783725,766.595642,341.120575,20.770296,758.904846,310.642059,32.035278,750.916687,331.047302,-46.332882,776.825867,336.664429,-77.766197,766.316772,378.290405,-66.239594,782.930359,443.218109,-69.764786,797.993408,185.940781,980.292236,1492.377563,239.173416,974.177307,1516.297485,290.285828,986.29895,1498.581543,541.405334,-506.304993,834.060791,491.824829,-511.20871,833.991516,484.499969,-452.435455,834.463013,543.773315,-451.30835,834.575378,487.197723,-513.692932,737.632202,480.221069,-438.953918,738.857605,546.117737,-441.552582,739.68927,547.728027,-508.611084,740.208374,322.813354,274.228302,846.004211,392.06311,287.372284,845.437927,374.826752,367.309845,845.854919,307.667114,351.416382,844.317993,320.351715,265.117828,741.052551,398.671417,280.800476,740.22522,377.44873,372.794464,738.709106,301.383057,354.095551,738.661682
00131_color_1715976877.313181.png,1191,1715976877.313327,-11.203444,-206.29245,812.399902,-72.143044,-238.615036,810.756287,-74.971283,-184.592911,810.210449,-11.532213,-153.289978,791.011536,21.084448,-139.746109,779.391541,56.182743,-133.642609,782.321533,59.583637,-197.187531,809.333679,86.95961,-203.069611,807.140686,116.934357,-206.720673,799.932373,289.619354,-22.548029,764.736694,259.954987,-16.197092,756.985291,237.896347,-12.497442,751.6427,368.598785,2.645704,766.707458,341.190155,20.659527,759.012817,310.746094,32.02161,750.983398,331.019775,-46.136662,776.53363,336.506592,-77.841049,766.07605,378.307648,-66.406616,782.950684,443.229126,-69.974983,798.008728,185.928436,980.262146,1492.383301,239.166458,974.162659,1516.297852,290.287537,986.29834,1498.574707,541.548889,-505.983643,834.130737,492.034454,-511.075439,834.15448,484.622101,-451.28833,834.190308,543.97229,-451.063446,834.591309,487.219696,-513.700989,737.647888,480.432037,-439.026703,738.95636,546.472168,-441.374939,739.767456,547.738159,-508.590942,740.191406,322.813995,274.222778,845.997253,392.056213,287.365173,845.441956,374.827362,367.305542,845.84198,307.674744,351.402496,844.321472,320.340454,265.124481,741.067444,398.678314,280.795502,740.216675,377.437042,372.786713,738.697998,301.378845,354.104401,738.677612
00132_color_1715976877.353022.png,1195,1715976877.353327,-16.462206,-212.440033,805.218567,-77.992279,-245.745056,800.192078,-82.305359,-191.825027,800.195129,-17.03429,-159.277451,784.576599,16.706551,-142.921463,776.083801,50.474964,-137.803894,779.198853,54.713486,-202.25499,803.838135,82.264862,-207.861908,801.815308,112.364243,-210.996979,795.078735,289.653809,-22.606445,764.763855,259.996307,-16.217459,757.009033,237.941086,-12.511148,751.637634,368.60968,2.53595,766.763428,341.241638,20.59614,759.057556,310.779205,31.993217,751.005554,330.986572,-46.30846,776.533142,336.564941,-77.800743,765.994446,378.337921,-66.528648,782.925598,443.222992,-70.116913,798.003906,185.929382,980.277405,1492.362915,239.168411,974.168518,1516.286499,290.291992,986.306519,1498.57959,541.599609,-505.934906,834.122253,492.017487,-510.971497,834.055847,484.745026,-450.950256,834.138367,543.992432,-451.000977,834.594849,487.204071,-513.668274,737.629944,480.812439,-438.323395,739.175415,546.571167,-441.404449,739.780701,547.722595,-508.626953,740.170471,322.813568,274.215332,845.989746,392.051971,287.373505,845.433533,374.824707,367.301727,845.840393,307.66571,351.406006,844.307983,320.346069,265.122284,741.055664,398.671295,280.814697,740.216064,377.432648,372.799988,738.708191,301.379181,354.099792,738.672791
00133_color_1715976877.393146.png,1199,1715976877.393327,-22.143175,-218.983749,798.986267,-84.490349,-253.845367,791.272766,-90.64917,-199.980194,791.868958,-23.793604,-165.866013,778.99054,9.542667,-148.756989,771.370789,43.181435,-142.471619,775.676575,49.330471,-207.368729,797.871643,76.931686,-212.295807,795.761108,107.076378,-214.830505,788.81665,289.655365,-22.607355,764.781982,260.010193,-16.199404,757.034363,237.952255,-12.53379,751.627869,368.651093,2.514894,766.813843,341.234833,20.566196,759.08844,310.795776,31.975613,751.017822,331.129395,-46.041744,776.464111,336.559052,-77.815125,765.963684,378.341064,-66.615341,782.914734,443.233887,-70.192596,797.997803,185.929047,980.33313,1492.335083,239.162048,974.166626,1516.284424,290.292419,986.309937,1498.576294,541.669189,-505.867615,834.11377,492.082581,-510.901093,834.072937,484.797699,-450.867096,834.126953,544.061646,-450.948639,834.597229,487.225983,-514.388794,738.070374,480.885071,-438.22998,739.205444,546.650208,-441.34259,739.761841,547.735535,-508.592651,740.162048,322.816071,274.215088,845.99292,392.058441,287.367035,845.424927,374.824249,367.306976,845.842957,307.665955,351.416779,844.317932,320.353638,265.112976,741.040588,398.679962,280.786682,740.19751,377.443024,372.79007,738.695435,301.374451,354.109192,738.66449
00134_color_1715976877.428143.png,1202,1715976877.423327,-27.554098,-224.296783,795.080017,-90.878876,-260.463196,786.074402,-98.332886,-206.911758,786.582764,-29.64904,-171.119186,774.660217,3.51956,-153.764938,766.065369,37.038296,-146.681107,769.851196,43.953815,-212.116623,793.047058,71.733749,-216.568146,790.569946,101.754982,-218.821136,783.146606,289.641541,-22.618998,764.793884,260.004974,-16.229864,757.028564,237.954163,-12.527864,751.624878,368.654938,2.497104,766.84491,341.238403,20.567087,759.105164,310.795441,31.977776,751.043274,331.069092,-46.233273,776.547852,336.551208,-77.821518,765.99469,378.322327,-66.629898,782.914307,443.237762,-70.220337,797.995972,185.951874,980.253601,1492.367432,239.165695,974.175293,1516.291138,290.296021,986.289856,1498.570801,541.690002,-505.851624,834.136658,492.117737,-510.854126,834.090149,484.814819,-450.82132,834.135925,544.07135,-450.927795,834.610413,487.226196,-514.39563,738.08667,480.908813,-438.167023,739.257446,546.718689,-441.396301,739.796387,547.740784,-508.611694,740.169373,322.812592,274.221558,845.999451,392.067902,287.368042,845.437134,374.830231,367.300659,845.83606,307.674286,351.4133,844.327209,320.357208,265.11792,741.046875,398.671844,280.800171,740.219299,377.439606,372.784271,738.707214,301.369812,354.093384,738.663757
00135_color_1715976877.462975.png,1206,1715976877.463327,-38.210587,-235.137589,788.582886,-101.395653,-272.275146,777.017822,-109.816986,-218.788589,778.514038,-40.306973,-181.645782,768.922302,-7.241526,-163.500183,761.037842,25.974268,-156.010635,765.190735,33.76762,-221.66571,787.40509,61.515694,-225.791199,784.381226,91.643814,-227.261215,776.515625,289.617737,-22.640871,764.780823,259.993011,-16.218801,757.036011,237.938797,-12.520954,751.619873,368.598114,2.451864,766.837769,341.220703,20.542074,759.110657,310.781372,31.955828,751.02124,331.02359,-46.265152,776.543457,336.611511,-77.751282,766.00061,378.308777,-66.645042,782.928589,443.202576,-70.252159,798.005371,185.953369,980.247375,1492.383667,239.168411,974.159729,1516.283203,290.297119,986.283691,1498.579712,541.673279,-505.863129,834.135193,492.116547,-510.842194,834.100525,484.815552,-450.795593,834.141113,544.057251,-450.95108,834.611084,487.215179,-514.463928,738.091736,480.922455,-438.122131,739.289795,546.707458,-441.426086,739.781799,547.720093,-508.60965,740.177795,322.800781,274.207733,845.988892,392.056854,287.364624,845.434448,374.906403,367.20105,845.678894,307.659302,351.386658,844.304443,320.355621,265.089996,741.043457,398.663147,280.763977,740.19519,377.419159,372.776672,738.698059,301.370056,354.086121,738.656982
00136_color_1715976877.498004.png,1209,1715976877.4933271,-44.332169,-244.779236,786.549255,-108.849434,-281.370697,774.306152,-117.11953,-227.6035,778.085083,-46.564495,-191.019714,767.977722,-13.927289,-173.975922,759.139709,19.94873,-165.611984,763.918884,27.809732,-231.979172,782.663513,55.356579,-236.33223,778.336853,84.971428,-237.842377,769.007629,289.562408,-22.67112,764.780273,259.938721,-16.252361,757.016418,237.886749,-12.546225,751.618591,368.582336,2.438046,766.807434,341.177612,20.509399,759.083191,310.73822,31.927414,751.016846,330.914185,-46.36451,776.545776,336.577362,-77.757004,765.993835,378.257019,-66.686722,782.895691,443.155762,-70.288078,797.978149,185.911224,980.315186,1492.345825,239.170532,974.163452,1516.287598,290.30188,986.286621,1498.580811,541.585999,-505.903198,834.154175,492.026093,-510.87146,834.107605,484.719788,-450.856079,834.151672,543.968994,-451.01413,834.649597,487.132721,-514.495911,738.109924,480.866211,-438.176788,739.294434,546.652588,-441.482483,739.81311,547.656128,-508.666504,740.203979,322.756805,274.17807,845.993225,392.01355,287.323425,845.443176,374.779846,367.259521,845.860596,307.631042,351.368591,844.330994,320.30719,265.08139,741.048889,398.624634,280.715881,740.199402,377.416504,372.725494,738.688049,301.332977,354.045502,738.659302
00137_color_1715976877.533250.png,1213,1715976877.533327,-51.283642,-256.811493,788.78186,-118.856628,-290.522797,778.736633,-125.694168,-236.91275,783.837097,-52.868591,-202.111008,771.970642,-20.347637,-184.577484,762.628418,12.982242,-177.78891,765.659241,21.074911,-246.219208,780.124756,48.102158,-251.442581,773.179749,77.0065,-253.326569,761.657227,289.607117,-22.608887,764.83429,259.98056,-16.182388,757.058472,237.933258,-12.49357,751.621948,368.60379,2.434792,766.838867,341.232574,20.539392,759.112366,310.79303,31.984497,751.039185,331.047699,-46.23843,776.564087,336.596954,-77.749046,766.002808,378.322998,-66.687531,782.90979,443.199829,-70.303024,797.979126,185.964706,980.277222,1492.348267,239.176453,974.162476,1516.29126,290.292267,986.287476,1498.575806,541.590149,-505.901825,834.148376,492.049255,-510.883392,834.061707,484.746002,-450.837036,834.125793,543.986694,-450.987549,834.658142,487.218781,-514.460449,738.055725,480.929626,-438.117554,739.277405,546.722229,-441.422333,739.848267,547.7453,-508.604218,740.18689,322.828461,274.226593,845.988098,392.070679,287.363556,845.424377,374.834625,367.305115,845.837097,307.682312,351.416779,844.313171,320.36615,265.126862,741.049255,398.664886,280.785217,740.195862,377.446533,372.797424,738.700134,301.387268,354.115662,738.670349
00138_color_1715976877.568194.png,1216,1715976877.563327,-56.963051,-265.791779,791.4599,-125.601112,-299.015198,782.809692,-131.884232,-245.357437,788.699768,-58.202591,-210.236542,775.389709,-26.475424,-193.818848,764.155273,7.285391,-186.047836,766.588257,15.471971,-254.898941,780.971313,42.389778,-259.947784,773.51123,70.881668,-262.073975,761.359192,289.600891,-22.604376,764.857788,259.972626,-16.168695,757.078796,237.92157,-12.487616,751.641174,368.629578,2.480724,766.840515,341.234314,20.558306,759.101013,310.778809,32.011147,751.032532,331.040161,-46.198009,776.586487,336.510712,-77.914291,766.065918,378.326599,-66.632904,782.943298,443.220856,-70.228996,797.999268,185.947647,980.252563,1492.376343,239.171341,974.169006,1516.293091,290.297455,986.307617,1498.590454,541.665771,-505.912598,834.13324,492.092804,-510.874084,834.080322,484.781647,-450.808105,834.145996,544.020508,-450.977997,834.641602,487.224823,-514.466003,738.090576,480.944885,-438.152557,739.252625,546.713379,-441.442261,739.822693,547.728577,-508.611969,740.184875,322.804047,274.214233,846.009583,392.061554,287.342316,845.438599,374.827881,367.302094,845.854187,307.682343,351.392639,844.305298,320.346466,265.107056,741.051208,398.662598,280.783234,740.208496,377.447632,372.778564,738.697632,301.387482,354.087891,738.669922
00139_color_1715976877.602968.png,1220,1715976877.603327,-64.578979,-277.66568,796.357788,-135.118362,-311.713318,787.754639,-141.056335,-258.099518,793.229248,-66.188553,-223.025253,778.27832,-34.790947,-206.623825,765.336182,-0.743065,-199.077377,766.113525,7.278415,-267.655212,783.678223,33.914337,-273.141418,775.346313,62.077454,-275.417358,762.386108,289.594849,-22.57757,764.873535,259.953156,-16.159796,757.079651,237.916428,-12.467306,751.626038,368.577087,2.445983,766.869934,341.229401,20.561182,759.125,310.78656,31.987034,751.023315,331.013916,-46.187054,776.613464,336.579712,-77.729134,766.026245,378.291809,-66.660202,782.95929,443.170288,-70.290024,798.029785,185.930344,980.248901,1492.370361,239.172302,974.165588,1516.289307,290.305328,986.302551,1498.58374,541.564819,-505.879456,834.166138,492.045776,-510.883514,834.062927,484.744232,-450.83316,834.114868,543.972107,-451.000854,834.662598,487.225159,-514.482727,738.068359,480.944946,-438.13269,739.261658,546.721924,-441.41098,739.855286,547.743774,-508.607758,740.195435,322.824768,274.225372,846.005859,392.066406,287.373779,845.431274,374.921661,367.228729,845.698486,307.681458,351.407227,844.314026,320.354065,265.119781,741.064453,398.681824,280.80658,740.214417,377.443726,372.79364,738.693604,301.383148,354.104156,738.66925
00140_color_1715976877.637974.png,1223,1715976877.633327,-71.797455,-289.977142,797.988159,-142.818436,-323.203522,790.111877,-148.213196,-269.369598,794.558289,-72.752663,-235.004105,779.343018,-41.476719,-218.631851,766.271912,-7.526917,-211.319763,766.541199,0.663648,-280.020538,784.672363,27.247353,-285.422333,776.065063,55.283825,-287.767426,762.883179,289.600677,-22.593273,764.862,259.978699,-16.17617,757.070496,237.926895,-12.468122,751.637512,368.626251,2.457631,766.86969,341.236145,20.542122,759.108521,310.791595,32.004868,751.041321,331.036499,-46.219097,776.603516,336.589752,-77.745705,766.024292,378.320038,-66.681709,782.925415,443.221527,-70.281731,798.002014,185.957748,980.252441,1492.380615,239.171722,974.167908,1516.29126,290.302246,986.301392,1498.589111,541.70105,-505.875244,834.127747,492.126892,-510.847137,834.093201,484.835999,-450.814148,834.121094,544.086487,-450.929321,834.625977,487.230377,-514.45813,738.090881,480.963348,-438.155792,739.258179,546.729248,-441.431122,739.802795,547.742493,-508.626221,740.167908,322.837799,274.214264,845.997498,392.082153,287.363251,845.431458,374.916809,367.228943,845.698486,307.681183,351.416351,844.316956,320.360535,265.100342,741.045837,398.675659,280.780731,740.192627,377.458588,372.787994,738.684937,301.389008,354.103424,738.670471
00141_color_1715976877.672904.png,1227,1715976877.673327,-81.056694,-309.512634,797.723633,-153.232574,-341.490662,790.149475,-157.813919,-287.584839,794.526428,-81.257339,-254.302475,779.086426,-49.67075,-239.264084,765.342041,-15.913941,-231.880692,765.841858,-8.484546,-300.072357,784.091736,18.053144,-305.820251,775.547974,45.975449,-308.596527,762.302734,289.608765,-22.602243,764.870605,259.967194,-16.178576,757.084534,237.921143,-12.475362,751.63623,368.573181,2.42551,766.894775,341.210907,20.535385,759.132019,310.785767,31.979729,751.063843,331.104095,-46.050228,776.537415,336.534241,-77.822823,765.989929,378.312347,-66.689819,782.960632,443.171326,-70.363541,798.010071,185.943726,980.268677,1492.384277,239.17601,974.173035,1516.292725,290.297455,986.303772,1498.584961,541.574951,-505.883331,834.165833,492.056274,-510.886597,834.069336,484.747131,-450.842224,834.124146,543.986389,-451.005585,834.664856,487.244812,-514.419189,738.060242,480.942596,-438.139832,739.270508,546.733887,-441.423126,739.857117,547.747986,-508.604095,740.194702,322.825775,274.220245,845.997986,392.082123,287.374481,845.437378,374.839417,367.301819,845.831299,307.683289,351.408051,844.316467,320.368469,265.117523,741.060303,398.696014,280.80484,740.200012,377.439148,372.79187,738.696228,301.385468,354.115204,738.676575
00142_color_1715976877.707926.png,1230,1715976877.703327,-88.096313,-325.520874,795.618896,-161.682297,-356.252808,788.307312,-165.12854,-302.215485,793.18457,-87.721687,-270.269623,777.29657,-56.127045,-255.650574,763.542542,-22.522011,-248.749084,763.744324,-15.759716,-317.595306,780.496582,10.528435,-323.344025,771.972656,38.437389,-326.449127,758.865295,289.612183,-22.5931,764.879578,259.974792,-16.188528,757.082458,237.93808,-12.497066,751.626709,368.566467,2.41716,766.896484,341.219971,20.510389,759.127625,310.801147,31.977528,751.056702,331.055023,-46.225689,776.601318,336.601685,-77.76181,765.990295,378.306061,-66.743034,782.936768,443.190704,-70.379128,797.996033,185.937103,980.24292,1492.351929,239.178955,974.157654,1516.291992,290.300537,986.303223,1498.595337,541.717407,-505.867432,834.11908,492.154114,-510.847137,834.083496,484.861053,-450.825378,834.111023,544.109985,-450.940887,834.610535,487.261505,-514.433044,738.064941,480.962921,-438.13031,739.274902,546.736389,-441.440491,739.793762,547.759705,-508.614014,740.176025,322.83255,274.226746,845.990845,392.083923,287.35968,845.42511,374.835052,367.314392,845.853577,307.682343,351.41095,844.319092,320.36969,265.106842,741.045959,398.673889,280.764679,740.187805,377.450043,372.791046,738.702026,301.383636,354.103973,738.664917
00143_color_1715976877.743047.png,1234,1715976877.7433271,-98.009354,-345.885101,790.756653,-173.268555,-374.542847,783.786682,-175.202209,-320.365112,789.454224,-96.670937,-290.482758,772.935547,-65.121819,-276.496002,758.570251,-31.713064,-270.287048,758.542053,-25.813547,-339.846466,773.551025,-0.069638,-346.359253,764.30426,27.32691,-350.307037,750.552002,289.605988,-22.612511,764.881836,259.969177,-16.194368,757.084595,237.929123,-12.487761,751.633728,368.611389,2.426069,766.928284,341.206177,20.526617,759.15863,310.821747,31.945494,751.041504,331.034271,-46.225506,776.599548,336.543671,-77.837532,766.010071,378.298889,-66.754837,782.926941,443.172058,-70.397568,798.003662,185.975479,980.244019,1492.355713,239.179108,974.165588,1516.299438,290.295837,986.285583,1498.585205,541.681946,-505.830994,834.150208,492.152527,-510.830536,834.09552,484.846649,-450.805237,834.14502,544.067261,-450.939819,834.63092,487.251099,-514.448608,738.093445,480.97467,-438.126831,739.276855,546.746704,-441.422241,739.799683,547.766113,-508.598328,740.179321,322.835938,274.222717,845.994446,392.081085,287.362885,845.444946,374.83551,367.31134,845.85199,307.676483,351.411865,844.328003,320.377319,265.097015,741.040039,398.679962,280.790497,740.206848,377.445496,372.786896,738.697083,301.377228,354.099915,738.674561
00144_color_1715976877.778066.png,1237,1715976877.773327,-104.894333,-359.208221,785.859863,-181.344086,-386.696716,779.857239,-182.288803,-332.479126,785.65741,-103.169563,-303.849762,767.896851,-71.801346,-290.228516,752.857544,-38.121223,-284.22049,752.189941,-32.899422,-354.002716,767.109558,-7.553732,-360.925873,757.304749,19.553644,-365.292542,742.909302,289.604279,-22.609877,764.886841,259.975067,-16.184153,757.091431,237.929855,-12.504869,751.621521,368.573303,2.412107,766.918823,341.203308,20.514849,759.149048,310.798096,31.954844,751.051147,331.079773,-46.232742,776.624817,336.605011,-77.775307,765.991211,378.295624,-66.76561,782.935059,443.182434,-70.416374,798.003723,185.934525,980.191406,1492.315674,239.184387,974.157349,1516.293701,290.295807,986.273254,1498.573608,541.717896,-505.871124,834.121948,492.163269,-510.839874,834.092529,484.861603,-450.808014,834.133179,544.070557,-450.964661,834.612488,487.27951,-514.45697,738.081604,480.980835,-438.144348,739.268188,546.741272,-441.406372,739.777161,547.775696,-508.592957,740.148376,322.843262,274.213989,845.97876,392.088104,287.351166,845.411072,374.848053,367.297546,845.837585,307.692047,351.41571,844.31781,320.377502,265.103546,741.041992,398.682312,280.752472,740.162659,377.460632,372.792206,738.696045,301.398315,354.111938,738.663879
00145_color_1715976877.813094.png,1241,1715976877.813327,-112.686501,-372.699493,780.733826,-190.52243,-399.851013,776.205872,-190.468796,-345.279724,781.747681,-111.077797,-317.67926,762.204285,-79.982071,-304.287262,745.93689,-46.867325,-298.084686,745.392151,-41.504585,-367.88739,761.024658,-16.163788,-374.848419,752.489258,11.694406,-378.955505,741.244629,289.585938,-22.618704,764.892822,259.963379,-16.194418,757.090088,237.914185,-12.504618,751.626709,368.540222,2.398014,766.940918,341.200073,20.494318,759.151978,310.797943,31.953159,751.05719,330.921753,-46.365227,776.60791,336.597656,-77.765961,765.992126,378.277252,-66.764313,782.966003,443.147736,-70.467781,798.025696,185.959702,980.207275,1492.349487,239.183426,974.162842,1516.300415,290.298676,986.276001,1498.57312,541.703735,-505.838379,834.133179,492.161041,-510.844818,834.086243,484.873505,-450.810455,834.128662,544.09375,-450.945862,834.605469,487.250031,-514.452637,738.088867,480.963898,-438.157959,739.278076,546.717773,-441.377014,739.797302,547.756836,-508.613647,740.160583,322.829285,274.207123,845.976624,392.073944,287.351257,845.421448,374.841583,367.291626,845.834778,307.68158,351.404388,844.318665,320.367981,265.104309,741.039429,398.668823,280.732086,740.172058,377.451569,372.774994,738.691345,301.389557,354.098511,738.669922
00146_color_1715976877.848027.png,1244,1715976877.843327,-116.750137,-380.358032,780.9599,-195.386581,-407.540161,775.229492,-195.132935,-353.260742,781.576477,-115.237061,-325.418854,763.064148,-84.126602,-312.032806,746.97113,-50.725018,-305.613281,745.721313,-45.610035,-375.45343,761.305481,-20.245434,-381.923676,752.782532,7.598456,-385.782806,741.191956,289.59491,-22.633818,764.9021,259.95108,-16.190235,757.108032,237.907654,-12.482417,751.629578,368.58075,2.414795,766.997192,341.18869,20.477654,759.173706,310.794891,31.949539,751.084595,330.898926,-46.51387,776.670166,336.591034,-77.768661,765.985596,378.283112,-66.79071,782.967896,443.151276,-70.495377,798.036743,185.938568,980.239319,1492.327759,239.184967,974.163208,1516.302612,290.305634,986.299377,1498.589355,541.719299,-505.84317,834.133911,492.163116,-510.816101,834.088684,484.871094,-450.789246,834.12854,544.096802,-450.937683,834.60614,487.260345,-514.453003,738.09967,480.987122,-438.141632,739.262207,546.72467,-441.374359,739.792419,547.749207,-508.610321,740.164307,322.842163,274.195587,845.981689,392.080963,287.347748,845.413208,374.838562,367.305267,845.833801,307.691589,351.409302,844.312622,320.367249,265.108795,741.036499,398.677582,280.769806,740.180054,377.459686,372.782593,738.681396,301.395844,354.103882,738.666443
00147_color_1715976877.883328.png,1248,1715976877.883327,-118.373451,-388.173035,780.447937,-198.062988,-415.382355,775.065125,-197.511993,-361.186951,781.884949,-117.499496,-333.09256,762.922058,-86.907188,-319.454681,746.396423,-53.584854,-312.542603,744.733276,-47.846512,-382.214233,759.949951,-22.250795,-387.884186,751.918579,5.89139,-391.219604,741.233398,289.601593,-22.601561,764.909363,259.972656,-16.198421,757.071472,237.928802,-12.482942,751.639465,368.601837,2.415898,766.969299,341.198578,20.489122,759.158264,310.81662,31.979776,751.07782,331.03064,-46.229576,776.62262,336.586609,-77.756981,766.002686,378.276611,-66.7659,782.987427,443.149567,-70.461693,798.047668,185.928696,980.208069,1492.360107,239.184647,974.168701,1516.295654,290.306671,986.307739,1498.59436,541.732788,-505.826233,834.128052,492.177612,-510.829163,834.095581,484.873535,-450.773468,834.134888,544.116394,-450.91449,834.604004,487.272186,-514.478271,738.118408,480.982605,-438.153778,739.259827,546.696289,-441.286713,739.775391,547.761475,-508.632416,740.165894,322.834686,274.21991,845.977783,392.082336,287.354401,845.408508,374.936584,367.209229,845.673218,307.690094,351.413208,844.321045,320.373718,265.084778,741.052551,398.670746,280.792694,740.182312,377.452637,372.781891,738.675415,301.391052,354.096863,738.6651
00148_color_1715976877.918386.png,1252,1715976877.923327,-117.280754,-394.218506,777.025146,-197.113693,-421.987335,769.993347,-196.810028,-368.154266,778.547913,-116.859665,-338.981445,761.751648,-85.881409,-323.669586,746.446899,-52.023666,-316.846008,744.570007,-46.660915,-386.52594,757.821777,-20.63451,-391.561768,750.890381,7.962708,-393.837982,741.483643,289.564362,-22.628435,764.918091,259.949341,-16.204016,757.074402,237.908875,-12.486722,751.6203,368.574402,2.394333,767.017761,341.190369,20.497122,759.19751,310.796967,31.926823,751.057312,331.000153,-46.375107,776.71582,336.562347,-77.853836,766.033203,378.254578,-66.807991,782.975159,443.125824,-70.50515,798.062744,185.94519,980.286072,1492.339478,239.186081,974.16333,1516.294067,290.310822,986.311462,1498.593872,541.713135,-505.832916,834.123352,492.169067,-510.845001,834.09375,484.874054,-450.788208,834.123169,544.103027,-450.945862,834.599548,487.265533,-514.474426,738.101196,480.98053,-438.147491,739.264526,546.685669,-441.273071,739.789612,547.761902,-508.635101,740.161316,322.83847,274.205048,845.981384,392.076385,287.363037,845.418518,374.917847,367.216736,845.695007,307.676453,351.404297,844.320923,320.355408,265.11673,741.056702,398.668945,280.762878,740.182495,377.452209,372.780457,738.680359,301.388489,354.101501,738.664551
00149_color_1715976877.953345.png,1255,1715976877.953327,-115.763916,-396.395294,773.93042,-195.618454,-424.610046,765.419312,-195.655518,-370.606262,774.764404,-115.595825,-340.93808,761.018982,-83.870308,-325.131897,746.543884,-49.252075,-319.060211,744.601196,-45.179256,-388.046387,755.657837,-19.056009,-392.871735,749.707703,9.92066,-394.855133,741.741516,289.566681,-22.616428,764.917114,259.956726,-16.187817,757.094177,237.909088,-12.49122,751.619324,368.604431,2.4205,767.002441,341.189697,20.475868,759.174316,310.78714,31.956005,751.087891,331.062622,-46.224102,776.661865,336.588684,-77.771797,765.999573,378.265167,-66.796677,782.985352,443.146362,-70.485512,798.062073,185.946106,980.300415,1492.346924,239.182068,974.160522,1516.300171,290.308807,986.311584,1498.604248,541.725525,-505.837128,834.13269,492.174683,-510.834351,834.091431,484.862518,-450.789917,834.127258,544.095154,-450.922821,834.603943,487.245239,-514.464478,738.086548,480.988403,-438.163757,739.262756,546.687439,-441.283997,739.784912,547.761597,-508.629791,740.163879,322.82843,274.182434,845.980469,392.060364,287.34433,845.420593,374.834656,367.286499,845.838379,307.672729,351.392242,844.31958,320.363892,265.094543,741.043152,398.677551,280.772003,740.203064,377.448608,372.770294,738.696106,301.385376,354.086578,738.652649
00150_color_1715976877.988434.png,1259,1715976877.9933271,-114.725128,-395.633759,773.336365,-195.021545,-423.996155,764.468567,-194.840027,-369.868225,774.461792,-114.946129,-340.096558,760.949158,-83.087036,-324.334717,746.325073,-48.063084,-318.748016,743.898438,-44.576408,-387.528198,754.54187,-18.513124,-392.502808,749.250366,10.731396,-394.861877,742.102234,289.566223,-22.632689,764.92627,259.933929,-16.186762,757.114014,237.89537,-12.478945,751.639954,368.531097,2.329558,767.024292,341.171295,20.452576,759.189453,310.800323,31.925056,751.097778,331.006409,-46.387676,776.717834,336.588593,-77.773857,765.992798,378.249084,-66.8405,782.982361,443.121582,-70.524124,798.053711,185.962418,980.293152,1492.326782,239.179184,974.160767,1516.293579,290.303009,986.298889,1498.587891,541.711426,-505.844177,834.127808,492.167786,-510.823303,834.091858,484.862396,-450.773224,834.135071,544.09906,-450.931976,834.606506,487.245789,-514.465393,738.104919,480.960297,-438.162628,739.234009,546.680298,-441.283051,739.770264,547.757324,-508.60022,740.156555,322.830444,274.200378,845.984863,392.069702,287.345551,845.421448,374.912537,367.217804,845.693848,307.681091,351.412903,844.321716,320.376923,265.088104,741.041199,398.669708,280.791016,740.207947,377.444794,372.791229,738.696045,301.380585,354.094879,738.661865
00151_color_1715976878.023814.png,1262,1715976878.023327,-114.723312,-394.748199,772.717041,-195.429443,-423.138916,763.287781,-195.227066,-369.132874,773.678223,-115.065941,-339.06604,760.641174,-83.040787,-323.48172,746.011963,-47.824715,-318.256561,743.554688,-44.794716,-387.120361,753.754333,-18.777708,-392.193542,748.945862,10.518138,-394.811249,742.331421,289.585236,-22.587278,764.922791,259.945282,-16.203575,757.060303,237.904175,-12.462666,751.628906,368.59494,2.408406,766.97583,341.179443,20.492134,759.171997,310.789307,31.95767,751.061401,330.960419,-46.359261,776.647949,336.58551,-77.747139,766.001221,378.261871,-66.771835,782.979248,443.142487,-70.458038,798.045715,185.946762,980.305359,1492.33728,239.181046,974.156677,1516.297852,290.300964,986.294006,1498.588745,541.713135,-505.852997,834.121887,492.153839,-510.830048,834.100891,484.849457,-450.795868,834.131226,544.081177,-450.926422,834.615295,487.244354,-514.475159,738.098572,480.959839,-438.14624,739.274475,546.661438,-441.287537,739.776367,547.74408,-508.634399,740.163086,322.825409,274.210236,845.971802,392.067139,287.349884,845.408875,374.915894,367.213684,845.68927,307.679688,351.407257,844.308533,320.367218,265.102661,741.027527,398.667664,280.769043,740.18512,377.443176,372.777374,738.689209,301.380035,354.113434,738.655457
00152_color_1715976878.058985.png,1266,1715976878.063327,-115.642387,-395.587311,771.918213,-196.817902,-423.365173,761.206665,-196.261536,-369.343414,772.870911,-115.455666,-339.676971,760.756653,-83.343651,-323.93988,746.231201,-48.239151,-318.672699,743.733765,-45.511208,-387.945923,753.225525,-19.471766,-392.936951,748.724365,9.895146,-395.52829,742.669495,289.520569,-22.685244,764.915283,259.884552,-16.246141,757.070679,237.842834,-12.503601,751.628784,368.473724,2.302466,767.014526,341.094055,20.423269,759.189941,310.748138,31.884287,751.087585,330.867554,-46.421055,776.628662,336.554565,-77.784317,765.981445,378.190491,-66.885674,782.976196,443.067535,-70.565361,798.04248,185.949509,980.253601,1492.356567,239.177475,974.158691,1516.293213,290.294373,986.290344,1498.591431,541.633057,-505.879395,834.150391,492.06604,-510.879578,834.112122,484.776917,-450.833313,834.13208,544.014648,-450.972809,834.638733,487.191956,-514.513855,738.109131,480.89502,-438.151062,739.309082,546.621765,-441.344696,739.786926,547.679626,-508.651031,740.164795,322.788208,274.185303,845.974426,392.028107,287.305542,845.417175,374.878754,367.190125,845.701294,307.649109,351.37912,844.318359,320.336365,265.076752,741.034668,398.637909,280.725952,740.188599,377.433838,372.744751,738.687866,301.356842,354.070251,738.666626
00153_color_1715976878.094817.png,1269,1715976878.093327,-116.06057,-395.919159,771.684631,-197.641495,-423.403107,759.907227,-196.878754,-369.613037,772.667297,-115.870605,-340.021973,760.879944,-83.741982,-324.149719,746.343018,-48.66864,-318.69577,743.815918,-45.913227,-388.243988,752.990662,-19.926327,-393.219788,748.63739,9.490947,-395.799042,742.794678,289.515045,-22.653765,764.924683,259.877838,-16.219267,757.066589,237.845398,-12.503675,751.61499,368.483917,2.289729,766.984314,341.092529,20.447203,759.171875,310.730347,31.906601,751.059631,330.870392,-46.371628,776.626831,336.552765,-77.764809,765.99292,378.180847,-66.834618,782.988342,443.066193,-70.525154,798.066345,185.923981,980.235596,1492.348511,239.185547,974.157227,1516.291016,290.299591,986.281982,1498.581299,541.60791,-505.894135,834.137146,492.055817,-510.883392,834.108521,484.753815,-450.829193,834.134949,544.00415,-450.981537,834.632019,487.15451,-514.510376,738.125671,480.871857,-438.155975,739.30896,546.600159,-441.337708,739.795898,547.655334,-508.667175,740.181274,322.773041,274.186859,845.975342,392.026215,287.306458,845.419983,374.799408,367.278778,845.854187,307.639954,351.374023,844.316528,320.328339,265.071289,741.039917,398.635193,280.71994,740.179749,377.370117,372.736664,738.71228,301.34787,354.060547,738.649048
00154_color_1715976878.129312.png,1273,1715976878.133327,-116.969131,-396.524536,771.283386,-198.763153,-423.592316,758.48175,-198.239929,-370.085724,771.90979,-116.466736,-340.505554,761.013611,-84.301353,-324.402039,746.592224,-49.285885,-318.81311,743.946472,-46.571712,-388.764343,752.856018,-20.535543,-393.665619,748.520508,8.898178,-396.18634,742.837097,289.484955,-22.678736,764.917297,259.854614,-16.238001,757.076599,237.807449,-12.511023,751.621643,368.483185,2.342733,767.022217,341.09317,20.414963,759.173645,310.730804,31.839092,751.020386,330.913818,-46.42411,776.703735,336.528229,-77.765823,765.997864,378.149017,-66.857925,782.989319,443.037506,-70.549202,798.061951,185.945511,980.27771,1492.31543,239.183563,974.155945,1516.299072,290.29953,986.294312,1498.591919,541.576111,-505.932159,834.152405,492.00705,-510.895325,834.116272,484.712463,-450.863037,834.145386,543.954407,-451.009186,834.64325,487.122833,-514.540222,738.139038,480.839661,-438.193085,739.323914,546.572815,-441.368988,739.816284,547.615967,-508.685516,740.176392,322.750397,274.163513,845.977783,392.007996,287.292328,845.424866,374.774872,367.267914,845.865662,307.622711,351.361725,844.323853,320.31076,265.048645,741.026978,398.622803,280.701172,740.17749,377.407257,372.716187,738.67688,301.230255,354.026794,738.643555
00155_color_1715976878.163993.png,1276,1715976878.163327,-117.595406,-396.951477,771.108948,-199.682129,-423.450592,757.59375,-198.891022,-370.265686,771.702698,-116.84446,-340.849792,761.168396,-84.707024,-324.659332,746.784241,-49.705128,-319.046051,743.986633,-47.090286,-389.218842,752.802368,-21.045811,-394.112183,748.472839,8.426951,-396.587128,742.868042,289.463837,-22.655277,764.921082,259.828339,-16.22418,757.082642,237.780975,-12.496324,751.633728,368.418182,2.297993,766.990173,341.05014,20.436579,759.177307,310.715302,31.843134,751.024841,330.863281,-46.422169,776.693115,336.513855,-77.744553,766.005432,378.136993,-66.860809,783.008118,443.015198,-70.557381,798.090637,185.948502,980.296509,1492.380249,239.183731,974.166809,1516.289917,290.305298,986.29834,1498.583984,541.540771,-505.90979,834.170166,491.974976,-510.886383,834.119629,484.667236,-450.830536,834.162598,543.91748,-451.002777,834.645691,487.098236,-514.519348,738.137085,480.80423,-438.18457,739.313232,546.547974,-441.387817,739.811646,547.592896,-508.67157,740.200806,322.74054,274.154053,845.980042,391.994537,287.299896,845.430908,374.839172,367.162079,845.703674,307.611511,351.35083,844.318726,320.288544,265.067871,741.062683,398.604858,280.729309,740.203979,377.347443,372.72113,738.713135,301.322296,354.025879,738.646484
00156_color_1715976878.199591.png,1280,1715976878.203327,-117.50116,-397.296844,770.976318,-199.789825,-423.738281,756.828186,-198.87648,-370.59259,771.645142,-116.684235,-341.237823,761.131348,-84.427994,-324.916412,746.788086,-49.562649,-319.039948,743.925781,-46.993252,-389.454437,752.744873,-20.919579,-394.296295,748.410889,8.552885,-396.73111,742.776062,289.471771,-22.665041,764.932434,259.817017,-16.215761,757.075378,237.789703,-12.500638,751.617981,368.464294,2.321482,767.012756,341.055328,20.421465,759.174561,310.709198,31.847086,751.0047,330.904266,-46.332558,776.677246,336.512451,-77.747505,765.999512,378.132538,-66.854301,783.016846,443.008331,-70.554749,798.092346,185.953552,980.341553,1492.362183,239.187622,974.159058,1516.289795,290.310669,986.319702,1498.598755,541.546265,-505.90921,834.166016,491.992645,-510.891968,834.114075,484.694458,-450.865967,834.136414,543.940308,-451.009735,834.642029,487.099152,-514.548767,738.15094,480.827179,-438.197205,739.287231,546.603516,-441.476776,739.793152,547.598938,-508.685944,740.19281,322.719421,274.166656,845.989685,391.99588,287.290985,845.423279,374.846466,367.146423,845.696594,307.611023,351.337433,844.31842,320.300018,265.063538,741.048401,398.599854,280.708954,740.199158,377.379547,372.710083,738.694214,301.316345,354.016022,738.649963
00157_color_1715976878.236262.png,1283,1715976878.2333272,-117.102524,-397.864349,771.336548,-199.50882,-423.108856,755.676514,-198.619385,-370.280396,771.190552,-116.571976,-341.683838,761.169556,-84.098373,-325.14801,746.969971,-49.047398,-319.191406,743.843079,-46.789349,-389.855743,752.679871,-20.749451,-394.727417,748.3349,8.741913,-397.10083,742.783142,289.471344,-22.652016,764.929565,259.835999,-16.220356,757.08075,237.803085,-12.512852,751.621094,368.436249,2.310991,766.987732,341.068634,20.434439,759.171265,310.724457,31.866871,751.035339,330.836426,-46.386494,776.638489,336.529266,-77.765305,766.015198,378.146637,-66.819038,783.028931,443.017365,-70.547455,798.096497,185.921768,980.336243,1492.348633,239.180542,974.165588,1516.296875,290.309753,986.309082,1498.595459,541.579041,-505.925354,834.146912,491.989838,-510.898773,834.114624,484.691559,-450.83963,834.157532,543.955322,-451.005707,834.650818,487.097595,-514.509705,738.129028,480.819519,-438.208496,739.275574,546.601257,-441.480408,739.809692,547.60553,-508.668427,740.193726,322.740051,274.176178,845.98761,391.999908,287.297668,845.433228,374.767578,367.244537,845.85199,307.613098,351.34848,844.315979,320.30249,265.062683,741.044128,398.618347,280.724518,740.21344,377.400055,372.717682,738.700195,301.328735,354.023712,738.649841
00158_color_1715976878.270744.png,1287,1715976878.273327,-117.863968,-398.640198,770.65741,-199.07637,-423.904541,754.932617,-198.366211,-371.628601,771.479492,-116.67543,-342.417969,761.550476,-83.971939,-325.657104,747.113098,-48.563671,-319.67038,743.753967,-46.667229,-390.417877,752.554077,-20.491585,-395.346863,748.097778,9.165018,-397.833862,742.758301,289.448212,-22.683182,764.928406,259.814453,-16.237034,757.075317,237.775681,-12.521244,751.622925,368.455505,2.304431,767.016724,341.033295,20.394735,759.168945,310.697601,31.845186,751.05426,330.963409,-46.250744,776.655212,336.50415,-77.752899,765.992188,378.125763,-66.864777,783.011414,442.992249,-70.594109,798.096252,185.946686,980.316406,1492.362427,239.172012,974.164978,1516.306152,290.300629,986.304077,1498.593506,541.526489,-505.952606,834.15863,491.968567,-510.911926,834.122375,484.660736,-450.874359,834.164612,543.916565,-451.034027,834.650757,487.070312,-514.546204,738.13092,480.800079,-438.214813,739.312317,546.58136,-441.506805,739.811646,547.590515,-508.699463,740.197388,322.726501,274.143433,845.986938,391.985931,287.283295,845.441956,374.830353,367.130646,845.710144,307.601868,351.34494,844.326172,320.304077,265.051208,741.057983,398.582947,280.693512,740.19104,377.37854,372.691772,738.695801,301.31311,354.008392,738.664124
00159_color_1715976878.305045.png,1290,1715976878.303327,-118.109482,-399.920502,770.395142,-199.07692,-423.907074,754.064758,-198.214935,-371.857269,771.421692,-115.511909,-343.443665,761.61853,-83.229897,-326.617798,747.325928,-47.465679,-321.015289,744.117493,-46.501141,-392.334167,752.641357,-20.437817,-397.363647,748.048462,9.057724,-399.367065,742.50885,289.441284,-22.701303,764.923279,259.804016,-16.247675,757.079163,237.772934,-12.525492,751.616272,368.409851,2.245563,766.993347,341.023193,20.385832,759.165771,310.694916,31.806652,750.996582,330.914185,-46.275616,776.625854,336.498779,-77.745911,765.983093,378.117554,-66.882889,783.018311,442.995972,-70.614227,798.084778,185.948532,980.266968,1492.35376,239.165649,974.152527,1516.301147,290.2966,986.278625,1498.587158,541.542664,-505.94162,834.163574,491.969208,-510.921295,834.124756,484.666779,-450.903595,834.145447,543.909607,-451.037659,834.641785,487.078339,-514.556824,738.137207,480.78949,-438.218597,739.310608,546.585938,-441.536102,739.80957,547.582947,-508.716095,740.202759,322.727173,274.15506,845.993042,391.980835,287.253693,845.427185,374.844604,367.137909,845.701538,307.608887,351.326996,844.338013,320.305115,265.043976,741.04834,398.588196,280.673615,740.191956,377.333435,372.69812,738.724609,301.30838,354.006409,738.669739
00160_color_1715976878.338783.png,1294,1715976878.343327,-118.593925,-402.15799,770.440247,-199.446136,-423.756439,752.93573,-197.395721,-371.636017,770.93927,-113.437622,-345.85675,761.851685,-80.041016,-331.201569,748.09552,-44.217186,-328.073303,744.270386,-46.882843,-398.583862,752.65564,-20.863989,-404.057922,748.111267,8.437399,-407.820526,742.440552,289.427887,-22.697794,764.941406,259.800507,-16.2437,757.075195,237.757736,-12.541068,751.59845,368.398529,2.249384,766.999207,341.021973,20.375435,759.162598,310.682007,31.803101,751.006165,330.841339,-46.438145,776.678894,336.49884,-77.761009,765.984436,378.111633,-66.889404,783.007324,442.975098,-70.621582,798.081543,185.977386,980.232605,1492.362915,239.16687,974.157837,1516.301392,290.290619,986.287964,1498.58313,541.515564,-505.965576,834.156799,491.953125,-510.941559,834.124207,484.640778,-450.88855,834.152588,543.891296,-451.070435,834.64679,487.089844,-514.565491,738.139404,480.770081,-438.234833,739.316406,546.581238,-441.538879,739.815125,547.566711,-508.718079,740.189392,322.708069,274.129089,845.982788,391.95929,287.245148,845.444397,374.838623,367.119019,845.687988,307.591187,351.33139,844.337585,320.285004,265.038971,741.052734,398.573853,280.643799,740.176636,377.368927,372.687958,738.709106,301.200287,353.981659,738.655823
00161_color_1715976878.372521.png,1297,1715976878.373327,-119.113174,-403.564697,770.400635,-199.90921,-423.83197,752.438354,-197.428833,-371.796143,771.135071,-112.510056,-347.553101,761.995667,-78.371941,-333.889526,748.093323,-42.577717,-332.207367,744.582336,-47.252735,-401.20816,752.856445,-21.285992,-408.676544,748.590698,7.869219,-412.097046,742.33667,289.413544,-22.7045,764.926575,259.815277,-16.013458,757.324402,237.759583,-12.287287,751.885925,368.389709,2.237467,766.981812,340.996094,20.365522,759.159668,310.668457,31.786058,750.984497,330.780426,-46.455276,776.644287,336.477539,-77.766212,765.985962,378.075195,-66.90229,783.011169,442.961243,-70.601944,798.088684,185.949081,980.343933,1492.360718,239.17247,974.157898,1516.294556,290.296051,986.293457,1498.579224,541.495361,-505.97818,834.157837,491.929138,-510.931366,834.119751,484.608185,-450.941101,834.143738,543.876099,-451.070892,834.645813,487.06424,-514.567078,738.143921,480.75827,-438.262451,739.292725,546.544312,-441.545929,739.819397,547.53363,-508.750214,740.199341,322.681152,274.134216,845.995911,391.95578,287.249878,845.425354,374.832153,367.10141,845.667175,307.584229,351.320801,844.331787,320.270691,265.027405,741.04071,398.564728,280.647858,740.178589,377.330994,372.657196,738.687012,301.179382,353.969238,738.651978
00162_color_1715976878.406808.png,1300,1715976878.403327,-119.671043,-404.411011,770.317688,-200.499619,-423.760315,752.563477,-197.148804,-371.164337,770.849548,-111.800148,-348.51947,762.000244,-77.061974,-335.92807,748.174316,-41.560982,-335.614166,744.734619,-47.67247,-403.719879,752.90564,-22.232399,-411.197296,747.971191,7.4658,-416.305634,742.783447,289.385742,-22.690983,764.931274,259.792908,-15.996855,757.345459,237.738312,-12.262318,751.889221,368.403595,2.27379,767.027466,340.983826,20.375561,759.168091,310.615601,32.164822,751.365173,330.777496,-46.399094,776.64093,336.401459,-77.83876,765.990234,378.052734,-66.887711,783.026672,442.942017,-70.615776,798.092773,185.950897,980.264832,1492.345703,239.164978,974.158142,1516.300049,290.3013,986.300415,1498.588989,541.462585,-505.969879,834.174866,491.903748,-510.918793,834.130066,484.585266,-450.900421,834.143433,543.852234,-451.064148,834.650085,487.028625,-514.577087,738.157776,480.738464,-438.250946,739.304993,546.533875,-441.575836,739.815491,547.504944,-508.750671,740.207764,322.683868,274.132202,845.998474,391.927521,287.229095,845.42749,374.822479,367.10495,845.661621,307.577423,351.315216,844.319031,320.267883,265.018158,741.058838,398.553497,280.667938,740.195312,377.307587,372.674866,738.715088,301.275696,353.980255,738.659607
00163_color_1715976878.442672.png,1304,1715976878.443327,-120.128662,-405.307739,770.265625,-200.864349,-423.537445,752.383972,-196.80661,-370.967163,770.972656,-110.811043,-349.640411,762.148438,-75.736496,-338.001404,748.349609,-40.059982,-338.634094,744.472717,-48.166203,-406.276031,752.847412,-22.91905,-414.332123,747.956604,6.125776,-419.816681,742.02478,289.379089,-22.703678,764.936218,259.791748,-16.019518,757.338867,237.729111,-12.280703,751.879578,368.36438,2.224239,767.008606,341.121307,20.287384,759.18457,310.595978,32.143974,751.359558,330.756195,-46.437675,776.657227,336.460907,-77.770706,765.986023,378.052277,-66.893433,783.034851,442.923706,-70.636909,798.100891,185.964935,980.26355,1492.353271,239.17981,974.160217,1516.300415,290.304077,986.308777,1498.601685,541.437805,-505.994629,834.163574,491.868561,-510.954437,834.122864,484.563904,-450.90741,834.152466,543.834839,-451.088531,834.659119,487.00354,-514.583069,738.157776,480.699188,-438.276428,739.297607,546.530579,-441.599518,739.819092,547.473267,-508.764282,740.208374,322.658905,274.126923,845.993713,391.926361,287.242554,845.435913,374.803741,367.079163,845.663452,307.560455,351.294556,844.314209,320.242462,265.012848,741.055786,398.549072,280.671051,740.219116,377.307404,372.653107,738.708374,301.271088,353.971588,738.661255
00164_color_1715976878.477019.png,1307,1715976878.473327,-120.305428,-405.699677,770.212646,-201.006729,-423.397583,752.266052,-196.69371,-370.895172,771.118347,-110.480858,-350.172302,762.188721,-75.270622,-338.755768,748.348206,-39.679329,-340.128265,744.67572,-48.333099,-407.246552,752.864624,-23.128725,-415.49353,747.9021,5.78635,-421.304596,741.96228,289.349335,-22.727816,764.937927,259.776245,-16.023149,757.339905,237.711945,-12.339209,751.843506,368.392883,2.241152,767.038269,340.979126,20.296246,759.165649,310.582733,32.103539,751.356567,330.599091,-46.572826,776.767151,336.757843,-77.753746,766.335999,378.021606,-66.946449,783.020691,442.906342,-70.701431,798.095032,185.958786,980.3078,1492.320435,239.179428,974.152771,1516.304199,290.2948,986.285767,1498.594727,541.413574,-506.023163,834.188049,491.862305,-510.970642,834.132446,484.541382,-450.958862,834.143799,543.808716,-451.123108,834.651428,486.985138,-514.604614,738.13562,480.683411,-438.302948,739.319397,546.504761,-441.646515,739.814026,547.455688,-508.794189,740.206665,322.66452,274.094269,845.974609,391.909668,287.202179,845.424133,374.799286,367.047333,845.656738,307.533997,351.270477,844.32605,320.252777,265.003448,741.039429,398.529755,280.616486,740.199585,377.31189,372.629761,738.698486,301.255493,353.962982,738.685669
00165_color_1715976878.511229.png,1311,1715976878.5133271,-120.45842,-405.711487,770.101746,-201.262695,-423.167938,752.044067,-196.718979,-370.745575,771.081299,-110.606178,-349.993134,762.187805,-75.324982,-338.674225,748.280884,-39.314903,-339.663483,744.296875,-48.384792,-407.374908,752.838867,-23.197506,-415.679688,747.879761,5.710299,-421.547333,741.985352,289.347931,-22.73888,764.926086,259.756348,-16.033903,757.328003,237.69603,-12.311835,751.879456,368.371429,2.22967,767.022766,340.931458,20.299488,759.139099,310.573578,32.088787,751.343933,330.609772,-46.333908,776.950806,336.415619,-77.697403,766.237854,378.013062,-66.951302,783.011597,442.891998,-70.713966,798.097168,185.94957,980.357971,1492.341309,239.179077,974.15686,1516.298462,290.299316,986.277466,1498.579712,541.382263,-506.049347,834.1828,491.818817,-510.976196,834.142212,484.511108,-450.959106,834.150635,543.759216,-451.150848,834.664307,486.966553,-514.619202,738.149841,480.644928,-438.327301,739.307007,546.476074,-441.66864,739.823792,547.425232,-508.803009,740.195007,322.632538,274.101227,845.982849,391.900909,287.210205,845.4375,374.781372,367.065186,845.679199,307.530792,351.251404,844.324524,320.240784,264.982391,741.040161,398.531616,280.607849,740.194946,377.283142,372.629944,738.728088,301.239868,353.944305,738.671082
00166_color_1715976878.546201.png,1314,1715976878.543327,-120.575119,-405.700836,769.962036,-201.399307,-423.044067,751.738464,-196.725693,-370.725372,770.914917,-110.696434,-349.972595,762.096436,-75.452728,-338.493011,748.204468,-39.355106,-339.272614,744.096252,-48.512833,-407.31308,752.885986,-23.188002,-415.70343,747.858093,5.640254,-421.595306,741.929565,289.331329,-22.789837,764.894714,259.747314,-16.070414,757.314575,237.68454,-12.276889,751.943542,368.3526,2.183262,767.019043,340.927063,20.264294,759.143799,310.562378,31.958771,751.227295,330.684753,-46.650318,776.775391,336.459656,-77.828552,766.341248,377.994202,-66.9953,782.992676,442.86908,-70.778847,798.077393,185.965485,980.322327,1492.289307,239.182068,974.149719,1516.297241,290.301086,986.285461,1498.588867,541.353271,-506.067444,834.189514,491.783783,-510.999329,834.125488,484.475983,-450.999756,834.145874,543.737915,-451.198364,834.646729,486.925049,-514.687744,738.145203,480.627838,-438.348206,739.31665,546.461792,-441.704071,739.818054,547.388733,-508.863037,740.198181,322.619476,274.055786,845.970825,391.87619,287.179565,845.438843,374.769531,367.033997,845.687378,307.409241,351.325867,844.456665,320.225616,264.952576,741.01062,398.502502,280.568787,740.173706,377.307709,372.597778,738.705383,301.132721,353.899475,738.667908
00167_color_1715976878.580348.png,1318,1715976878.583327,-120.426086,-405.782013,769.818665,-201.281723,-423.098938,751.402222,-196.554443,-370.876526,770.750122,-110.62545,-350.054504,762.073303,-75.447449,-339.315826,748.695679,-39.131069,-339.133942,743.875366,-48.338726,-407.241608,752.815308,-23.117619,-415.724731,747.971619,5.904744,-421.608093,741.831665,289.32312,-22.798817,764.896912,259.735016,-16.084423,757.30127,237.672379,-12.401149,751.802002,368.349152,2.161021,766.986267,340.939026,20.293484,759.149475,310.563568,31.839617,751.105469,330.591858,-46.597206,776.606689,336.274689,-77.919777,766.06012,377.993439,-66.993591,782.974121,442.866333,-70.76017,798.07489,185.95105,980.319946,1492.300537,239.190475,974.150696,1516.296875,290.298492,986.28186,1498.588135,541.354675,-506.091431,834.167175,491.787811,-511.017212,834.110352,484.487061,-451.008759,834.12616,543.738037,-451.193054,834.642212,486.918732,-514.682983,738.121399,480.623138,-438.34613,739.322266,546.453552,-441.69873,739.818665,547.3927,-508.859039,740.179688,322.602936,274.069,845.966675,391.879272,287.169678,845.422791,374.767944,367.008575,845.661804,307.406647,351.317627,844.450928,320.225952,264.941467,741.008179,398.502991,280.538574,740.164124,377.289459,372.584167,738.697815,301.134888,353.904968,738.670959
00168_color_1715976878.615170.png,1321,1715976878.613327,-120.381889,-405.99292,769.712402,-201.282364,-423.332581,751.288086,-196.467865,-371.161621,770.72876,-110.566376,-350.493866,762.232788,-75.026741,-338.521759,748.093689,-39.049229,-339.393005,743.89502,-48.262653,-407.342255,752.788025,-23.032814,-415.68808,747.894836,5.911894,-421.806427,742.027588,289.300995,-22.808514,764.894958,259.703949,-16.06716,757.305359,237.643951,-12.382998,751.817017,368.33493,2.182242,767.001831,340.892334,20.269205,759.136963,310.557373,31.767328,751.055054,330.503693,-46.738708,776.602905,336.277802,-78.022614,766.072754,377.96875,-66.988029,782.993774,442.843323,-70.766029,798.079712,185.947769,980.212708,1492.351074,239.180344,974.15625,1516.289307,290.301544,986.296082,1498.588501,541.319214,-506.089813,834.180786,491.749512,-511.022034,834.110046,484.447235,-450.986786,834.116272,543.697388,-451.207275,834.646118,486.874542,-514.697998,738.147339,480.623138,-438.347565,739.300781,546.426819,-441.724762,739.80481,547.349731,-508.889313,740.192383,322.591644,274.041931,845.959473,391.858826,287.164581,845.4245,374.738007,367.009094,845.673462,307.494995,351.234467,844.331909,320.2052,264.93103,741.02832,398.480988,280.548645,740.173523,377.271149,372.568024,738.697632,301.104431,353.884583,738.667236
00169_color_1715976878.651477.png,1325,1715976878.653327,-120.373848,-405.955627,769.608643,-201.42778,-423.308167,751.030823,-196.361282,-371.108307,770.604065,-110.035164,-350.378113,761.774841,-74.948997,-338.462494,748.040527,-38.925865,-339.330841,743.775696,-48.214138,-407.272858,752.808777,-22.957256,-415.66037,747.894714,6.025463,-421.665497,741.893799,289.282898,-22.812698,764.893311,259.695435,-16.093527,757.300293,237.625748,-12.391819,751.821411,368.31311,2.152109,766.990112,340.877716,20.260765,759.149475,310.556244,31.69755,751.001587,330.631897,-46.713539,776.710754,336.401184,-78.023018,766.190979,377.94455,-67.00705,782.985657,442.818787,-70.798615,798.078552,185.934677,980.276123,1492.343994,239.188156,974.15863,1516.289795,290.303833,986.292236,1498.586792,541.288269,-506.104401,834.182007,491.716461,-511.030304,834.119751,484.419434,-451.014038,834.127014,543.669189,-451.21701,834.652039,486.855072,-514.74646,738.154541,480.58017,-438.393768,739.29541,546.423584,-441.75119,739.807312,547.319824,-508.886932,740.194885,322.563202,274.043488,845.979736,391.818604,287.145844,845.423279,374.730652,367.001282,845.690369,307.468414,351.212585,844.333618,320.188416,264.933685,741.047058,398.456848,280.538086,740.176147,377.265717,372.576813,738.713928,301.197845,353.906372,738.673645
00170_color_1715976878.688740.png,1329,1715976878.693327,-120.426056,-406.09021,769.554749,-201.376709,-423.127045,750.40863,-196.331711,-371.213623,770.436401,-110.075157,-350.528809,761.7854,-74.941658,-338.579651,748.096008,-38.878712,-339.379425,743.731812,-48.175869,-407.351685,752.924316,-22.895847,-415.702698,747.953308,6.115726,-421.569244,741.738464,289.253265,-22.832762,764.900391,259.676117,-16.109821,757.313904,237.614044,-12.399893,751.822876,368.295105,2.113617,766.98822,340.863525,20.241297,759.148438,310.530945,31.663593,750.988464,330.620605,-46.744358,776.725708,336.407349,-78.00396,766.119812,377.931946,-67.03447,782.994263,442.803802,-70.799026,798.083008,185.927322,980.295288,1492.356323,239.188339,974.15918,1516.291138,290.299896,986.296753,1498.586304,541.273499,-506.125153,834.185181,491.689484,-511.053314,834.113403,484.387299,-451.019684,834.121094,543.648132,-451.244415,834.655518,486.829559,-514.754639,738.153625,480.54715,-438.394043,739.306824,546.396912,-441.743225,739.804749,547.290771,-508.926086,740.195557,322.540405,274.047363,845.989319,391.825317,287.12793,845.426941,374.707214,366.96933,845.676392,307.452423,351.196014,844.32843,320.169312,264.932678,741.04126,398.447266,280.538788,740.182251,377.267822,372.535736,738.681824,301.076111,353.863403,738.669556
