mbdulkadiroglu/VisualAffordanceDataset/synchronized_frames_14.csv
RealSense_frame,Vicon_frame,Vicon_timestamp,RightHand1:Wrist1_X,RightHand1:Wrist1_Y,RightHand1:Wrist1_Z,RightHand1:Wrist2_X,RightHand1:Wrist2_Y,RightHand1:Wrist2_Z,RightHand1:Wrist3_X,RightHand1:Wrist3_Y,RightHand1:Wrist3_Z,RightHand1:Thumb1_X,RightHand1:Thumb1_Y,RightHand1:Thumb1_Z,RightHand1:Thumb2_X,RightHand1:Thumb2_Y,RightHand1:Thumb2_Z,RightHand1:Thumb3_X,RightHand1:Thumb3_Y,RightHand1:Thumb3_Z,RightHand1:IndexFinger1_X,RightHand1:IndexFinger1_Y,RightHand1:IndexFinger1_Z,RightHand1:IndexFinger2_X,RightHand1:IndexFinger2_Y,RightHand1:IndexFinger2_Z,RightHand1:IndexFinger3_X,RightHand1:IndexFinger3_Y,RightHand1:IndexFinger3_Z,LeftHand1:IndexFinger1_X,LeftHand1:IndexFinger1_Y,LeftHand1:IndexFinger1_Z,LeftHand1:IndexFinger2_X,LeftHand1:IndexFinger2_Y,LeftHand1:IndexFinger2_Z,LeftHand1:IndexFinger3_X,LeftHand1:IndexFinger3_Y,LeftHand1:IndexFinger3_Z,LeftHand1:Thumb1_X,LeftHand1:Thumb1_Y,LeftHand1:Thumb1_Z,LeftHand1:Thumb2_X,LeftHand1:Thumb2_Y,LeftHand1:Thumb2_Z,LeftHand1:Thumb3_X,LeftHand1:Thumb3_Y,LeftHand1:Thumb3_Z,LeftHand1:Wrist1_X,LeftHand1:Wrist1_Y,LeftHand1:Wrist1_Z,LeftHand1:Wrist2_X,LeftHand1:Wrist2_Y,LeftHand1:Wrist2_Z,LeftHand1:Wrist3_X,LeftHand1:Wrist3_Y,LeftHand1:Wrist3_Z,LeftHand1:Wrist4_X,LeftHand1:Wrist4_Y,LeftHand1:Wrist4_Z,Realsense:Camera1_X,Realsense:Camera1_Y,Realsense:Camera1_Z,Realsense:Camera2_X,Realsense:Camera2_Y,Realsense:Camera2_Z,Realsense:Camera3_X,Realsense:Camera3_Y,Realsense:Camera3_Z,Cup:Corner1_X,Cup:Corner1_Y,Cup:Corner1_Z,Cup:Corner2_X,Cup:Corner2_Y,Cup:Corner2_Z,Cup:Corner3_X,Cup:Corner3_Y,Cup:Corner3_Z,Cup:Corner4_X,Cup:Corner4_Y,Cup:Corner4_Z,Cup:Corner5_X,Cup:Corner5_Y,Cup:Corner5_Z,Cup:Corner6_X,Cup:Corner6_Y,Cup:Corner6_Z,Cup:Corner7_X,Cup:Corner7_Y,Cup:Corner7_Z,Cup:Corner8_X,Cup:Corner8_Y,Cup:Corner8_Z,Coffee:Corner1_X,Coffee:Corner1_Y,Coffee:Corner1_Z,Coffee:Corner2_X,Coffee:Corner2_Y,Coffee:Corner2_Z,Coffee:Corner3_X,Coffee:Corner3_Y,Coffee:Corner3_Z,Coffee:Corner4_X,Coffee:Corner4_Y,Coffee:Corner4_Z,Coffee:Corner5_X,Coffee:Corner5_Y,Coffee:Corner5_Z,Coffee:Corner6_X,Coffee:Corner6_Y,Coffee:Corner6_Z,Coffee:Corner7_X,Coffee:Corner7_Y,Coffee:Corner7_Z,Coffee:Corner8_X,Coffee:Corner8_Y,Coffee:Corner8_Z
00135_color_1715976615.910818.png,1913,1715976615.91432,624.377502,316.062073,845.049622,678.625916,358.924835,815.461487,685.081726,313.37262,844.364929,634.322388,261.203796,845.885254,605.365479,233.781723,848.350037,571.216614,221.446304,855.061523,554.119568,289.149597,858.952209,524.804138,285.394897,854.288452,496.571899,276.135315,845.247437,129.336243,47.686405,764.237488,157.998962,37.750778,756.525269,179.593094,31.624426,750.71167,47.519569,30.647064,761.443237,71.160919,9.042535,755.223022,97.75679,-9.32224,748.394043,89.11554,75.281174,774.5224,86.867043,107.473869,763.499146,43.892441,99.342506,776.68158,-21.249676,107.739143,788.607422,185.93602,980.306213,1492.301147,239.173553,974.138062,1516.260376,290.305328,986.279602,1498.588989,555.223755,-509.427734,834.743286,509.366882,-515.935608,834.126953,496.756531,-457.619202,834.501587,556.267273,-455.556671,834.831299,502.451721,-521.582458,738.400696,493.220398,-445.783173,739.286377,558.2771,-444.703888,740.247803,563.524475,-513.139709,740.69989,128.129974,406.113037,842.694824,87.429268,465.35907,842.137146,23.979578,415.791779,840.320068,65.515289,359.540009,841.717041,138.093307,406.166718,737.565552,91.334351,471.589935,736.914856,18.344578,413.289642,733.37085,66.217018,350.306885,735.294128
00136_color_1715976615.944778.png,1916,1715976615.94432,632.422668,309.962433,834.101746,685.202576,353.521393,802.382935,693.300903,307.690613,830.430725,642.442993,255.258774,833.884338,614.039917,227.339905,837.154053,580.132568,214.675583,845.267456,562.692993,282.677246,850.746216,533.298584,278.817749,847.225891,504.720337,269.451355,839.142517,129.270813,47.586288,764.19696,157.744141,37.208706,756.575378,179.379578,31.132938,750.807678,47.397148,30.438431,761.461243,71.005585,8.791932,755.118103,97.730011,-9.425552,748.344666,89.063545,75.166321,774.560242,86.77813,107.289185,763.534424,43.846069,99.165024,776.824585,-21.327038,107.539467,788.699707,185.967041,980.260498,1492.312256,239.179031,974.142334,1516.254395,290.312103,986.287903,1498.58313,555.213013,-509.424164,834.742798,509.372528,-515.93219,834.123596,496.753937,-457.638428,834.489685,556.267578,-455.550751,834.824463,502.450836,-521.582825,738.394592,493.212372,-445.765869,739.283142,558.303162,-444.728668,740.235413,563.506836,-513.150574,740.675781,128.134918,406.125977,842.694702,87.429512,465.347229,842.121826,23.977253,415.766235,840.314514,65.511208,359.531799,841.707825,138.080109,406.174469,737.55365,91.332291,471.578796,736.908997,18.333344,413.305298,733.38208,66.214607,350.292267,735.30603
00137_color_1715976615.979285.png,1919,1715976615.97432,640.688538,303.519867,824.228271,691.324097,348.056122,790.344482,701.672974,301.751617,817.024475,651.018677,248.792328,822.588135,622.967529,220.430206,827.009644,589.7005,207.257812,836.492859,571.873169,275.527649,843.876465,542.286438,271.516418,841.808167,513.422607,262.035156,834.872803,129.233597,47.529629,764.156128,157.708984,37.178905,756.557434,179.34613,31.121418,750.785095,47.35347,30.328829,761.51532,70.951721,8.700868,755.085266,97.691841,-9.48757,748.278809,89.089287,75.149384,774.605652,86.787895,107.319298,763.665833,43.855583,99.087593,776.936768,-21.365334,107.504028,788.771606,185.937332,980.273376,1492.291748,239.170944,974.142151,1516.249268,290.302521,986.279175,1498.568359,555.077515,-509.222321,834.627625,509.360382,-515.928894,834.12561,496.736023,-457.604309,834.50061,556.255066,-455.533966,834.827271,502.438782,-521.585083,738.403076,493.211578,-445.779846,739.262329,558.27832,-444.718719,740.23822,563.495911,-513.126465,740.677734,128.125366,406.115662,842.660706,87.425987,465.354279,842.112427,23.984198,415.779297,840.302002,65.503288,359.523712,841.698853,138.084244,406.181427,737.553467,91.328514,471.581726,736.893677,18.323898,413.288147,733.366943,66.208138,350.308472,735.30542
00138_color_1715976616.014001.png,1923,1715976616.0143201,652.325073,294.549591,812.604004,699.827881,340.536621,775.750732,712.729187,293.793854,800.755249,663.099976,239.985062,809.283569,636.03479,211.13855,815.260864,603.501465,196.928101,826.369629,585.342041,265.526917,836.72406,555.714539,260.957611,836.419556,526.519958,251.228577,831.335449,129.235382,47.478642,764.134155,157.716278,37.159462,756.544006,179.355209,31.092556,750.780762,47.407578,30.325214,761.61322,70.937599,8.644041,755.114197,97.719345,-9.47891,748.30127,89.081116,75.10733,774.64801,86.777504,107.17968,763.617065,43.887173,99.068916,777.071777,-21.357986,107.518539,788.846375,185.95137,980.291321,1492.333618,239.178055,974.142334,1516.254395,290.308563,986.283936,1498.581177,555.21814,-509.400055,834.739624,509.361969,-515.940552,834.121948,496.74469,-457.63327,834.484131,556.252808,-455.524597,834.827454,502.416443,-521.56897,738.397034,493.213684,-445.754303,739.279419,558.295044,-444.729736,740.227844,563.496216,-513.125427,740.675964,128.129486,406.119354,842.665955,87.435188,465.350891,842.112488,24.215786,415.765686,840.510437,65.518654,359.518524,841.699646,138.105774,406.181488,737.57196,91.330864,471.58139,736.891296,18.337521,413.290558,733.36969,66.208961,350.310577,735.295898
00139_color_1715976616.048720.png,1926,1715976616.04432,661.277954,287.772766,805.626953,706.938293,334.510315,767.237488,721.157471,287.572449,791.177307,672.111023,233.234772,801.104065,645.467896,204.058411,807.7948,613.321167,189.219482,819.694763,595.422791,258.068726,832.15271,565.88092,253.387146,833.189636,536.497498,243.445389,829.146484,129.279388,47.587158,764.159241,157.775558,37.212746,756.553772,179.383011,31.132336,750.769653,47.514118,30.473516,761.66394,71.090904,8.817732,755.236694,97.747536,-9.415909,748.325806,89.126801,75.211685,774.631226,86.806335,107.314957,763.574036,43.928703,99.195107,777.029236,-21.309158,107.681236,788.775208,186.727768,980.089294,1493.412476,239.175278,974.146973,1516.258301,290.304077,986.28479,1498.581421,555.213684,-509.39624,834.745483,509.355835,-515.922913,834.122559,496.736572,-457.627319,834.484741,556.262268,-455.518097,834.819153,502.44809,-521.562744,738.425293,493.19281,-445.757996,739.289062,558.278381,-444.714661,740.233398,563.517273,-513.120605,740.678833,128.136261,406.136078,842.690491,87.42675,465.354828,842.121094,24.215305,415.780579,840.50116,65.513298,359.540741,841.708435,138.108109,406.178406,737.565308,91.329475,471.592072,736.89917,18.344915,413.299438,733.358887,66.220795,350.309448,735.290527
00140_color_1715976616.083110.png,1930,1715976616.08432,672.174011,279.201355,799.167725,717.428589,325.281067,759.556396,731.58905,278.43576,783.724854,682.608582,224.557236,794.928955,655.475891,195.350967,801.892029,623.558533,180.854675,814.303101,606.548096,250.189392,827.288696,576.940979,245.521484,828.670593,547.511047,235.686401,825.01178,129.315063,47.615574,764.14032,157.926239,37.707012,756.407471,179.577164,31.622328,750.687927,47.530624,30.510935,761.648926,71.11776,8.874694,755.237854,97.754219,-9.38246,748.327576,89.125862,75.231079,774.546326,86.808983,107.397102,763.552551,43.910694,99.265007,776.926086,-21.226976,107.771721,788.814575,185.946503,980.225037,1492.314697,239.175781,974.139771,1516.248657,290.298553,986.249268,1498.552856,555.215088,-509.39328,834.747864,509.362335,-515.931152,834.130066,496.732086,-457.622498,834.49054,556.257935,-455.51355,834.819153,502.427765,-521.578003,738.425415,493.218719,-445.779663,739.273926,558.272705,-444.713928,740.241211,563.509033,-513.135376,740.6875,128.130615,406.121307,842.685486,87.429527,465.353912,842.111572,24.216795,415.761688,840.492371,65.509956,359.555939,841.692993,138.09108,406.178894,737.561096,91.33493,471.595306,736.893311,18.36272,413.283905,733.36908,66.199997,350.310333,735.299561
00141_color_1715976616.117220.png,1933,1715976616.11432,678.701782,272.715637,797.222534,725.454407,317.239594,757.732178,738.523621,270.77594,783.380615,688.614624,217.920609,794.724243,661.157776,189.120331,801.58313,628.634949,175.333054,813.59613,611.991333,245.181732,824.285889,582.363342,240.991257,825.030823,552.93457,231.55896,820.952759,129.325516,47.791927,764.029785,157.836502,37.424438,756.553711,179.430511,31.264961,750.784851,47.645439,30.759626,761.645447,71.302353,9.169192,755.337769,97.813347,-9.202487,748.437622,89.154221,75.542114,774.372681,86.810684,107.711533,763.346924,43.89946,99.543694,776.530457,-21.113846,108.491341,789.052368,185.95816,980.268188,1492.321167,239.178635,974.140198,1516.256714,290.300079,986.275879,1498.576782,555.197021,-509.406494,834.754211,509.364319,-515.943542,834.135376,496.734558,-457.623169,834.500793,556.249573,-455.554932,834.840881,502.434662,-521.578247,738.407776,493.198151,-445.767242,739.292908,558.282227,-444.746979,740.238586,563.526001,-513.147156,740.698364,128.126312,406.090179,842.65625,87.41925,465.348511,842.110291,24.207767,415.748657,840.483643,65.508606,359.531647,841.694153,138.090775,406.16861,737.548401,91.322639,471.57666,736.887634,18.497849,413.34024,733.601196,66.187233,350.296356,735.291687
00142_color_1715976616.151368.png,1937,1715976616.15432,686.866211,262.93631,801.007446,736.16333,306.056793,762.389465,747.983765,260.477966,789.914917,696.658081,208.137833,800.423218,669.031555,179.443832,806.529846,635.974976,165.876221,817.217285,618.761658,236.465912,824.991333,588.978333,232.722061,824.218933,559.733887,223.433517,818.908813,129.477356,48.079571,764.101746,158.0979,38.052387,756.499756,179.665894,31.801998,750.688049,47.785099,30.982285,761.545044,71.543335,9.413171,755.46637,97.988174,-9.098569,748.551697,89.211388,75.824211,774.273987,86.823753,107.977646,763.198242,43.958134,99.772438,776.08606,-21.220291,108.131767,788.298279,185.962311,980.312195,1492.301147,239.177231,974.135742,1516.258301,290.303375,986.272644,1498.580566,555.205444,-509.413605,834.757874,509.364441,-515.937073,834.136719,496.74353,-457.640503,834.489685,556.250732,-455.558685,834.832275,502.433167,-521.576233,738.405823,493.190338,-445.764435,739.287109,558.28833,-444.741547,740.24115,563.479675,-513.114868,740.686523,128.132065,406.105988,842.660522,87.423843,465.339447,842.110535,24.227482,415.744293,840.466187,65.506844,359.528259,841.697998,138.096832,406.18103,737.561035,91.333542,471.588623,736.894653,18.133747,413.698334,733.825256,66.214561,350.30719,735.27478
00143_color_1715976616.185829.png,1940,1715976616.18432,693.902039,255.754623,807.910583,743.48877,299.311981,769.891907,755.22113,253.665359,797.359375,704.046448,200.701416,806.99762,676.405273,172.019775,812.767151,643.298889,158.25882,823.030884,625.540405,228.67038,830.829407,595.850586,224.67453,829.68811,566.629517,215.140915,823.839722,129.516724,48.035263,764.137634,157.971359,37.563873,756.618958,179.538895,31.348091,750.762207,47.864986,31.044661,761.384827,71.66114,9.301762,755.279602,98.214317,-9.184131,748.462219,89.14669,75.743713,774.275269,86.760376,107.968239,763.261047,43.831154,99.439056,775.722473,-21.368698,107.386559,787.942078,185.967819,980.301025,1492.338135,239.179962,974.133179,1516.255127,290.305084,986.247559,1498.558716,555.197998,-509.42041,834.756714,509.345398,-515.941956,834.12323,496.729126,-457.620758,834.501343,556.234985,-455.544708,834.837036,502.428772,-521.590515,738.422302,493.205353,-445.778687,739.292847,558.28833,-444.734985,740.238525,563.488953,-513.145813,740.702576,128.114395,406.077698,842.643921,87.410141,465.338654,842.104492,24.207243,415.738525,840.470276,65.656563,359.442505,841.666077,138.079071,406.180054,737.535583,91.318909,471.57843,736.881897,18.674545,413.22403,733.570862,66.183502,350.282318,735.276123
00144_color_1715976616.220288.png,1944,1715976616.22432,702.605835,248.245865,819.063416,751.762085,292.946228,781.569336,764.055542,246.869308,808.099487,713.266113,193.592392,817.578552,685.795349,164.495789,822.896484,652.898499,150.34491,833.314026,634.519592,220.058167,841.85553,604.85144,215.91095,840.875,575.69043,206.097305,834.983337,129.688202,48.087318,764.280823,158.118851,37.626537,756.707764,179.65657,31.398312,750.771912,48.109097,30.870104,761.144531,72.052315,9.461894,755.524048,98.948631,-8.838916,748.84314,89.086563,75.758141,774.341187,86.685959,107.923752,763.198669,43.79126,99.406769,775.518677,-21.374897,106.728188,787.684814,185.952927,980.263123,1492.328979,239.179871,974.139221,1516.250977,290.302826,986.274414,1498.575073,555.198425,-509.422607,834.741028,509.355377,-515.944458,834.133667,496.724731,-457.62384,834.492676,556.233948,-455.53244,834.829529,502.420074,-521.584229,738.40686,493.186523,-445.773163,739.283936,558.27179,-444.73056,740.251465,563.498291,-513.144104,740.697937,128.118988,406.103302,842.652832,87.42926,465.514435,842.34082,24.183971,415.737823,840.474548,65.632538,359.687775,842.066345,138.081619,406.160645,737.530762,91.315361,471.575226,736.878723,18.459093,413.335083,733.567749,66.250664,350.277069,735.393799
00145_color_1715976616.254738.png,1947,1715976616.25432,708.04895,245.130905,827.279541,756.966553,290.269775,789.620972,769.760254,243.990265,815.569641,718.836609,190.486588,825.34436,691.594788,161.330719,830.960999,658.734802,146.971863,841.542847,640.085388,216.627899,850.405823,610.437988,212.234467,849.688904,581.338379,202.47345,844.086548,129.774918,48.158379,764.367432,158.186981,37.690582,756.741394,179.692612,31.447723,750.773926,48.234982,30.87163,761.054199,72.197632,9.449214,755.497925,99.15583,-8.625456,748.889282,89.05957,75.782578,774.350037,86.643173,107.947449,763.178162,43.972343,99.537666,775.673706,-21.422144,106.316864,787.516663,185.930405,980.30896,1492.324829,239.178558,974.140076,1516.256714,290.303925,986.281738,1498.581421,555.178467,-509.401733,834.761169,509.339386,-515.933411,834.128113,496.711456,-457.613129,834.502319,556.218811,-455.552307,834.835144,502.413818,-521.570618,738.429199,493.186157,-445.784027,739.273499,558.256958,-444.700989,740.259033,563.471863,-513.147766,740.71759,128.111923,406.112732,842.660095,87.400574,465.3302,842.100037,24.215385,415.717468,840.453735,65.62912,359.704468,842.086548,138.084229,406.198517,737.550964,91.313797,471.590973,736.889038,18.451874,413.342499,733.580872,66.070961,350.511658,735.595032
00146_color_1715976616.289308.png,1950,1715976616.28432,712.669495,243.683167,834.418091,761.492249,288.793518,795.998474,774.77594,242.533539,821.732056,723.367554,189.199722,832.52301,696.147949,160.090851,838.525879,663.537964,145.769943,849.427856,644.85376,215.413162,858.11792,615.150085,211.026291,857.779602,585.984802,201.242401,852.463013,129.893082,48.235096,764.488892,158.273407,37.717239,756.78595,179.775955,31.431414,750.756531,48.389977,30.757479,760.903748,72.376869,9.353619,755.429932,99.489784,-8.656318,748.843933,89.040909,75.788025,774.425781,86.592781,107.948227,763.161987,43.652966,99.26165,775.140259,-21.437958,105.837997,787.296509,185.961258,980.312073,1492.335693,239.176392,974.147156,1516.261475,290.30542,986.290527,1498.585449,555.178345,-509.393982,834.753052,509.339081,-515.937439,834.133728,496.715088,-457.633026,834.493225,556.227295,-455.537964,834.838135,502.400208,-521.573486,738.405151,493.185516,-445.775452,739.280334,558.256409,-444.717743,740.247559,563.480957,-513.15033,740.713379,128.105728,406.089172,842.642456,87.397087,465.311005,842.092773,24.167871,415.710693,840.459473,65.625755,359.706604,842.066711,138.07164,406.18161,737.547302,91.302986,471.588684,736.885193,18.431942,413.356812,733.579468,66.814705,349.97522,735.637878
00147_color_1715976616.324011.png,1954,1715976616.32432,718.927246,243.448654,841.468018,766.987915,288.145386,801.288574,780.891602,241.656082,826.395874,729.051514,188.675537,839.105286,702.173035,159.822739,846.230469,669.692627,145.834061,858.202454,651.291565,215.371857,866.889832,621.580322,211.075806,866.783264,592.302185,201.409378,861.736389,130.28212,48.24091,764.703552,158.580811,37.752487,756.869995,180.127396,31.49939,750.744141,48.792244,30.63154,760.849304,72.776367,9.019465,755.228333,100.208923,-8.693068,748.755127,89.280357,75.813141,774.600952,86.989624,108.157951,763.587097,43.766663,99.021469,774.871277,-21.307213,105.30838,787.109863,185.943176,980.313721,1492.321655,239.172546,974.140808,1516.252441,290.304321,986.28595,1498.5896,555.184814,-509.42337,834.75293,509.335571,-515.928772,834.138245,496.706512,-457.62796,834.498535,556.23468,-455.536377,834.825134,502.40921,-521.57489,738.413879,493.173828,-445.793793,739.274414,558.252319,-444.731049,740.248474,563.513306,-513.149353,740.715393,128.196121,406.271271,842.857178,87.402138,465.326965,842.09314,24.195122,415.722137,840.462952,65.627716,359.699341,842.079041,138.088211,406.184265,737.529358,91.317101,471.57901,736.870728,18.449673,413.350769,733.571411,66.59671,349.941162,735.228333
00148_color_1715976616.358868.png,1957,1715976616.35432,723.92041,243.30188,844.55835,771.008362,287.574432,802.745056,785.438416,241.194809,827.397644,733.793884,188.407944,841.630493,706.728271,159.949722,849.571655,674.510071,145.967987,862.303833,656.56488,215.375412,871.447937,626.82019,211.227051,871.869629,597.418884,201.623245,867.100342,130.417358,48.183361,764.74353,158.769577,37.746975,756.885376,180.300934,31.506256,750.718445,48.952278,30.454126,760.727112,72.956894,8.817254,755.10083,100.534706,-8.755837,748.706604,89.438721,75.768829,774.699036,87.101692,108.204834,763.774414,43.817966,98.824837,774.748474,-21.24889,105.003906,787.05072,185.950165,980.351868,1492.286255,239.167465,974.137939,1516.258301,290.296631,986.277832,1498.583496,555.179016,-509.445557,834.762817,509.341064,-515.963318,834.127014,496.712219,-457.649017,834.486755,556.228333,-455.575684,834.829773,502.405151,-521.594727,738.407837,493.170288,-445.796265,739.281677,558.268494,-444.735565,740.253418,563.523499,-513.152649,740.707703,128.214828,406.259399,842.841431,87.434608,465.483978,842.312439,24.203146,415.724426,840.45813,65.6325,359.704956,842.060242,138.087601,406.156769,737.534485,91.320229,471.570923,736.871826,18.475725,413.32724,733.547058,66.031357,350.650482,735.734497
00149_color_1715976616.393680.png,1961,1715976616.39432,730.434204,242.611969,845.734558,776.521057,286.664001,802.345154,791.554565,240.299881,826.574402,739.841431,187.859375,842.414856,712.796509,159.486816,851.11322,680.856567,145.657089,864.853394,663.598633,215.33989,874.673462,633.80188,211.226517,875.666931,604.311157,202.045975,871.642883,130.450027,48.187538,764.779358,158.798553,37.746906,756.900879,180.330917,31.495817,750.720093,48.972298,30.469147,760.712891,72.991646,8.818318,755.117981,100.601082,-8.758696,748.706238,89.562233,76.124756,775.148376,86.929199,108.107445,763.518311,43.834698,98.852943,774.643982,-21.217354,105.067902,786.934448,185.965637,980.24408,1492.314697,239.167938,974.145386,1516.258911,290.300476,986.274963,1498.577637,555.179565,-509.430939,834.75177,509.339752,-515.94165,834.127625,496.712219,-457.635956,834.500916,556.224854,-455.538086,834.825195,502.402069,-521.587708,738.398438,493.178864,-445.77301,739.287964,558.268066,-444.764221,740.231201,563.500366,-513.160278,740.706299,128.221725,406.257416,842.83905,87.419281,465.314056,842.091248,24.215155,415.706696,840.444458,65.628304,359.714111,842.080872,138.082642,406.147766,737.516296,91.327957,471.575195,736.861633,18.474388,413.330872,733.549194,66.239189,350.355682,735.48291
00150_color_1715976616.431967.png,1965,1715976616.43432,737.489807,241.712891,844.972351,782.817627,285.585236,800.590454,798.122986,238.980072,824.266418,746.428467,186.790253,841.461731,719.216919,158.548416,850.68573,687.551575,145.145035,865.214233,671.229919,214.928925,875.613098,641.488586,211.17923,877.478027,611.778687,202.081039,874.15863,130.490891,48.218258,764.859802,158.857864,37.774738,756.933289,180.368179,31.514816,750.715515,49.049988,30.523993,760.730713,73.012505,8.831505,755.120605,100.641388,-8.745126,748.729858,89.783302,76.321251,775.378601,86.953308,108.155762,763.482178,43.898621,98.939781,774.572693,-21.172112,105.208061,786.842407,185.946823,980.310181,1492.311401,239.167786,974.140991,1516.267212,290.299164,986.277954,1498.58252,555.176758,-509.43042,834.754822,509.342804,-515.93219,834.128113,496.702911,-457.628937,834.493164,556.219849,-455.558136,834.827393,502.398499,-521.587463,738.414856,493.079437,-445.67923,739.397522,558.249146,-444.757812,740.240356,563.494202,-513.157288,740.688904,128.221817,406.255554,842.830872,87.416534,465.309082,842.078857,24.249077,415.70285,840.415894,65.635048,359.6987,842.056824,138.112808,406.179443,737.516907,91.327225,471.568848,736.866394,18.474876,413.33551,733.538818,66.914879,349.741364,735.285339
00151_color_1715976616.467363.png,1968,1715976616.46432,743.124878,240.432068,843.815918,788.092102,284.087189,798.944214,803.552979,237.297256,822.454468,751.610474,185.582581,840.385681,724.334961,157.386826,849.793518,692.761169,144.100906,864.549377,677.107544,214.213715,875.170044,647.335266,210.743439,877.572876,617.578552,202.006561,874.804565,130.559265,48.201523,764.8526,158.92041,37.768513,756.91748,180.443222,31.479727,750.690918,49.117996,30.543335,760.767578,73.090996,8.836839,755.160156,100.690369,-8.765046,748.719971,89.631096,76.073967,774.987854,86.964493,108.080177,763.377991,43.964439,98.983818,774.531921,-21.120974,105.261635,786.794922,186.717606,980.081604,1493.370361,239.172913,974.142517,1516.263672,290.30719,986.283386,1498.582031,555.188599,-509.434357,834.747009,509.330139,-515.94574,834.11969,496.702667,-457.6409,834.475708,556.231506,-455.55954,834.817017,502.403503,-521.601013,738.404602,493.135529,-445.748901,739.324463,558.247375,-444.762421,740.231995,563.498657,-513.147339,740.683167,128.213257,406.249054,842.814758,87.416702,465.312317,842.072144,24.190571,415.717773,840.424866,65.630821,359.696655,842.027222,138.101532,406.141876,737.480896,91.327255,471.568268,736.852905,18.462967,413.32666,733.530884,66.638618,349.894775,735.172607
00152_color_1715976616.502823.png,1972,1715976616.50432,750.658142,238.116272,842.596985,795.807739,281.212646,797.391968,811.203369,234.601028,821.173523,758.970703,183.142868,839.652527,731.531128,155.091339,849.201782,699.813416,142.08017,864.039062,684.465027,212.376312,874.054199,654.621704,209.03978,876.463135,624.802185,200.266861,873.679565,130.696274,48.287346,764.934509,159.062103,37.757,756.918213,180.574585,31.487188,750.687683,49.256432,30.643797,760.856018,73.232811,8.885242,755.24353,100.788788,-8.755834,748.716125,89.759537,76.116333,774.926392,87.061409,108.136169,763.316895,44.104664,99.153084,774.503845,-20.992687,105.480995,786.708984,185.958954,980.297852,1492.326294,239.171005,974.131653,1516.261841,290.30368,986.274841,1498.575928,555.17865,-509.438202,834.751099,509.333801,-515.946716,834.116455,496.604248,-457.452789,834.506653,556.229065,-455.548462,834.808594,502.418884,-521.596252,738.395813,493.148499,-445.73645,739.343567,558.265747,-444.7565,740.239868,563.506836,-513.171387,740.689697,128.208511,406.24054,842.816833,87.410515,465.307831,842.075195,24.210297,415.696045,840.414734,65.632011,359.68222,842.009399,138.063553,406.153839,737.491394,91.329865,471.567902,736.853394,18.476376,413.311432,733.519775,66.618362,349.911926,735.169617
00153_color_1715976616.538019.png,1975,1715976616.53432,756.217896,235.958237,842.24585,801.520142,278.430939,796.403564,816.964355,232.47995,821.047241,764.560059,181.001724,839.859314,737.224182,153.044525,849.625916,705.234924,140.087982,864.246155,689.894714,210.31691,873.59729,660.103638,206.945663,875.841248,630.286133,198.222763,873.146729,130.855606,48.391815,764.997803,159.190308,37.791054,756.926697,180.692139,31.515539,750.69519,49.39201,30.725597,760.926697,73.400803,9.015335,755.3573,100.898941,-8.710895,748.764465,89.909538,76.213478,774.924377,87.139877,108.196632,763.258789,44.231014,99.269356,774.492065,-20.885057,105.657394,786.655701,185.95462,980.19635,1492.333862,239.165924,974.139465,1516.273193,290.3013,986.28363,1498.583984,555.180481,-509.446991,834.753052,509.326233,-515.936035,834.127136,496.642609,-457.589172,834.554565,556.208984,-455.549713,834.816833,502.380554,-521.586243,738.404236,493.128296,-445.747559,739.340027,558.263855,-444.754578,740.219177,563.469543,-513.15863,740.693604,128.202698,406.244446,842.817688,87.40921,465.314972,842.089111,24.194016,415.726868,840.438232,65.620499,359.688629,842.009766,138.059235,406.165771,737.496216,91.329422,471.570251,736.85199,18.463253,413.344635,733.524963,66.609924,349.914978,735.191467
00154_color_1715976616.573699.png,1979,1715976616.57432,763.345764,232.997772,842.804382,808.862732,275.313232,796.728943,824.373413,229.483383,821.586975,771.825745,177.900833,840.630066,744.449829,149.985077,850.464905,712.469177,137.108505,865.063782,697.080139,207.414856,874.150513,667.294861,204.006699,876.420776,637.536987,195.148453,873.796448,130.981796,48.392979,765.048706,159.32692,37.764271,756.929382,180.817902,31.483681,750.687073,49.503197,30.686737,760.910828,73.549904,8.964841,755.343506,101.037369,-8.719913,748.754272,90.017807,76.190475,774.927429,87.221046,108.141464,763.233826,44.321259,99.250252,774.478333,-20.784092,105.667854,786.64325,185.967346,980.302429,1492.319092,239.173462,974.137817,1516.261841,290.303772,986.275452,1498.577148,555.177856,-509.436615,834.740906,509.332062,-515.941223,834.122986,496.646271,-457.59024,834.564636,556.217163,-455.550934,834.824402,502.400879,-521.592896,738.395691,493.120178,-445.751556,739.351257,558.250427,-444.744995,740.236755,563.503296,-513.164551,740.690735,128.213806,406.260834,842.842102,87.407875,465.309265,842.069397,24.199631,415.713593,840.415894,65.630417,359.696442,842.004578,138.068756,406.148468,737.504333,91.328865,471.567383,736.84967,18.452246,413.329742,733.5354,66.617981,349.924744,735.168152
00155_color_1715976616.608926.png,1982,1715976616.60432,768.210571,231.279953,843.659424,813.807251,273.50354,797.3927,829.486389,227.742477,822.34967,776.906921,176.249878,841.821045,749.477051,148.279541,851.700928,717.642761,135.459427,866.491943,702.097107,205.788177,875.246033,672.322754,202.256332,877.541382,642.540222,193.415848,875.105713,131.060303,48.43322,765.109192,159.380051,37.749371,756.94104,180.882584,31.496014,750.697754,49.554363,30.687969,760.963318,73.632805,8.978589,755.378052,101.084549,-8.726113,748.765503,90.060677,76.200882,774.947754,87.269142,108.135033,763.219666,44.364902,99.267136,774.468323,-20.731459,105.724968,786.641418,185.938232,980.29071,1492.324097,239.168945,974.135071,1516.263672,290.301758,986.272583,1498.582397,555.185608,-509.429108,834.740967,509.33432,-515.946289,834.126953,496.62915,-457.614044,834.570862,556.079529,-455.218445,834.770447,502.392883,-521.590576,738.391968,493.114197,-445.734985,739.348999,557.805298,-444.148621,740.73114,563.515198,-513.153503,740.683289,128.207901,406.240479,842.817322,87.403381,465.298157,842.070679,24.207516,415.720551,840.427734,65.625015,359.709961,842.017456,138.077148,406.171844,737.520142,91.312004,471.582336,736.854858,18.450975,413.346375,733.534546,66.596947,349.929382,735.173889
00156_color_1715976616.644427.png,1986,1715976616.64432,773.973145,229.786499,844.976318,819.653381,271.982971,798.447937,835.543701,226.323044,823.450928,782.622559,174.788239,843.379211,755.302795,146.925415,853.434753,723.340088,134.05452,868.010254,707.79425,204.420898,876.483582,678.016479,200.978241,879.010498,648.212036,192.022537,876.56842,131.07283,48.430416,765.138123,159.36496,37.720161,756.946106,180.848984,31.456627,750.696289,49.532261,30.641172,760.941345,73.592064,8.94822,755.353882,101.080582,-8.73204,748.761963,90.054413,76.172989,774.928101,87.264786,108.113655,763.2052,44.361542,99.257591,774.464355,-20.747196,105.746758,786.626099,185.970688,980.265747,1492.303711,239.168488,974.138306,1516.271118,290.294037,986.249268,1498.565674,555.144714,-509.458649,834.748596,509.298218,-515.945801,834.102905,496.585724,-457.620056,834.581787,556.103516,-455.397766,834.820435,502.418518,-521.624451,738.394714,493.110443,-445.769501,739.354553,558.162109,-444.649292,740.332336,563.485291,-513.152649,740.685547,128.208237,406.231049,842.815857,87.39917,465.300873,842.080872,24.19998,415.723053,840.429688,65.614624,359.690704,842.013245,138.041168,406.170013,737.487122,91.322708,471.562653,736.849365,18.467066,413.333832,733.52771,66.617104,349.898865,735.174805
00157_color_1715976616.679924.png,1990,1715976616.68432,778.926758,229.584366,846.011108,824.708618,271.675232,799.028625,840.75061,226.026611,823.946106,787.605713,174.573944,844.332886,760.187378,146.633652,854.379517,728.256775,133.87648,869.088745,712.713806,204.178543,877.470398,682.882324,200.742767,879.903992,653.115662,191.827972,877.400757,131.093842,48.427048,765.189026,159.378937,37.723484,756.976929,180.869675,31.459034,750.702637,49.543278,30.614077,760.930542,73.577782,8.922505,755.338867,101.078293,-8.764173,748.753784,90.053391,76.179161,774.940369,87.260956,108.107521,763.214844,44.366699,99.265182,774.460815,-20.724682,105.79995,786.614075,185.967087,980.288879,1492.327026,239.172119,974.133545,1516.266235,290.308838,986.272522,1498.584961,554.983826,-509.554932,834.796936,509.157593,-516.041443,834.07251,496.457428,-457.686005,834.584839,555.997131,-455.588135,834.912109,502.353668,-521.617676,738.331116,493.090546,-445.773376,739.354187,558.164001,-444.693176,740.402405,563.386353,-513.177795,740.722717,128.200974,406.219727,842.815552,87.404137,465.296814,842.077576,24.192991,415.710999,840.423767,65.625908,359.670441,842.024475,138.08551,406.164215,737.536743,91.325966,471.574371,736.855591,18.453518,413.329651,733.522339,66.617874,349.917542,735.15625
00158_color_1715976616.717273.png,1993,1715976616.71432,782.421204,230.084457,846.018982,827.926697,272.057251,798.725647,844.035522,226.430313,823.646729,790.95575,175.158936,844.676697,763.589539,147.335403,854.859009,731.683044,134.604797,869.679016,716.259827,204.977356,878.047119,686.472656,201.643463,880.589111,656.668152,192.738052,878.243835,131.150223,48.447041,765.217163,159.395615,37.747696,756.966675,180.865082,31.46439,750.695129,49.531448,30.672829,760.965332,73.605949,8.954679,755.365173,101.08168,-8.743858,748.766052,90.061546,76.2034,774.934753,87.260635,108.142036,763.197205,44.375961,99.323669,774.434204,-20.703773,105.925529,786.574036,185.952255,980.293701,1492.277222,239.175598,974.131592,1516.258667,290.295532,986.255066,1498.566162,554.572754,-509.836609,834.830383,508.717651,-516.135254,834.021667,496.282288,-457.755829,834.544373,555.847534,-455.897858,834.988037,502.026794,-521.606506,738.258606,493.057373,-445.622589,739.393066,558.159363,-444.992523,740.472656,563.127869,-513.436951,740.715332,128.204025,406.233398,842.801514,87.40229,465.299927,842.070129,24.201172,415.71344,840.396606,65.614082,359.68515,841.98822,138.072159,406.183502,737.506592,91.325523,471.567444,736.852966,18.476852,413.305695,733.500916,66.643173,349.87616,735.123657
00159_color_1715976616.754320.png,1997,1715976616.75432,785.940308,231.501846,845.421936,831.481201,273.230011,797.903931,847.595154,227.478195,822.78949,794.364319,176.454865,844.018677,766.910278,148.717865,854.424072,735.180542,135.927475,869.403564,719.762512,206.58902,877.615479,689.979553,203.19606,880.047241,660.134033,194.24614,877.617371,131.196762,48.495113,765.293457,159.397858,37.771442,756.99823,180.858536,31.465195,750.696838,49.531834,30.702168,760.974854,73.59523,8.973659,755.370789,101.061661,-8.72617,748.777771,90.06221,76.229439,774.935486,87.268646,108.144623,763.183533,44.382732,99.340141,774.414185,-20.704708,105.976456,786.552307,185.962006,980.200378,1492.31665,239.172195,974.132568,1516.261353,290.301361,986.279358,1498.58252,552.914185,-511.168884,834.841187,506.870331,-516.223877,833.980347,495.900208,-457.568481,834.548035,555.54071,-457.099487,835.047974,500.170776,-521.238037,738.044189,492.898499,-445.324554,739.325806,558.106995,-446.442169,740.506042,560.440918,-513.920776,740.292725,128.201431,406.239929,842.818481,87.418251,465.479095,842.312683,24.187643,415.715485,840.419739,65.620407,359.693787,842.000854,138.050827,406.165955,737.497131,91.315086,471.56488,736.843872,18.464779,413.309113,733.498413,66.642632,349.872864,735.127319
00160_color_1715976616.790442.png,2001,1715976616.79432,788.211914,232.980988,844.181824,834.215454,274.331238,796.616882,850.107849,228.72998,821.721863,796.345093,177.910797,842.78894,768.858032,150.094528,852.970032,736.915771,137.733063,867.9823,721.556519,208.171036,875.768799,691.72998,204.943588,877.875732,661.929016,196.046082,875.097778,131.197296,48.643673,765.455933,159.421677,37.790699,757.019287,180.865662,31.475101,750.697388,49.522728,30.704046,760.968323,73.604355,8.984522,755.378784,101.065529,-8.71114,748.785034,90.053772,76.217163,774.923767,87.255936,108.14698,763.203247,44.376701,99.338638,774.432312,-20.716932,105.961479,786.561096,186.727203,980.078918,1493.381836,239.166321,974.130981,1516.263306,290.305939,986.277954,1498.587769,550.678223,-512.736328,834.798157,504.536804,-516.516235,833.927612,495.312347,-457.531616,834.53302,554.868469,-458.857361,835.162781,497.968628,-521.042908,737.90155,492.728455,-444.970001,739.411621,557.946106,-448.249298,740.475098,558.14563,-515.296814,740.181458,128.190826,406.24176,842.820923,87.400635,465.298462,842.075806,24.205019,415.701752,840.397949,65.607155,359.676361,841.992004,138.063171,406.172089,737.494446,91.315941,471.568695,736.847839,18.463753,413.313385,733.504089,66.615692,349.889496,735.155273
00161_color_1715976616.826195.png,2004,1715976616.82432,789.261536,234.02626,843.090393,835.819397,275.324341,795.820068,851.516357,229.676804,821.038574,797.37561,178.853882,841.878052,769.677246,151.233566,851.772217,737.61792,138.887253,866.48877,722.319336,209.355362,874.136475,692.476501,206.199829,876.065735,662.616516,197.345917,873.039734,131.08606,48.434948,765.132507,159.421707,37.808735,757.025085,180.845093,31.471933,750.6922,49.536522,30.727896,760.987427,73.644608,9.035187,755.387268,101.07901,-8.705717,748.784729,90.063446,76.241409,774.939209,87.258888,108.166374,763.201843,44.372787,99.363129,774.444214,-20.727823,105.937218,786.562927,186.722992,980.069458,1493.359863,239.1689,974.137939,1516.261597,290.309021,986.284302,1498.58252,549.754761,-513.280212,834.782043,503.546722,-516.681519,833.895874,494.779205,-457.622131,834.506226,554.312134,-459.365784,835.188904,497.079865,-521.044006,737.864319,492.315338,-444.980133,739.442749,557.537781,-448.745514,740.493469,557.344849,-516.09082,740.299255,128.200897,406.230133,842.807434,87.402306,465.288452,842.059204,24.229576,415.708618,840.398987,65.607231,359.668549,842.014893,138.05072,406.139954,737.488647,91.314346,471.561035,736.842346,18.44799,413.317322,733.512085,66.596893,349.911926,735.145813
00162_color_1715976616.862033.png,2008,1715976616.86432,790.250549,235.459427,842.047241,837.552185,276.62851,795.07959,852.948608,230.934738,820.401062,798.375549,180.388016,841.166809,770.472229,152.849396,850.709045,738.230835,140.455688,865.049927,722.961487,210.937286,872.38092,693.07312,207.759827,873.859558,663.286987,199.069733,870.609314,131.098801,48.455727,765.167175,159.539047,38.279533,756.851257,181.071381,32.009541,750.653931,49.5429,30.734289,760.992859,73.656052,9.052497,755.409424,101.074921,-8.683567,748.793823,90.064529,76.253792,774.9375,87.246445,108.176292,763.212769,44.365025,99.361359,774.449036,-20.745329,105.882149,786.574158,186.917343,980.047913,1493.61438,239.177536,974.134766,1516.26001,290.310333,986.278564,1498.577515,547.125183,-513.662903,834.771484,500.775574,-516.345093,833.785706,492.486938,-457.708191,834.466248,552.052124,-459.751373,835.136353,494.386017,-521.231873,737.85907,490.165771,-444.958527,739.45697,555.223511,-449.117615,740.515747,554.796875,-517.001831,740.450378,128.196442,406.242035,842.821289,87.421349,465.457916,842.278931,24.196251,415.715607,840.415894,65.609467,359.689209,842.014587,138.051453,406.137604,737.479248,91.313995,471.561096,736.849243,18.460825,413.309753,733.531982,66.592148,349.892365,735.170044
00163_color_1715976616.897101.png,2011,1715976616.89432,790.853394,236.832809,841.691101,838.474915,277.716461,794.77478,853.662292,232.071548,820.288818,798.746338,181.689972,840.814758,770.650146,154.312531,850.408264,738.404602,142.096024,864.682007,723.282898,212.538544,871.568054,693.314453,209.316986,872.831726,663.511414,200.799393,869.399353,131.098251,48.452286,765.187622,159.402527,37.764694,756.993958,180.868652,31.477413,750.700195,49.555515,30.75094,761.002075,73.656876,9.053371,755.42572,101.08094,-8.68515,748.805298,90.069756,76.259895,774.973389,87.251991,108.187523,763.230103,44.36515,99.326767,774.453979,-20.744213,105.882271,786.589539,187.052261,980.029297,1493.802124,239.169052,974.136963,1516.269165,290.304291,986.259766,1498.569214,543.542053,-514.042114,834.755249,497.222687,-516.566589,833.758423,489.309357,-457.746368,834.447449,548.807129,-460.185364,835.082031,490.648651,-521.08606,737.813782,486.998016,-444.845764,739.492615,552.089111,-449.532898,740.479004,551.195374,-517.520996,740.418762,128.187195,406.235901,842.816956,87.395111,465.299347,842.075989,24.188148,415.719513,840.427979,65.603226,359.675446,842.010925,138.032425,406.135742,737.473816,91.31353,471.560242,736.844788,18.443394,413.325409,733.527832,66.586418,349.924072,735.176453
00164_color_1715976616.932143.png,2015,1715976616.93432,790.616882,239.141785,841.265198,838.785645,279.875031,794.499756,853.638306,234.142761,819.980408,798.299683,183.760101,840.095581,770.126648,156.669998,849.625427,737.603271,144.391052,863.608215,722.792847,215.021973,870.742065,692.812683,211.932663,871.873535,662.999084,203.500061,868.13739,131.192276,48.532692,765.261047,159.399918,37.776409,756.97113,180.881638,31.479488,750.70343,49.577744,30.739748,761.023804,73.718132,9.160077,755.516296,101.098541,-8.644054,748.836426,90.084732,76.323479,774.978943,87.262421,108.216072,763.224243,44.40807,99.427338,774.47998,-20.698828,106.039734,786.59021,187.18602,980.021179,1493.959961,239.168152,974.146729,1516.264648,290.30069,986.273315,1498.577393,537.688232,-514.278442,834.585083,491.319183,-516.372803,833.901855,483.992676,-457.347443,834.488708,543.492065,-460.490234,834.864441,484.327911,-520.787415,737.833862,481.420715,-444.764069,739.432861,546.509949,-450.119446,740.162476,544.985596,-518.046509,740.322815,128.205139,406.250702,842.822144,87.396118,465.300232,842.074707,24.190542,415.72998,840.426697,65.606819,359.692657,842.016541,138.041916,406.137909,737.455444,91.309967,471.57193,736.848145,18.457312,413.319244,733.514221,66.601456,349.910126,735.170654
00165_color_1715976616.968477.png,2018,1715976616.96432,789.646912,241.173676,840.678467,838.04895,281.860382,794.151794,852.713013,235.893417,819.488525,797.001892,185.966141,839.47113,768.602295,158.723984,848.658203,736.062073,146.642914,862.502136,721.597656,217.341309,870.008484,691.685791,214.400894,871.049927,661.834412,206.175034,867.258301,131.155228,48.512825,765.196228,159.404388,37.787907,756.969055,180.884705,31.509954,750.706116,49.595276,30.782341,761.079529,73.747452,9.198606,755.540588,101.106674,-8.621455,748.864136,90.126732,76.345642,774.960754,87.317146,108.3377,763.275818,44.449505,99.53508,774.510864,-20.663797,106.165695,786.601379,187.195251,980.020569,1493.979614,239.164719,974.140442,1516.263428,290.299286,986.268555,1498.567871,531.889832,-514.451965,834.551147,485.55426,-516.325073,833.845642,478.399445,-457.381104,834.371033,537.923157,-460.621735,834.81897,478.676178,-520.859253,737.824829,475.872955,-444.708832,739.365723,540.982544,-450.076324,740.282532,539.273132,-518.224731,740.312256,128.191666,406.21637,842.795349,87.388741,465.297791,842.080444,24.230976,415.685944,840.388794,65.618301,359.704376,841.978333,138.048401,406.134064,737.470459,91.309708,471.562683,736.851379,18.456268,413.32843,733.521118,66.612877,349.893005,735.145508
00166_color_1715976617.003470.png,2022,1715976617.00432,787.202576,244.203125,839.719177,835.997986,284.641022,793.417175,850.263855,238.479843,818.606995,793.89032,188.91423,838.288635,765.41333,161.752548,847.163208,732.662537,150.017639,860.984985,718.941223,220.881454,868.889587,689.026855,218.333893,870.070618,659.044495,210.257767,866.292053,131.200287,48.336876,765.022949,159.628647,38.152225,756.809387,181.00322,31.452253,750.715332,49.645821,30.770073,761.117615,73.826859,9.182091,755.561096,101.13678,-8.67304,748.839966,90.247383,76.245834,774.954529,87.442284,108.280945,763.270447,44.579449,99.55661,774.547913,-20.561769,106.323593,786.624634,187.219604,980.01947,1493.978271,239.169159,974.136169,1516.255859,290.295715,986.260132,1498.570679,521.697388,-514.502441,834.466553,475.266144,-516.220947,833.73291,468.625671,-457.085297,834.273865,528.171204,-460.862732,834.689758,468.355164,-520.25647,737.610901,466.177979,-444.18985,739.442993,531.244934,-450.341949,740.123047,528.935486,-518.543152,740.16272,128.193222,406.235138,842.829712,87.396324,465.295441,842.068909,24.202547,415.699341,840.41217,65.608353,359.688354,842.017212,138.067795,406.150543,737.492371,91.322083,471.576721,736.86145,18.45503,413.31778,733.52356,66.619202,349.894928,735.156433
00167_color_1715976617.038199.png,2025,1715976617.03432,784.589905,246.367737,838.820496,833.703308,286.594482,792.731812,847.674866,240.474213,817.927185,791.036255,191.100281,837.335632,762.264893,164.112259,846.125122,729.38678,152.624481,859.857117,716.229858,223.483414,867.920227,686.224548,221.345291,869.20874,656.261108,213.43898,865.368591,131.250519,48.300999,764.980042,159.62796,37.737507,756.987305,181.074417,31.433548,750.723633,49.74955,30.869652,761.234192,73.926804,9.329866,755.666687,101.180801,-8.621593,748.879761,90.34948,76.325874,774.956848,87.606049,108.32531,763.238464,44.710011,99.682243,774.54541,-20.415915,106.676903,786.618591,187.21373,980.02655,1493.977051,239.171387,974.137573,1516.254028,290.303558,986.276489,1498.576172,512.783386,-514.536133,834.345825,466.365173,-516.003662,833.635254,460.061676,-456.744507,834.246033,519.476746,-460.892578,834.706543,459.604279,-520.073608,737.548035,457.862762,-443.7742,739.259583,522.860596,-450.41748,740.032288,520.277466,-518.463745,740.112427,128.201614,406.233612,842.817139,87.418732,465.473816,842.291138,24.18759,415.702332,840.412292,65.603889,359.669312,842.01178,138.07196,406.158875,737.514648,91.311066,471.568695,736.845947,18.458406,413.323364,733.510071,66.60424,349.916656,735.153198
00168_color_1715976617.073390.png,2029,1715976617.07432,780.33844,248.934113,837.638245,829.979126,288.880127,791.7677,843.441406,242.526062,816.92804,786.388062,193.520737,836.105347,757.484314,166.778885,844.868103,724.431274,155.506851,858.424194,711.778564,226.599182,866.476562,681.766479,224.727524,867.781189,651.696838,217.203995,864.028809,131.24614,48.346523,765.000183,159.614349,37.741482,756.978027,181.073425,31.436756,750.729065,49.736633,30.959412,761.338867,73.908279,9.388214,755.726257,101.144447,-8.567294,748.927246,90.375168,76.404053,774.96405,87.648483,108.374664,763.209167,44.780128,99.814232,774.558105,-20.365194,107.027122,786.619568,187.179764,980.030884,1493.986938,239.172882,974.134949,1516.257202,290.306061,986.280823,1498.575073,499.550232,-513.960266,834.292908,453.171326,-516.007385,833.397156,446.184357,-456.840942,834.030884,505.700043,-460.335876,834.667664,446.509216,-520.119995,737.364075,443.966827,-443.885406,739.070618,509.051575,-449.692322,740.048035,507.161316,-517.633606,740.013733,128.192703,406.221405,842.808838,87.404839,465.307312,842.083801,24.177256,415.717987,840.430176,65.61232,359.685455,842.028381,138.053497,406.147308,737.499146,91.31736,471.57373,736.855957,18.477489,413.304016,733.512024,66.614822,349.894318,735.164246
00169_color_1715976617.108370.png,2032,1715976617.10432,776.728088,250.478149,836.812988,826.546753,290.140411,790.990173,839.837158,243.751556,816.25708,782.469177,195.041565,835.261841,753.238953,168.514038,844.012085,720.21106,157.314102,857.428772,707.883484,228.457336,865.432251,677.817017,226.656937,866.550842,647.808655,219.286011,862.75293,131.233353,48.298874,764.971558,159.586533,37.690826,756.994446,181.060211,31.434086,750.751709,49.71703,31.024021,761.430847,73.84922,9.418225,755.740662,101.096367,-8.584712,748.931274,90.353043,76.354095,774.948792,87.638947,108.355087,763.238953,44.788643,99.827293,774.578491,-20.329681,107.223747,786.637573,187.199936,980.025208,1493.987183,239.175934,974.140381,1516.260376,290.30368,986.275452,1498.578491,488.231445,-513.103577,834.148438,441.882019,-515.86084,833.408997,433.934814,-456.858002,833.89679,493.425964,-459.321014,834.420715,435.181427,-520.395447,737.368347,431.331543,-444.141724,738.896118,496.462677,-448.757385,739.823547,496.000854,-517.027954,740.121033,128.195251,406.257141,842.841431,87.407722,465.310852,842.077881,24.18969,415.734009,840.425049,65.614914,359.703156,842.049988,138.067673,406.161682,737.518738,91.312729,471.567017,736.851746,18.442259,413.358948,733.55719,66.603813,349.928009,735.194275
00170_color_1715976617.142909.png,2036,1715976617.14432,771.21936,251.865952,835.354675,821.450806,291.298553,789.757568,834.390625,244.886093,815.179749,776.6521,196.522858,834.121765,747.385315,170.084137,842.716125,714.190125,159.222443,856.135864,702.182373,230.458145,863.902588,672.132812,228.702499,864.828186,642.042908,221.516754,860.858459,131.170197,48.40654,764.955872,159.507492,37.751472,756.992188,180.999817,31.450272,750.781555,49.656101,31.176607,761.536133,73.825943,9.550674,755.847839,101.021927,-8.470634,748.981812,90.233749,76.446083,774.840759,87.734642,108.471367,763.285217,44.815319,100.043472,774.613342,-20.269354,107.661713,786.679077,187.163956,980.055908,1494.007812,239.177307,974.142395,1516.261475,290.304504,986.269043,1498.577271,471.509277,-511.73587,834.005249,425.218719,-515.540771,833.17926,415.922913,-456.733582,833.699463,475.519684,-457.833832,834.218323,418.685364,-520.616821,737.357483,413.167389,-444.193176,738.534973,478.421692,-447.088287,739.755249,479.356506,-515.238342,739.759399,128.205475,406.262573,842.849182,87.399109,465.318573,842.082764,24.188522,415.73288,840.444397,65.610542,359.703613,842.041138,138.067261,406.166107,737.51709,91.318039,471.574554,736.865967,18.430643,413.354858,733.557739,66.589577,349.924164,735.197937
00171_color_1715976617.177325.png,2039,1715976617.17432,766.534424,252.482925,834.007263,817.077515,291.789917,788.637024,829.726746,245.422119,814.221741,771.894348,197.200485,832.943054,742.49469,170.806305,841.430054,709.212158,159.939804,854.640869,697.343811,231.258621,862.34613,667.387695,229.643082,863.301514,637.258179,222.515564,859.315979,131.158859,48.378262,764.947815,159.511215,37.751125,756.992004,180.989227,31.450651,750.780029,49.639164,31.177801,761.559021,73.814514,9.545975,755.84613,101.080498,-8.515911,748.985474,90.359718,76.345085,774.812012,87.643539,108.452774,763.231384,44.825733,100.061081,774.628296,-20.230949,107.748024,786.710388,187.182068,980.029419,1493.990112,239.174759,974.136414,1516.251709,290.30542,986.256531,1498.571899,457.596436,-510.597046,833.853882,411.416656,-515.150024,833.047546,401.09494,-456.538727,833.573242,460.746307,-456.584045,834.090698,404.725189,-520.538696,737.31842,398.097015,-444.200348,738.388245,463.399719,-446.069122,739.468079,465.624359,-514.125122,739.687744,128.319809,406.126434,842.751404,87.400993,465.32135,842.095459,24.155157,415.747925,840.461853,65.612213,359.712189,842.069885,138.079163,406.183746,737.532043,91.313858,471.559692,736.845886,18.450033,413.346649,733.548035,66.614853,349.901276,735.214539
00172_color_1715976617.212042.png,2043,1715976617.21432,759.558716,252.829437,831.921265,810.340393,291.979279,786.790894,822.782837,245.635254,812.435547,764.793518,197.527328,830.847473,735.324646,171.149017,839.093628,701.985657,160.460327,852.197693,690.30249,231.732803,859.961121,660.283264,230.053558,860.774231,630.126099,223.03183,856.677002,131.071442,48.302654,764.908875,159.443085,37.672318,756.969543,180.943954,31.423494,750.789185,49.587559,31.137117,761.536072,73.901001,9.333691,755.756409,100.956665,-8.663369,748.795593,90.277512,76.382118,774.958069,87.482918,108.157814,762.983398,44.789909,99.962219,774.639465,-20.230064,107.765289,786.774597,187.171005,980.036743,1493.997559,239.178619,974.133911,1516.260986,290.298676,986.272156,1498.578735,437.409149,-509.500549,833.649841,391.10614,-514.299927,832.843872,380.270691,-456.007599,833.359741,439.853546,-455.444672,833.868347,384.574677,-519.97168,737.097107,377.213257,-443.740448,738.265686,442.433502,-444.755188,739.277161,445.550873,-512.918945,739.46936,128.122299,406.135437,842.690857,87.400665,465.325745,842.098267,24.16923,415.665314,840.40564,65.612885,359.711823,842.07782,138.077545,406.169769,737.545593,91.31855,471.5867,736.88031,18.431999,413.356659,733.580139,66.596893,349.926422,735.220337
00173_color_1715976617.246638.png,2046,1715976617.24432,753.721436,252.886169,829.826782,804.618103,292.105255,784.958984,816.920715,245.736847,810.772034,759.050842,197.468018,828.686523,729.532898,171.267227,837.059814,696.05957,160.51091,849.93811,684.432495,231.883362,857.763916,654.389099,230.218048,858.425842,624.308594,223.041946,854.136902,131.062714,48.287357,764.899414,159.457138,37.709732,756.978943,180.963684,31.439398,750.802307,49.569889,31.050577,761.486084,73.699524,9.283522,755.612366,100.970116,-8.694634,748.761841,90.26622,76.382072,774.949158,87.505539,108.123062,762.998718,44.910839,99.76918,774.55719,-20.222673,107.748016,786.807495,187.183228,980.035889,1493.998413,239.187241,974.134766,1516.256226,290.300598,986.236206,1498.556519,421.048584,-508.866608,833.472351,374.73056,-513.298401,832.749268,364.234863,-455.129028,833.075195,423.819122,-454.881165,833.662598,368.18689,-519.191284,736.867981,361.217072,-442.838623,738.128906,426.443115,-444.32724,739.079895,429.251984,-512.393799,739.353516,128.123154,406.115723,842.682678,87.401474,465.324036,842.092407,24.185614,415.718109,840.44873,65.611275,359.695618,842.076477,138.071869,406.157745,737.540649,91.308838,471.58316,736.888916,18.452013,413.340881,733.575562,66.615273,349.917389,735.219849
00174_color_1715976617.281212.png,2050,1715976617.28432,745.347412,252.648956,826.53302,796.561646,291.851288,782.195801,808.597778,245.601151,808.238159,750.718689,197.216537,825.465698,721.088013,170.986511,833.511169,687.590393,160.214325,846.170288,675.925476,231.474731,853.996277,645.889771,229.864105,854.445251,615.855652,222.86145,850.149048,131.089828,48.232376,764.901855,159.468109,37.687752,756.978882,180.957184,31.412344,750.797607,49.551498,30.841413,761.26123,73.672279,9.179893,755.532288,100.970764,-8.770329,748.693054,90.288841,76.364922,775.017212,87.499443,108.080032,763.02594,44.799038,99.704742,774.469116,-20.129887,107.825691,786.878906,187.20697,980.014771,1493.989136,239.180237,974.14325,1516.256348,290.307251,986.284973,1498.588623,398.480804,-508.160187,833.256042,352.355804,-512.567078,832.429871,342.288483,-453.756805,832.919861,401.881409,-454.159821,833.410034,345.453461,-517.624939,736.595886,339.433258,-441.245209,737.86322,404.626251,-443.682892,738.881958,406.647095,-511.82782,739.160767,128.116531,406.09375,842.663269,87.408844,465.320129,842.100952,24.199038,415.726532,840.452576,65.619461,359.70105,842.096741,138.077011,406.166473,737.542664,91.32193,471.569885,736.875671,18.455685,413.341858,733.56781,66.478401,350.26944,735.668152
00175_color_1715976617.315270.png,2053,1715976617.31432,738.564148,252.084702,823.858276,790.120605,291.438812,780.091858,801.898621,245.106171,806.122009,744.086975,196.567505,822.630371,714.277588,170.464951,830.480286,680.660583,159.520782,842.752625,668.948303,230.840347,850.647644,638.909973,229.264557,850.91803,608.913818,222.120438,846.308167,131.06398,48.263409,764.901489,159.453827,37.690819,756.983276,180.959442,31.419527,750.784546,49.549191,30.82592,761.259216,73.672836,9.160696,755.50061,100.973923,-8.752755,748.698914,90.183914,76.138809,774.719238,87.462349,108.116714,763.051819,44.7845,99.685623,774.431885,-20.1141,107.871536,786.9151,187.200546,980.022522,1493.990479,239.185593,974.132812,1516.247681,290.312317,986.2771,1498.585083,381.512268,-507.375122,833.005981,335.178375,-511.07019,832.216064,325.699707,-452.63269,832.66803,385.224274,-453.213379,833.254883,328.622284,-516.598999,736.267639,322.965149,-440.095703,737.619446,388.161987,-442.890778,738.675354,389.725128,-511.01059,738.904053,128.11441,406.097961,842.64801,87.41259,465.336304,842.106201,24.218744,415.731354,840.4505,65.7145,359.483215,841.789368,138.064407,406.158325,737.531372,91.320778,471.586212,736.888,18.442877,413.349182,733.573669,66.621292,350.005157,735.427551
00176_color_1715976617.350777.png,2057,1715976617.35432,728.803284,250.972366,820.046326,781.002991,290.413055,777.060547,792.365784,244.082001,803.244141,734.347473,195.554718,818.985352,704.617554,169.265671,826.310669,670.802124,158.332504,837.992981,658.855774,229.632233,845.841919,628.816101,227.930893,845.509827,598.882202,220.813583,840.4375,130.995819,48.199169,764.862549,159.387604,37.639687,756.971863,180.903351,31.401049,750.805115,49.466938,30.644535,761.158508,73.578468,9.024384,755.419495,100.915367,-8.816815,748.664062,90.245087,76.183868,774.91156,87.501724,108.147606,763.291443,44.731037,99.497887,774.434631,-20.159719,107.745461,786.984375,187.204376,980.023438,1493.990967,239.17955,974.131592,1516.246216,290.303131,986.260742,1498.570435,359.993225,-505.767212,832.783142,313.852478,-510.037292,831.837341,304.12561,-451.080292,832.441589,363.548279,-451.677032,833.04364,307.112366,-515.182922,735.920898,301.530487,-438.514069,737.35968,366.712341,-441.263794,738.452637,368.391937,-509.351624,738.682556,128.101303,406.098083,842.663208,87.417526,465.493561,842.313782,24.167158,415.73761,840.466003,65.536858,359.583099,841.849121,138.069382,406.171875,737.536011,91.308998,471.570801,736.882202,18.420885,413.35611,733.596863,66.284645,350.167145,735.296143
00177_color_1715976617.385106.png,2060,1715976617.38432,721.21991,249.911835,817.321472,773.811646,289.347534,774.982788,784.918518,243.077332,801.316589,726.853699,194.414368,816.273926,696.944336,168.180725,823.180176,663.054871,157.208481,834.556824,650.997742,228.43277,842.288269,620.998962,226.746689,841.64978,591.101746,219.569611,836.259949,130.927261,48.184223,764.838501,159.319839,37.677013,756.956055,180.833038,31.419031,750.797852,49.401646,30.567341,761.104126,73.500969,8.972825,755.383728,100.875565,-8.834553,748.655334,90.050697,76.035866,774.718689,87.33567,107.990067,763.136719,44.651794,99.437744,774.444519,-20.202597,107.658661,787.011475,185.945572,980.272339,1492.328979,239.18692,974.135498,1516.250244,290.309357,986.256775,1498.575073,345.123932,-504.454681,832.57959,299.03476,-508.981873,831.49939,289.035461,-450.102753,832.138733,348.425049,-450.294617,832.981445,292.78183,-514.13855,735.78418,286.71756,-437.325226,737.067871,351.962524,-439.772797,738.44458,353.891144,-507.981781,738.546448,128.095184,406.095917,842.676941,87.399101,465.34024,842.110779,24.165951,415.74231,840.464783,65.521095,359.605682,841.757019,138.057663,406.156677,737.543274,91.307724,471.576416,736.889343,18.444403,413.337952,733.587219,66.181656,350.259613,735.283569
00178_color_1715976617.421919.png,2064,1715976617.42432,710.837891,247.91391,814.364929,763.992432,287.529114,772.887451,774.741211,241.245178,799.358215,716.536621,192.317551,813.248291,686.58728,165.988937,819.550476,652.541382,155.105194,830.412537,640.320801,226.230545,838.207214,610.373657,224.596664,837.235352,580.558716,217.419067,831.291077,130.842941,48.210354,764.849182,159.24794,37.740444,756.977844,180.768967,31.462791,750.811829,49.347904,30.556561,761.131409,73.480278,9.001601,755.396667,100.860802,-8.787089,748.661499,89.911613,76.032234,774.664246,87.26236,107.997925,763.144348,44.570457,99.400681,774.445007,-20.276316,107.568634,787.063965,185.958191,980.279785,1492.348267,239.187454,974.128235,1516.249146,290.313019,986.285828,1498.595093,328.649323,-502.114777,832.395386,282.637665,-507.156006,831.360779,271.711548,-448.466766,831.818726,331.250427,-447.82782,832.609985,276.536133,-511.328033,735.058594,269.137421,-435.821777,736.866516,334.367767,-437.304901,738.128418,337.38916,-505.540619,738.402161,128.104279,406.110687,842.68927,87.399765,465.33786,842.101257,24.141069,415.744049,840.489502,65.490532,359.553375,841.725098,138.064606,406.175903,737.555054,91.298561,471.578308,736.882019,18.427315,413.351807,733.599548,66.163116,350.285309,735.279663
00179_color_1715976617.456532.png,2067,1715976617.45432,703.273926,246.175629,812.915527,756.737671,286.029022,771.955139,767.296692,239.673325,798.433899,709.061279,190.761429,811.845703,679.088257,164.370041,817.804138,644.919739,153.153137,828.208313,632.558533,224.397675,836.061462,602.592346,222.789749,834.843262,572.870422,215.444519,828.608704,130.761307,48.139336,764.860229,159.180206,37.68784,756.972229,180.710327,31.464867,750.808411,49.291481,30.456142,761.09375,73.377678,8.873748,755.333679,100.840454,-8.828266,748.644165,89.792686,75.927696,774.607849,87.181534,107.956009,763.180115,44.504917,99.312897,774.47821,-20.322952,107.44735,787.114807,185.960907,980.27301,1492.308594,239.183655,974.13269,1516.25354,290.306488,986.265442,1498.578491,318.145477,-500.180542,832.250977,272.198456,-505.798706,831.22876,260.633087,-447.152313,831.724792,320.107727,-445.928894,832.473694,265.760315,-511.535706,735.478088,257.776917,-434.814178,736.656189,323.044952,-435.437347,737.967529,326.889618,-503.577576,738.18866,128.101379,406.092468,842.668091,87.40078,465.33139,842.120178,24.175695,415.740692,840.478821,65.490219,359.549805,841.653076,138.053665,406.163177,737.552795,91.301552,471.575226,736.902466,18.423817,413.34201,733.575623,66.177734,350.258698,735.272339
00180_color_1715976617.490846.png,2071,1715976617.49432,693.765747,243.759247,812.01532,747.382202,283.787354,771.493713,757.855408,237.394424,798.041687,699.613953,188.397018,811.002991,669.688049,161.865967,816.638977,635.449463,150.644821,826.825378,622.999268,221.858398,834.771484,593.038635,220.26619,833.473022,563.305359,212.856049,827.148804,130.659653,48.043598,764.841003,159.079895,37.668068,756.965515,180.616608,31.434175,750.811096,49.147999,30.277611,761.004395,73.242401,8.727007,755.225098,100.777046,-8.874138,748.606018,89.639809,75.759247,774.586975,87.086647,107.848434,763.240723,44.415485,99.139519,774.535767,-20.328749,107.248421,787.156189,185.962387,980.264038,1492.304199,239.183609,974.145569,1516.260376,290.307373,986.275635,1498.583862,307.885803,-497.767334,832.122314,262.008667,-504.004944,831.12793,249.647781,-445.521606,831.576416,309.157196,-443.617493,832.351379,255.533066,-509.907776,735.38562,246.735138,-433.265228,736.424255,312.027863,-432.865784,737.88092,316.587463,-501.253662,738.033691,128.093063,406.10141,842.672974,87.400269,465.32959,842.109985,24.165813,415.73642,840.47699,65.473213,359.506195,841.689331,138.06189,406.156952,737.5578,91.297859,471.570984,736.890259,18.411865,413.367004,733.620789,66.17086,350.266541,735.288208
00181_color_1715976617.525227.png,2074,1715976617.5243201,687.178528,241.963455,812.263184,740.732971,282.16452,771.844727,751.291321,235.712433,798.297424,693.101257,186.471222,811.059021,663.217224,159.964996,816.644165,629.073975,148.675049,826.85553,616.497131,219.892303,834.878235,586.484192,218.094955,833.498291,556.7677,210.768188,827.206665,130.638763,47.936676,764.81366,159.059052,37.576591,756.953674,180.615479,31.388454,750.800598,49.119762,30.170118,760.977783,73.19371,8.622965,755.159119,100.763786,-8.968248,748.531982,89.608566,75.631485,774.591309,87.078987,107.754715,763.271912,44.416683,99.034142,774.58783,-20.338829,107.118843,787.096558,185.94664,980.359375,1492.300781,239.187439,974.130188,1516.253052,290.309052,986.265991,1498.576538,302.92569,-496.264832,832.056091,257.158752,-502.938446,831.000427,244.386612,-444.549377,831.446289,303.811737,-442.222229,832.214905,251.08493,-507.183624,734.483826,241.425522,-432.389435,736.277527,306.668365,-431.479584,737.717224,311.673462,-499.727661,737.981323,128.101288,406.066772,842.65155,87.401817,465.340515,842.124207,24.181002,415.736389,840.472595,65.484261,359.525238,841.666443,138.078796,406.159485,737.538513,91.309326,471.568024,736.89801,18.463133,413.320282,733.577454,66.180313,350.264496,735.275452
00182_color_1715976617.560278.png,2078,1715976617.56432,679.216858,239.415009,813.103333,732.52356,279.809631,772.538391,743.308594,233.551483,799.057068,685.418518,184.043732,811.778503,655.571533,157.350891,817.399353,621.401245,145.901794,827.617676,608.639404,217.021362,835.872925,578.668884,215.084152,834.479614,548.951416,207.540604,828.16156,130.601959,47.886696,764.802917,159.033142,37.557022,756.945374,180.592026,31.376022,750.80188,49.087639,30.104223,760.980408,73.170982,8.573263,755.108887,100.762558,-8.980085,748.506592,89.584564,75.559654,774.583801,87.057999,107.678009,763.30127,44.411594,98.967026,774.625366,-20.37184,107.078712,787.08252,185.954987,980.246521,1492.284302,239.185944,974.133545,1516.261963,290.318298,986.277344,1498.588135,299.877655,-495.236389,832.067688,254.12088,-501.878845,830.991516,241.38269,-443.526764,831.402466,300.826111,-441.067474,832.181824,248.055069,-506.184235,734.505981,238.539474,-431.318207,736.324585,303.708405,-430.594543,737.621338,308.642365,-498.680756,737.974365,128.116577,406.098938,842.673706,87.414162,465.33783,842.119385,24.176311,415.758392,840.490234,65.489914,359.52713,841.695923,138.077087,406.167542,737.547546,91.312874,471.572388,736.891541,18.46501,413.340668,733.57959,66.179741,350.282196,735.291443
00183_color_1715976617.596047.png,2081,1715976617.59432,673.922241,237.601288,813.906311,727.09021,278.296387,773.362976,738.065369,232.007324,799.658752,680.281372,182.262924,812.38385,650.500427,155.486649,818.024597,616.41333,143.922714,828.260559,603.44635,215.001251,836.65863,573.449158,212.984772,835.335144,543.795776,205.448792,829.054565,130.552551,47.827057,764.763428,158.997253,37.531708,756.92334,180.58194,31.374205,750.789185,49.052128,30.025999,760.929199,73.145706,8.515757,755.051636,100.765343,-9.010972,748.49408,89.548355,75.492714,774.581909,87.026009,107.622314,763.325989,44.385395,98.875885,774.639648,-20.390797,106.993141,787.075989,185.951584,980.282166,1492.279663,239.182129,974.130432,1516.250977,290.312592,986.280701,1498.585815,300.104736,-495.204285,832.05542,254.297821,-501.614563,831.112,241.757141,-443.232819,831.463989,301.128387,-440.728058,832.107239,247.628891,-507.611084,735.444885,238.659103,-431.070099,736.421082,303.909485,-430.561066,737.57312,308.612885,-498.692352,737.943176,128.126022,406.09848,842.667419,87.430527,465.344879,842.115662,24.211103,415.73465,840.471191,65.504532,359.509155,841.690735,138.083969,406.169434,737.532288,91.324326,471.582367,736.902405,18.451475,413.350464,733.591919,66.188766,350.260101,735.264404
00184_color_1715976617.630584.png,2085,1715976617.63432,668.099487,235.897858,815.339966,721.205688,276.639893,774.561157,732.328552,230.340439,800.838074,674.402161,180.44516,813.683838,644.728821,153.642593,819.210144,610.626526,142.114594,829.513977,597.62207,213.163025,838.13385,567.61792,211.04071,836.703064,537.991028,203.586349,830.616333,130.560059,47.807976,764.745972,158.988815,37.521786,756.915405,180.5681,31.391586,750.796387,49.043915,29.990643,760.905334,73.12886,8.489916,755.015991,100.762169,-9.032061,748.470337,89.537468,75.520462,774.664917,87.023232,107.610107,763.364319,44.364502,98.841339,774.685303,-20.383734,106.913803,787.131348,185.943115,980.279175,1492.293213,239.185333,974.141418,1516.25415,290.311829,986.282654,1498.57959,302.389435,-494.844116,832.041748,256.489563,-500.882629,831.075439,244.330093,-442.452759,831.549988,303.691071,-440.306641,832.217041,249.919312,-506.874847,735.491699,241.309433,-430.120605,736.458984,306.556793,-430.126343,737.654175,310.954315,-498.331482,737.959351,128.141235,406.116028,842.681213,87.449959,465.354218,842.116333,24.205343,415.769073,840.473694,65.527077,359.520782,841.665894,138.113419,406.176361,737.544678,91.344368,471.588104,736.894531,18.47398,413.353119,733.577087,66.212646,350.300354,735.27771
00185_color_1715976617.665058.png,2088,1715976617.66432,664.731567,235.176346,816.789429,717.902771,275.652039,775.551147,729.192688,229.432648,802.085632,671.228638,179.737915,815.599609,641.554871,152.894287,821.279663,607.471191,141.206192,831.48877,594.351074,212.426559,839.649109,564.370667,210.331314,838.361633,534.720825,202.570847,832.109314,130.509064,47.789749,764.759766,158.942856,37.521042,756.946533,180.520462,31.386415,750.811584,48.986019,29.927853,760.885681,73.099136,8.484582,755.010132,100.740448,-9.035101,748.47229,89.482735,75.48008,774.660767,86.986832,107.571144,763.382324,44.32748,98.794434,774.696899,-20.367001,106.908333,787.224182,185.942795,980.329468,1492.277466,239.182587,974.136475,1516.256836,290.309021,986.273987,1498.580688,306.257996,-494.230255,832.076233,260.308472,-500.090485,831.109985,248.462082,-441.516388,831.5979,308.050964,-440.365051,832.270813,253.648193,-506.086884,735.441223,245.490829,-429.174469,736.588318,310.739319,-429.53653,737.701294,314.822784,-497.698639,737.982117,128.129028,406.091583,842.644226,87.426918,465.346802,842.116516,24.235382,415.736359,840.487183,65.516083,359.528015,841.690857,138.085526,406.174225,737.549316,91.333099,471.585144,736.887878,18.46633,413.363159,733.598083,66.199753,350.288544,735.261841
00186_color_1715976617.699124.png,2091,1715976617.69432,662.636414,234.542816,818.753357,715.746338,274.853149,777.135132,727.17334,228.830658,803.863281,669.006226,179.034775,817.796082,639.427063,152.151428,823.604919,605.348999,140.516083,833.838989,592.262573,211.778091,841.76062,562.293457,209.694824,840.599365,532.674561,201.955109,834.537231,130.443024,47.79295,764.797546,158.876114,37.523663,756.947754,180.449707,31.372316,750.802063,48.896378,29.883024,760.873901,73.047165,8.472881,754.995972,100.694893,-9.026195,748.473572,89.412468,75.431633,774.681824,86.909798,107.557457,763.412781,44.26165,98.753227,774.714722,-20.372248,106.955528,787.352661,185.967468,980.26239,1492.325439,239.179291,974.133057,1516.256226,290.306488,986.27771,1498.588989,311.711243,-493.350342,832.201599,265.820343,-499.221375,831.233032,254.059525,-440.565033,831.712402,313.668915,-439.595337,832.40155,259.106689,-504.825104,735.523499,251.18956,-428.20993,736.615417,316.387695,-428.70813,737.868774,320.428192,-496.770142,738.180481,128.136978,406.101135,842.667053,87.433968,465.352875,842.121704,24.223442,415.7565,840.482666,65.521973,359.518738,841.691101,138.111511,406.1745,737.542725,91.340569,471.590942,736.895447,18.478493,413.355591,733.589172,66.216766,350.294983,735.283997
00187_color_1715976617.733273.png,2095,1715976617.73432,661.415894,233.899094,822.183044,714.198486,273.904846,779.656738,725.9776,228.008087,806.491638,667.570923,178.033295,820.943115,637.720093,151.09111,826.692749,603.616577,139.131653,836.727051,591.274902,211.162949,845.893372,561.332336,209.078995,844.906494,531.622559,201.217392,839.009277,130.431625,47.776779,764.789978,158.853806,37.511963,756.943176,180.431763,31.376957,750.805786,48.877186,29.87472,760.843933,73.02478,8.482111,754.998962,100.689178,-9.037574,748.474548,89.403008,75.421387,774.687805,86.906403,107.531532,763.413757,44.250519,98.737862,774.721802,-20.501076,107.025223,787.34967,185.984894,980.275513,1492.325928,239.174332,974.137695,1516.259521,290.299225,986.27002,1498.577759,321.389557,-492.400543,832.31897,275.426208,-498.141907,831.348938,263.607666,-439.474274,831.869629,323.180267,-438.263824,832.592651,268.934723,-504.04071,735.706543,260.671478,-427.075195,736.875916,325.955261,-427.480957,738.018127,329.919037,-495.734924,738.270569,128.119293,406.091949,842.650085,87.42337,465.337616,842.111023,24.204401,415.751587,840.484619,65.502808,359.510437,841.697815,138.099197,406.16217,737.551697,91.327194,471.585785,736.902649,18.461685,413.351624,733.591858,66.215279,350.286835,735.276123
00188_color_1715976617.767315.png,2098,1715976617.7643201,661.385681,233.580673,825.257812,713.909607,273.378571,781.971313,725.877563,227.587006,808.901917,667.232788,177.623062,824.067017,637.274963,150.608231,829.659241,603.144348,138.525513,839.592102,591.26416,211.03746,849.506042,561.291443,208.84433,848.52063,531.623413,200.949783,842.684937,130.414413,47.747578,764.784119,158.857376,37.486794,756.950867,180.429306,31.365833,750.795837,48.862656,29.866482,760.865845,73.012962,8.467343,754.970947,100.681145,-9.042682,748.467896,89.402306,75.39698,774.677246,86.89534,107.511765,763.388184,44.252735,98.733635,774.717957,-20.481518,107.066284,787.335693,185.96376,980.324768,1492.289307,239.184296,974.13855,1516.253052,290.296692,986.240723,1498.562866,330.255615,-491.445862,832.481262,284.312439,-497.495789,831.580566,272.307526,-438.910431,832.035034,331.876312,-437.685547,832.67749,277.83429,-503.160431,735.771362,269.244537,-426.56546,736.973328,334.500244,-426.715515,738.211792,338.820953,-494.917297,738.386414,128.134842,406.115143,842.684631,87.433548,465.336121,842.123657,24.200874,415.734741,840.484253,65.508301,359.525452,841.691956,138.105179,406.177216,737.550232,91.323158,471.587982,736.902344,18.470194,413.328827,733.568115,66.223236,350.279114,735.263367
00189_color_1715976617.801838.png,2102,1715976617.80432,661.97113,233.616348,829.450195,714.377258,272.929504,785.088196,726.529114,227.440903,812.375244,667.714539,177.58847,828.592102,637.778503,150.636475,834.682068,603.656128,138.690308,844.915588,591.66626,211.211151,853.99176,561.693359,208.769989,852.694275,532.166504,200.565628,846.433044,130.410812,47.758945,764.784668,158.856827,37.480797,756.942688,180.432236,31.360876,750.790833,48.88092,29.879219,760.880676,73.013557,8.490578,755.014221,100.676231,-9.027886,748.480957,89.408081,75.413101,774.65686,86.926102,107.545441,763.387024,44.294693,98.817665,774.718323,-20.458361,107.265518,787.301331,185.985168,980.208252,1492.303833,239.186005,974.131714,1516.251831,290.312836,986.275085,1498.588867,344.319214,-490.392303,832.702942,298.470398,-496.942352,831.784729,285.803955,-438.480469,832.291565,345.394196,-436.494354,832.826965,291.89502,-502.837952,736.120911,282.528381,-426.262451,737.166992,347.794983,-425.627441,738.422546,352.68161,-493.762024,738.564941,128.121307,406.088226,842.656677,87.418892,465.332794,842.121155,24.224472,415.712982,840.464417,65.505348,359.521851,841.687195,138.08432,406.16095,737.544922,91.325989,471.572021,736.902771,18.472712,413.330017,733.580078,66.201431,350.264801,735.266357
00190_color_1715976617.836410.png,2105,1715976617.83432,662.644775,233.828094,832.269531,715.07196,272.718506,787.185242,727.325012,227.268402,814.537354,668.242126,177.611313,831.611694,638.249817,150.792267,837.935669,604.097168,138.914444,848.369934,592.135132,211.586197,856.9198,562.130249,209.022614,855.303284,532.647644,200.576553,848.741394,130.422775,47.800117,764.776733,158.863846,37.513962,756.938965,180.434448,31.369186,750.801453,48.902664,30.016129,760.929688,73.013359,8.546567,755.044189,100.654617,-8.995863,748.500732,89.435913,75.490837,774.684326,86.941605,107.616135,763.386536,44.33926,98.912819,774.690308,-20.410196,107.497688,787.284607,185.954895,980.230957,1492.347656,239.18132,974.137451,1516.256104,290.307648,986.258057,1498.568359,356.232178,-489.623566,832.846497,310.518311,-496.653229,832.022339,297.067291,-438.400421,832.550964,356.69754,-435.444672,832.780518,303.978546,-501.248352,735.67926,293.59201,-426.334991,737.384399,358.770782,-424.726929,738.582642,364.579865,-492.830963,738.763184,128.127655,406.110382,842.666992,87.419075,465.343384,842.105591,24.214132,415.726868,840.463806,65.504868,359.519043,841.695312,138.092438,406.182922,737.545654,91.324326,471.590088,736.886841,18.486301,413.335297,733.561218,66.196838,350.305328,735.275818
00191_color_1715976617.872139.png,2109,1715976617.87432,663.562073,234.158005,835.095764,715.974609,272.466278,789.203674,728.374329,227.26004,816.829834,668.911011,177.961853,834.737366,638.834412,151.240326,841.247986,604.640564,139.593414,851.816101,593.095825,212.439499,860.186523,563.010376,210.030899,858.717163,533.527832,201.671326,852.35437,130.421936,47.808041,764.766907,158.854309,37.494804,756.925903,180.429276,31.379578,750.793274,48.904465,30.048182,760.965637,72.989761,8.55445,755.055908,100.623848,-8.959551,748.49939,89.448837,75.490501,774.647339,86.952469,107.632858,763.360046,44.361183,98.991333,774.715454,-20.385069,107.703407,787.260803,185.968506,980.302002,1492.334106,239.184845,974.136169,1516.25,290.306824,986.27002,1498.580566,373.757446,-488.819,833.056702,328.12915,-496.641174,832.24646,313.727966,-438.709564,832.774292,373.241211,-434.715759,833.166931,321.713959,-501.439331,735.960876,310.040375,-426.630646,737.606812,375.161835,-423.991608,738.705688,382.088745,-491.907928,738.995117,128.113083,406.107971,842.676941,87.413879,465.342041,842.113892,24.175127,415.746338,840.47052,65.595749,359.478973,841.687622,138.087051,406.166809,737.546997,91.325539,471.57959,736.889099,18.460541,413.335388,733.575317,66.517982,350.085846,735.355469
00192_color_1715976617.906539.png,2112,1715976617.90432,664.339539,234.634613,836.556763,716.699585,272.388519,790.117371,729.111755,227.305954,817.863647,669.442871,178.314484,836.451904,639.339294,151.754715,843.210632,605.0979,140.202103,853.992371,593.853394,213.213989,861.908386,563.73645,210.941635,860.609253,534.272095,202.751587,854.526184,130.438492,47.876518,764.784058,158.871078,37.557354,756.93457,180.454895,31.408302,750.796265,48.940182,30.171255,761.034485,73.036942,8.637259,755.137451,100.616943,-8.899823,748.52594,89.48938,75.604027,774.67749,86.971748,107.718819,763.334961,44.40284,99.118347,774.695801,-20.360485,107.961655,787.196838,185.94136,980.304871,1492.337646,239.176498,974.142761,1516.250732,290.306519,986.275024,1498.57019,387.59787,-488.777985,833.23645,342.093201,-496.827698,832.436646,327.425079,-438.826141,832.910461,386.824921,-434.743073,833.329407,335.704712,-501.550201,736.068848,323.701965,-427.086884,737.725647,388.86554,-424.044647,738.872009,396.317596,-492.512939,739.198975,128.115494,406.120361,842.677002,87.420738,465.337006,842.100525,24.198572,415.74118,840.47229,66.027924,359.323669,841.668701,138.082504,406.177612,737.554199,91.317825,471.595337,736.899292,18.426823,413.354767,733.592896,66.900558,349.923218,735.631958
00193_color_1715976617.941488.png,2116,1715976617.94432,665.230408,234.892319,837.356934,717.588257,272.239899,790.421143,730.050354,227.296204,818.45343,670.183411,178.544266,837.682129,640.082581,152.224152,844.923157,605.859253,140.850204,855.840515,594.715271,213.986694,863.180176,564.691223,211.810516,861.964111,535.069824,203.507584,855.791443,130.463028,47.966282,764.779663,158.875214,37.601925,756.933838,180.445114,31.424847,750.797363,49.057343,30.41818,761.270447,73.032265,8.761365,755.229736,100.592293,-8.832711,748.570251,89.514015,75.696892,774.630493,87.01059,107.832993,763.295959,44.47514,99.316818,774.657532,-20.282082,108.36322,787.136902,186.72345,980.082581,1493.386597,239.181,974.13678,1516.249634,290.307739,986.2901,1498.592773,406.786102,-490.003601,833.529846,361.068359,-497.431793,832.678223,347.127441,-438.94455,832.827759,406.711243,-435.935883,833.638428,354.669067,-501.977875,736.252563,343.621948,-427.355164,738.000122,408.641174,-424.986786,739.275269,415.429413,-493.824188,739.414246,128.116302,406.108429,842.665649,87.413269,465.339813,842.094299,24.201172,415.742401,840.459778,65.642097,359.734192,842.083801,138.084213,406.167419,737.551636,91.315948,471.590668,736.88501,18.442804,413.385864,733.608643,66.599403,349.955536,735.25354
00194_color_1715976617.976228.png,2119,1715976617.97432,665.720886,234.820221,837.148804,718.089783,271.838531,789.956116,730.522888,227.044846,818.197083,670.588745,178.560684,837.858948,640.405823,152.305283,845.294434,606.229187,141.051208,856.257446,595.093262,214.163589,863.03595,565.077209,212.006821,861.79541,535.435791,203.726639,855.712646,130.450851,47.998436,764.773743,158.882965,37.630577,756.926331,180.434708,31.436213,750.81134,49.004902,30.651228,761.485168,73.008362,8.775025,755.256531,100.563942,-8.781973,748.585999,89.534027,75.738586,774.606689,87.006699,107.864777,763.280334,44.483185,99.622116,774.885742,-20.274668,108.50885,787.088562,185.967636,980.301941,1492.31189,239.18103,974.132324,1516.251831,290.30777,986.274963,1498.591309,421.821289,-491.467468,833.62854,376.042786,-498.463928,832.90979,362.804077,-439.971191,833.033081,422.240417,-437.297729,833.768738,369.227203,-504.485657,737.343811,359.085541,-428.156158,738.171021,424.303375,-426.753021,739.167419,430.368591,-495.19281,739.665588,128.116776,406.103424,842.664246,87.410202,465.339447,842.110291,24.196264,415.758118,840.473572,65.63707,359.703308,842.08606,138.086121,406.161804,737.538391,91.317589,471.574829,736.886353,18.476671,413.345367,733.569946,66.621178,349.939941,735.24408
00195_color_1715976618.010976.png,2123,1715976618.0143201,665.806396,234.265213,835.898499,718.286377,270.729919,788.306946,730.720276,226.348648,817.121094,670.702087,178.010391,837.110168,640.564148,151.749619,844.672974,606.368591,140.476562,855.69751,595.092834,213.70285,861.773376,565.083252,211.369858,860.402466,535.512756,203.027588,854.323303,130.4841,48.073692,764.792236,158.90181,37.680115,756.945984,180.458466,31.460176,750.798523,49.036011,30.764681,761.534546,73.123871,9.12771,755.613892,100.575584,-8.702826,748.630676,89.556122,75.841576,774.584229,87.020485,107.986748,763.244629,44.536221,99.79129,774.827454,-20.224468,108.754478,787.010132,186.766281,980.082092,1493.425171,239.172745,974.144043,1516.260742,290.306732,986.276855,1498.585083,441.95575,-493.997742,833.851196,396.034821,-500.276215,833.013672,383.621979,-441.792084,833.409485,443.187256,-440.037842,833.978027,389.478363,-506.079681,737.410461,380.278595,-429.846252,738.346863,445.537079,-429.327637,739.472656,450.646515,-497.923401,739.906921,128.296173,406.093323,842.731506,87.408554,465.328247,842.104004,24.197577,415.738892,840.468384,65.633118,359.692352,842.077637,138.098907,406.170593,737.540527,91.321098,471.5867,736.897095,18.445463,413.376526,733.59314,66.620987,349.930908,735.242126
00196_color_1715976618.045672.png,2126,1715976618.04432,665.315063,233.284698,834.439087,718.036377,269.825836,786.942566,730.489014,225.466782,815.843933,670.458008,177.196289,835.966736,640.307983,150.717133,843.361389,606.120728,139.433014,854.395508,594.614685,212.521164,860.071167,564.585327,210.110062,858.582458,535.037842,201.630951,852.375549,130.521423,48.136719,764.812561,158.931412,37.721333,756.940125,180.482132,31.47823,750.776306,49.071445,30.808647,761.56543,73.171623,9.17086,755.661255,100.711296,-8.617605,748.791626,89.616882,75.938408,774.565186,87.033104,108.019913,763.168518,44.570206,99.845551,774.759277,-20.193722,108.838234,786.941406,185.954132,980.349792,1492.281616,239.168869,974.129639,1516.247559,290.301636,986.238342,1498.556519,457.358643,-495.966766,833.984741,411.489319,-501.868134,833.216492,399.437683,-443.58197,833.609192,459.058777,-442.083344,834.131836,404.878418,-506.310883,736.751526,396.128998,-431.231049,738.546448,461.505066,-431.404541,739.575928,465.922394,-500.010071,739.962402,128.219284,406.266052,842.855469,87.42112,465.327637,842.100891,24.20097,415.642426,840.391907,65.641045,359.712189,842.073853,138.092758,406.159637,737.536499,91.331482,471.572754,736.884277,18.476734,413.324005,733.544067,66.644173,349.902374,735.210632
00197_color_1715976618.080261.png,2130,1715976618.08432,663.911255,231.896591,832.239563,716.97998,268.18454,784.789062,729.432678,224.099335,814.009033,669.29425,175.707031,833.96344,639.260681,149.304626,841.466492,605.056091,137.875473,852.250549,593.163269,210.875305,857.447815,563.02887,208.320465,855.79541,533.683105,199.662476,849.391174,130.548935,48.105049,764.78894,158.956131,37.67588,756.924622,180.506546,31.463467,750.769775,49.098274,30.810846,761.516479,73.187416,9.139668,755.621155,100.672325,-8.519485,748.849548,89.774132,76.007683,774.697571,87.181938,108.176834,763.38324,44.558914,99.838722,774.700989,-20.216074,108.762436,786.902283,185.961014,980.230408,1492.308228,239.17157,974.13446,1516.263428,290.310913,986.267212,1498.574097,477.727051,-498.952454,834.184387,431.800262,-504.665924,833.341125,420.069366,-445.741699,833.807678,479.715576,-445.016296,834.387878,425.06955,-510.035645,737.564209,416.970856,-433.731506,738.744141,482.336884,-434.240906,739.776489,486.400482,-502.790802,740.139709,128.20224,406.256348,842.856812,87.417709,465.332062,842.108032,24.234406,415.700897,840.432312,65.637535,359.691223,842.07196,138.096878,406.173187,737.533325,91.327042,471.585083,736.887329,18.478022,413.327637,733.550537,66.638474,349.911469,735.207581
00198_color_1715976618.114767.png,2133,1715976618.11432,662.654846,230.739685,830.698792,715.761963,266.649078,782.995544,728.109924,222.720657,812.534607,668.051208,174.57338,832.816528,637.985413,148.096756,840.348816,603.747009,136.752563,851.18512,591.889282,209.820602,856.014587,561.806335,207.28804,854.361511,532.445312,198.658539,848.037415,130.63707,48.23164,764.829712,159.0513,37.722332,756.912109,180.595322,31.500933,750.755493,49.192825,30.949017,761.543091,73.341873,9.288776,755.725098,100.777397,-8.426995,748.916748,90.107468,76.345787,775.0177,87.227402,108.264503,763.336609,44.638294,99.940598,774.641724,-20.145704,108.814972,786.834167,185.957809,980.334167,1492.303101,239.170746,974.130676,1516.25647,290.309357,986.269165,1498.577026,492.365326,-501.222443,834.335815,446.438477,-507.047302,833.490845,434.929749,-448.471771,833.85907,494.439392,-447.391815,834.532593,439.728546,-512.300842,737.613342,431.638306,-436.084259,738.7948,497.004486,-436.80368,739.810608,501.060303,-505.036285,740.253784,128.216202,406.26535,842.845337,87.413261,465.323914,842.095459,24.195536,415.726288,840.460388,65.643784,359.705688,842.071716,138.095963,406.167664,737.520935,91.332367,471.583405,736.872986,18.476572,413.332123,733.546631,66.641014,349.91568,735.21936
00199_color_1715976618.149461.png,2137,1715976618.15432,660.610291,228.78009,829.461365,713.793091,264.542755,781.693604,726.103516,220.710052,811.398926,666.00415,172.620346,831.815796,635.914062,146.235474,839.544067,601.663574,135.05545,850.498047,589.971375,208.16127,854.999084,559.839172,205.662552,853.45929,530.440308,196.977875,847.178772,130.697723,48.26635,764.829407,159.118393,37.776459,756.9375,180.651596,31.514618,750.747681,49.261803,30.963114,761.506409,73.405243,9.292451,755.70575,100.823174,-8.432596,748.88446,89.983154,76.334068,774.887878,87.254639,108.173943,763.185852,44.678371,99.952675,774.582581,-20.127844,108.725342,786.795654,185.957352,980.265747,1492.335693,239.165939,974.139465,1516.255127,290.306122,986.280579,1498.578125,510.064301,-504.687439,834.378784,464.094421,-510.262299,833.563232,452.595032,-451.752747,834.107239,512.158569,-450.755035,834.69342,457.322479,-515.463013,737.8526,449.246033,-439.361481,739.069275,514.612671,-440.133606,739.956909,518.566467,-508.256622,740.304749,128.217545,406.260834,842.849182,87.427612,465.321228,842.091064,24.200573,415.726501,840.441956,65.631516,359.696747,842.077209,138.128067,406.188293,737.58252,91.332565,471.571564,736.871765,18.448097,413.356201,733.572021,66.610321,349.931366,735.220886
00200_color_1715976618.184170.png,2140,1715976618.18432,659.119446,227.431839,829.34436,712.120361,262.724213,781.15033,724.428284,219.084152,811.184631,664.293457,171.221359,832.094727,634.191772,144.965179,840.03656,599.977844,133.84668,851.060303,588.371643,207.013931,855.227417,558.369385,204.557358,853.742798,528.891235,195.985825,847.790161,130.723831,48.300648,764.904236,159.120071,37.768585,756.929688,180.641098,31.498316,750.744202,49.265877,30.916885,761.473572,73.422974,9.288501,755.726868,100.853943,-8.426019,748.90387,89.977478,76.330978,774.883301,87.229698,108.174072,763.182983,44.633362,99.924866,774.550842,-20.176958,108.612885,786.78595,185.954391,980.245239,1492.281494,239.162704,974.137695,1516.263306,290.302399,986.272461,1498.586792,521.403931,-507.254242,834.545532,475.398773,-512.91803,833.663635,463.838562,-454.487701,834.17804,523.339478,-453.424072,834.890076,468.911926,-518.16748,737.930908,460.765228,-441.932159,739.054382,526.079712,-442.410187,740.276978,530.139771,-510.912048,740.474976,128.209244,406.256226,842.849365,87.408859,465.323425,842.103821,24.173487,415.733337,840.460999,65.626587,359.70575,842.061707,138.112503,406.194672,737.606567,91.324753,471.570374,736.880249,18.440319,413.349487,733.569946,66.6045,349.932587,735.229614
00201_color_1715976618.218987.png,2143,1715976618.21432,657.530884,225.931976,829.668701,710.387268,260.86145,781.009949,722.748596,217.532806,811.491028,662.752869,169.823044,832.825439,632.643005,143.592728,841.080994,598.452942,132.527847,852.295532,586.911438,205.872604,855.913818,556.901611,203.325943,854.633545,527.364746,194.738693,848.889465,130.951523,48.471161,765.158325,159.159378,37.768299,756.92688,180.669815,31.493637,750.726562,49.31736,30.936113,761.468506,73.494339,9.291205,755.725342,100.881073,-8.437662,748.889099,90.000854,76.367203,774.875793,87.242249,108.20282,763.145081,44.652203,99.951347,774.506531,-20.174065,108.58284,786.729858,185.94841,980.254211,1492.281982,239.165604,974.131042,1516.266724,290.297333,986.265015,1498.577759,531.018372,-509.572449,834.662048,485.040894,-515.244812,833.688293,473.636841,-456.710968,834.179565,533.134216,-455.745819,834.889832,478.481842,-520.466553,737.962708,470.503845,-444.229767,739.150208,535.872742,-444.96936,740.209351,539.688049,-513.194336,740.510376,128.220154,406.242401,842.840332,87.408394,465.318268,842.103149,24.206957,415.724365,840.446594,65.629883,359.691711,842.049805,138.09166,406.189972,737.558899,91.325401,471.573608,736.884399,18.482338,413.306274,733.519714,66.641388,349.871643,735.173096
00202_color_1715976618.253585.png,2147,1715976618.25432,655.603699,224.022461,830.665894,708.261902,258.55719,781.503601,720.794861,215.556824,812.312805,660.972107,167.917511,834.319397,630.887329,141.760071,842.958069,596.787476,130.748047,854.359802,585.173828,204.104233,857.419434,555.134521,201.539215,856.298828,525.609985,192.80011,850.715393,130.908615,48.529064,765.081482,159.287094,37.885773,757.035645,180.710251,31.508974,750.714111,49.407272,30.990427,761.423279,73.631721,9.419524,755.768799,100.967384,-8.392743,748.898315,90.034668,76.487488,774.905396,87.268372,108.288559,763.120728,44.690655,100.027878,774.432068,-20.170357,108.556618,786.646729,185.951782,980.279358,1492.270508,239.166977,974.127686,1516.271118,290.300385,986.268311,1498.579102,541.345398,-512.632141,834.682983,495.312164,-517.691467,833.766357,484.39978,-459.115631,834.30365,543.940186,-458.708191,834.94928,488.806519,-522.711426,738.022156,481.402771,-446.543457,739.248657,546.695923,-447.735352,740.423584,549.573242,-516.112976,740.590942,128.215927,406.229401,842.830444,87.435089,465.48822,842.337769,24.230412,415.688049,840.419983,65.629486,359.675476,842.041687,138.016144,406.164368,737.478394,91.329376,471.56543,736.869934,18.485119,413.309052,733.522034,66.63382,349.877045,735.166382
00203_color_1715976618.288348.png,2150,1715976618.28432,654.508545,222.805466,831.380249,706.819092,257.063843,781.776306,719.540588,214.396744,812.858398,659.97998,166.852585,835.486633,629.932739,140.673111,844.475952,595.905151,129.756699,856.201843,584.231567,203.080963,858.824707,554.179382,200.344772,857.718384,524.64801,191.469238,852.310852,131.040695,48.555691,765.078735,159.555298,38.026657,757.215027,180.821106,31.530752,750.710815,49.543301,31.035074,761.417419,73.796646,9.494114,755.760437,101.11837,-8.331056,748.907532,90.131599,76.54493,774.881592,87.367188,108.341263,763.088257,44.764893,100.0756,774.384827,-20.103888,108.506752,786.602173,185.943069,980.234192,1492.285034,239.168213,974.132568,1516.266846,290.300171,986.266846,1498.574951,547.079163,-514.528076,834.704285,500.971558,-519.323975,833.803589,490.519836,-460.634003,834.305481,550.080322,-460.547791,835.015991,494.403229,-524.172119,738.028931,487.501038,-447.912354,739.376404,552.975891,-449.842651,740.312378,555.023254,-518.012207,740.52417,128.218292,406.210785,842.81427,87.415855,465.304474,842.08429,24.248531,415.686462,840.403748,65.643135,359.682129,842.053711,138.042297,406.144501,737.452881,91.332832,471.569244,736.876221,18.487837,413.304779,733.513855,66.641594,349.867157,735.156006
00204_color_1715976618.323305.png,2154,1715976618.32432,653.121887,221.577606,831.897766,705.060242,255.415924,781.66217,717.995911,212.9944,813.084717,658.664856,165.530777,836.368347,628.739929,139.351089,845.494446,594.696411,128.648911,857.543823,583.054199,201.896393,859.83429,552.98822,199.054321,858.828735,523.485962,190.176743,853.672119,131.093094,48.598877,765.078796,159.707291,38.217396,757.42157,180.88974,31.546076,750.73822,49.569939,31.04513,761.420349,73.867325,9.510255,755.759277,101.184753,-8.324489,748.903076,90.170921,76.564995,774.863892,87.419296,108.360878,763.024475,44.79557,100.103065,774.328552,-20.079271,108.456154,786.553345,185.950256,980.288208,1492.293701,239.169739,974.128784,1516.259888,290.299133,986.268372,1498.577393,552.049622,-516.197937,834.730347,505.950043,-520.578125,833.812622,496.187653,-461.676117,834.385376,555.808533,-462.413208,834.993774,499.242828,-525.140869,737.984558,493.331482,-448.932251,739.357178,558.634155,-451.75415,740.40625,559.789551,-519.940613,740.573547,128.215881,406.225311,842.816345,87.418968,465.289246,842.07251,24.224579,415.700897,840.415955,65.637718,359.663391,842.030212,138.036469,406.143402,737.447693,91.340561,471.558624,736.859802,18.482815,413.301666,733.515564,66.656792,349.86438,735.146606
00205_color_1715976618.359419.png,2158,1715976618.36432,651.744324,220.395203,831.505249,703.516846,254.255081,781.184204,716.569824,211.846237,812.673645,657.50415,164.392395,836.213318,627.627502,138.32373,845.720825,593.534302,127.516342,857.748047,581.785828,200.766174,859.736877,551.699829,197.774429,858.76416,522.213135,188.801147,853.678711,131.171249,48.67004,765.098877,159.890579,38.405796,757.612854,181.006744,31.585951,750.779724,49.656513,31.132463,761.517395,73.991234,9.631802,755.813171,101.283295,-8.236859,748.938049,90.24118,76.650497,774.830627,87.512383,108.514908,763.062439,44.844997,100.158516,774.248901,-20.021231,108.536911,786.50531,185.97467,980.329407,1492.291016,239.164703,974.140625,1516.266724,290.304291,986.2854,1498.580688,554.560303,-517.056824,834.667847,508.422974,-520.948914,833.884155,499.074524,-462.084961,834.40448,558.615356,-463.277802,834.888794,501.411621,-525.601379,738.024963,495.99472,-449.313751,739.43396,561.309753,-452.456177,740.359863,562.221069,-520.640137,740.479187,128.222946,406.228271,842.809448,87.42588,465.303009,842.079773,24.22954,415.688385,840.406494,65.642509,359.674347,842.016785,138.178436,406.158508,737.554016,91.340218,471.564728,736.861572,18.473841,413.314911,733.518372,66.647522,349.878448,735.154175
00206_color_1715976618.394103.png,2161,1715976618.39432,650.774109,219.656784,830.799133,702.500488,253.434174,780.400696,715.628479,211.241638,812.031982,656.579346,163.638153,835.575745,626.664429,137.493408,845.092468,592.684631,126.822922,857.203003,580.773804,199.815659,858.857666,550.768555,197.007675,858.080261,521.256897,187.788467,852.82312,131.254272,48.706848,765.119446,160.002258,38.365028,757.569397,181.103149,31.629328,750.821411,49.735928,31.202635,761.542542,74.052803,9.665868,755.807495,101.359444,-8.173605,748.975098,90.346626,76.879402,774.982422,87.589874,108.547638,762.998901,44.906208,100.248421,774.2323,-19.961151,108.615013,786.505798,185.967026,980.274597,1492.316406,239.160217,974.137695,1516.258057,290.301025,986.274963,1498.575928,555.018555,-516.953369,834.654663,508.915314,-520.84967,833.969604,499.461243,-462.01062,834.425598,559.095703,-463.111267,834.822327,501.706543,-525.623352,738.101135,496.250946,-449.361633,739.48291,561.574829,-452.497375,740.244446,562.469116,-520.682007,740.459473,128.234375,406.250885,842.829224,87.459175,465.651733,842.519653,24.198141,415.717194,840.439819,65.640442,359.688507,842.030029,138.221817,406.176392,737.605286,91.333893,471.573364,736.851074,18.468658,413.342255,733.540344,66.624939,349.903931,735.176636
00207_color_1715976618.428790.png,2164,1715976618.42432,649.726196,218.743896,829.580017,701.458801,252.493439,779.22406,714.570374,210.487442,811.051392,655.549133,162.742767,834.518921,625.783203,136.57634,843.842407,591.683594,125.683411,855.850525,579.724304,198.90831,857.573853,549.721436,195.939011,856.595337,520.23877,186.728394,851.433594,131.284027,48.76413,765.131226,160.103668,38.363739,757.593445,181.141586,31.635273,750.834351,49.760658,31.250364,761.572998,74.089844,9.72595,755.836182,101.400101,-8.111645,749.024048,90.367416,76.92704,774.973572,87.635429,108.616821,762.972534,44.958275,100.355103,774.247559,-19.928371,108.669624,786.497498,185.96965,980.304138,1492.332153,239.162598,974.140381,1516.268677,290.29718,986.290955,1498.593018,554.354065,-517.294312,834.808838,508.152618,-521.211853,833.819336,498.863831,-462.267578,834.402222,558.382019,-463.492615,835.121277,501.53952,-525.696533,737.935303,496.156372,-449.445282,739.428711,561.446167,-452.566376,740.584229,562.34436,-520.722534,740.624512,128.224472,406.258606,842.841309,87.41687,465.306427,842.072021,24.217253,415.70755,840.423279,65.628365,359.673676,842.052979,138.221863,406.181549,737.615234,91.32692,471.566772,736.848145,18.458584,413.345032,733.53656,66.617157,349.922943,735.181396
00208_color_1715976618.463514.png,2168,1715976618.46432,648.198547,217.244888,827.56012,699.993958,251.142563,777.382446,713.129028,209.20845,809.351746,654.255737,161.279831,832.640564,624.542847,135.052582,841.987854,590.541138,124.022812,853.776001,578.178284,197.040207,855.204224,548.283142,194.130264,854.233704,518.785339,184.571213,848.816406,131.269867,48.800453,765.122742,159.996582,38.415138,757.563965,181.11026,31.645176,750.83551,49.749043,31.252619,761.585876,74.083694,9.746981,755.825867,101.39386,-8.086314,749.050415,90.353836,76.947639,774.949585,87.598122,108.623543,762.98761,44.956871,100.378334,774.247131,-19.944811,108.699654,786.503479,185.968918,980.272156,1492.305786,239.162247,974.136841,1516.261841,290.296722,986.246826,1498.561523,551.821289,-517.963257,834.758423,505.65387,-521.378235,833.764343,497.005859,-462.374329,834.355957,556.549072,-464.18692,835.034729,498.984253,-525.594543,737.91333,494.291931,-449.372437,739.415894,559.650085,-453.461853,740.437317,559.626465,-521.528137,740.57605,128.210861,406.248932,842.833374,87.416168,465.311127,842.080139,24.19701,415.718384,840.436707,65.630295,359.703003,842.033386,138.196152,406.16394,737.580566,91.323784,471.573486,736.865295,18.450035,413.337311,733.547974,66.613914,349.918915,735.195923
00209_color_1715976618.498025.png,2171,1715976618.49432,647.111145,215.757767,826.120422,698.928223,249.902771,776.13678,712.119446,208.060989,808.103516,653.446289,159.808914,831.211853,623.783508,133.384705,840.439087,589.752686,122.274887,852.197937,577.125061,195.207596,853.622559,547.136414,192.187714,852.511414,517.844055,182.609406,847.102051,131.260834,48.8423,765.112549,159.963852,38.546982,757.645447,181.06221,31.649094,750.807251,49.754902,31.311281,761.614685,74.113518,9.814035,755.859802,101.386391,-8.0275,749.085876,90.32917,76.960442,774.930115,87.61087,108.675407,762.996399,44.950939,100.417618,774.242676,-19.938248,108.716103,786.519043,185.955612,980.284607,1492.318237,239.170654,974.134399,1516.266235,290.29187,986.234924,1498.547852,548.000854,-518.525269,834.726685,501.827362,-521.52417,833.763855,493.688843,-462.454254,834.36853,553.195923,-464.873138,835.029114,495.199554,-525.753052,737.907532,491.089355,-449.425659,739.453918,556.413025,-454.222168,740.378174,555.816467,-522.101074,740.450195,128.206482,406.239014,842.825562,87.415001,465.314087,842.086731,24.206882,415.687103,840.415161,65.630035,359.674438,842.037048,138.106216,406.169189,737.500977,91.330925,471.573151,736.858643,18.483156,413.311066,733.513855,66.631279,349.896393,735.170105
