mbdulkadiroglu/VisualAffordanceDataset/synchronized_frames_6.csv
RealSense_frame,Vicon_frame,Vicon_timestamp,Tray:Corner1_X,Tray:Corner1_Y,Tray:Corner1_Z,Tray:Corner2_X,Tray:Corner2_Y,Tray:Corner2_Z,Tray:Corner3_X,Tray:Corner3_Y,Tray:Corner3_Z,Tray:Corner4_X,Tray:Corner4_Y,Tray:Corner4_Z,RightHand1:Wrist1_X,RightHand1:Wrist1_Y,RightHand1:Wrist1_Z,RightHand1:Wrist2_X,RightHand1:Wrist2_Y,RightHand1:Wrist2_Z,RightHand1:Wrist3_X,RightHand1:Wrist3_Y,RightHand1:Wrist3_Z,RightHand1:Thumb1_X,RightHand1:Thumb1_Y,RightHand1:Thumb1_Z,RightHand1:Thumb2_X,RightHand1:Thumb2_Y,RightHand1:Thumb2_Z,RightHand1:Thumb3_X,RightHand1:Thumb3_Y,RightHand1:Thumb3_Z,RightHand1:IndexFinger1_X,RightHand1:IndexFinger1_Y,RightHand1:IndexFinger1_Z,RightHand1:IndexFinger2_X,RightHand1:IndexFinger2_Y,RightHand1:IndexFinger2_Z,RightHand1:IndexFinger3_X,RightHand1:IndexFinger3_Y,RightHand1:IndexFinger3_Z,Realsense:Camera1_X,Realsense:Camera1_Y,Realsense:Camera1_Z,Realsense:Camera2_X,Realsense:Camera2_Y,Realsense:Camera2_Z,Realsense:Camera3_X,Realsense:Camera3_Y,Realsense:Camera3_Z,LeftHand1:IndexFinger1_X,LeftHand1:IndexFinger1_Y,LeftHand1:IndexFinger1_Z,LeftHand1:IndexFinger2_X,LeftHand1:IndexFinger2_Y,LeftHand1:IndexFinger2_Z,LeftHand1:IndexFinger3_X,LeftHand1:IndexFinger3_Y,LeftHand1:IndexFinger3_Z,LeftHand1:Thumb1_X,LeftHand1:Thumb1_Y,LeftHand1:Thumb1_Z,LeftHand1:Thumb2_X,LeftHand1:Thumb2_Y,LeftHand1:Thumb2_Z,LeftHand1:Thumb3_X,LeftHand1:Thumb3_Y,LeftHand1:Thumb3_Z,LeftHand1:Wrist1_X,LeftHand1:Wrist1_Y,LeftHand1:Wrist1_Z,LeftHand1:Wrist2_X,LeftHand1:Wrist2_Y,LeftHand1:Wrist2_Z,LeftHand1:Wrist3_X,LeftHand1:Wrist3_Y,LeftHand1:Wrist3_Z,LeftHand1:Wrist4_X,LeftHand1:Wrist4_Y,LeftHand1:Wrist4_Z
00064_color_1715718753.019941.png,667,1715718753.019941,288.088898,-144.103531,751.066711,520.44165,-142.346573,750.172058,531.304749,-363.050171,750.008911,293.997955,-374.321625,746.996887,608.352478,1083.930054,1074.045532,589.279663,1144.071045,1055.068481,638.155212,1142.78772,1080.631958,664.811951,1077.667725,1075.291992,675.624878,1042.734497,1071.439575,672.664978,1008.42511,1076.348022,613.062073,1011.110779,1076.178833,611.340454,983.834778,1067.309937,615.219482,955.665161,1054.242432,307.943481,935.789917,1496.626465,254.050583,929.918884,1512.099854,202.76889,947.782776,1491.154053,115.228371,9.110357,762.407898,144.420639,0.18736,755.619507,165.507065,-4.486907,750.170288,33.941566,-9.242666,763.224976,56.385868,-32.278297,757.667603,80.785461,-51.894215,752.629761,74.406662,34.589516,772.959412,73.073692,68.144417,764.582336,32.603165,59.382851,774.088562,-31.570087,65.726418,788.818176
00065_color_1715718753.054258.png,670,1715718753.049941,286.130432,-144.137695,751.055908,518.344727,-142.166794,750.113953,529.442566,-362.816101,750.04541,292.268372,-374.33374,746.997253,611.786743,1064.050781,1065.744263,594.877319,1124.550049,1046.801025,643.78125,1121.587524,1072.349609,668.198059,1055.577148,1066.807373,677.801758,1020.257935,1062.890015,673.839966,986.114929,1067.959839,614.105042,990.826172,1067.741577,611.624451,963.688904,1058.719482,614.424622,935.414856,1045.668457,307.940796,935.746765,1496.609253,254.043671,929.915222,1512.12085,202.789642,947.714905,1491.205566,115.186256,9.151382,762.411194,144.37352,0.161944,755.672729,165.427261,-4.50404,750.169006,33.911797,-9.232821,763.162476,56.348011,-32.3344,757.582581,80.73394,-51.913647,752.581848,74.384056,34.599304,772.987427,73.030945,68.113609,764.58606,32.535397,59.347183,774.073486,-31.673237,65.584618,788.811951
00066_color_1715718753.088257.png,674,1715718753.089941,281.947937,-144.216324,750.977417,514.238525,-141.83728,750.099304,525.648071,-362.444611,750.040833,288.493164,-374.430298,746.972046,616.237854,1034.031006,1054.539795,601.548157,1095.283813,1036.080444,650.278259,1090.335205,1061.442017,672.410339,1023.279053,1055.376099,680.463257,987.981079,1051.231567,675.03363,954.002258,1055.888428,615.802246,960.924866,1056.0802,612.250916,933.967285,1046.928101,613.912292,905.713074,1033.648193,307.943695,935.724548,1496.594116,254.052795,929.916199,1512.145264,202.813934,947.636536,1491.248657,115.140068,9.230538,762.414307,144.329712,0.153726,755.739807,165.376221,-4.446202,750.164062,33.895584,-9.248398,763.121887,56.33556,-32.392384,757.50769,80.733795,-51.928799,752.534851,74.341957,34.642754,773.007019,72.966995,68.118523,764.606689,32.4636,59.335079,774.070129,-31.758308,65.39032,788.860168
00067_color_1715718753.122525.png,677,1715718753.119941,278.046936,-144.243423,750.929199,510.324249,-141.504745,750.130371,522.164429,-362.109955,750.017029,284.979156,-374.459747,746.942566,618.531982,1010.143738,1047.815918,605.243713,1071.811768,1029.656128,653.982239,1065.523804,1054.910278,674.309814,998.259949,1048.137939,681.687073,962.403809,1043.785034,675.495972,928.741333,1048.525513,616.640503,936.730957,1048.771606,612.15509,910.155823,1039.540161,612.975647,881.994873,1026.209229,307.941284,935.712463,1496.586792,254.053055,929.936279,1512.165527,202.817627,947.640869,1491.264648,115.099319,9.284909,762.428955,144.246429,0.071038,755.827515,165.333771,-4.62281,750.323486,33.876301,-9.262807,763.084778,56.340958,-32.409485,757.48291,80.774673,-51.919453,752.46814,74.283173,34.650196,773.030579,72.909798,68.141304,764.644836,32.390938,59.296814,774.071106,-31.816542,65.223946,788.893005
00068_color_1715718753.156895.png,681,1715718753.1599412,271.314117,-144.029709,750.862244,503.532532,-140.809525,750.13623,515.875671,-361.317352,749.979248,278.645813,-374.200745,746.77301,619.973633,977.829224,1041.654053,608.09259,1039.938965,1024.121704,657.191284,1031.707764,1048.818726,675.1604,964.026123,1041.971924,682.658813,927.025879,1037.119873,673.985046,894.570923,1042.280884,615.636108,904.716064,1042.593872,610.05603,878.184509,1033.687988,609.434937,849.057434,1020.714417,307.962128,935.724243,1496.591675,253.588593,927.900391,1511.839722,202.856552,947.588684,1491.340332,115.01503,9.286413,762.463135,144.161789,0.304797,755.760742,165.245361,-4.637321,750.363708,33.831356,-9.28894,763.075989,56.333744,-32.417988,757.504089,80.810509,-51.89999,752.465027,74.16114,34.667042,773.080322,72.810173,68.153702,764.712158,32.258423,59.200134,774.062134,-31.913977,64.959091,788.975769
00069_color_1715718753.191239.png,684,1715718753.1899412,264.779602,-143.496902,750.733887,497.007477,-140.153717,750.138123,509.490082,-360.686554,749.94751,272.309814,-373.721527,746.766846,620.118164,953.626221,1039.391846,609.112549,1015.856018,1022.894287,658.358459,1006.117249,1046.740112,674.667786,938.396667,1039.415649,679.822021,902.194641,1034.579956,671.386475,868.782837,1039.171875,612.51123,881.004517,1040.607178,607.087463,855.299927,1030.612061,606.067017,824.833313,1017.459778,307.961212,935.696472,1496.590576,253.952148,929.818665,1512.434692,202.867111,947.588196,1491.296753,114.949005,9.367908,762.487488,144.05957,0.161694,755.873535,165.194061,-4.484588,750.33429,33.80899,-9.286205,763.058411,56.348888,-32.37167,757.532776,80.915657,-51.827278,752.501282,74.138565,34.846855,773.309753,72.743866,68.162407,764.731079,32.170254,59.149487,774.077087,-31.993605,64.855453,789.051025
00070_color_1715718753.225670.png,688,1715718753.2299411,254.524765,-142.658966,750.605591,486.748657,-139.158127,750.12561,499.293518,-359.744629,749.957336,262.218384,-372.829315,746.576233,617.908691,923.341675,1039.011719,611.619751,985.381287,1021.990173,658.769592,973.458923,1046.931885,672.189392,905.796265,1038.998413,675.946533,869.01355,1033.713379,664.973328,836.977478,1038.222656,608.417419,851.679138,1038.160034,601.192749,824.834045,1029.265991,599.159119,797.532043,1015.052673,308.049835,936.81366,1497.139404,253.811188,930.209229,1512.185425,202.846542,947.577637,1491.300781,114.936775,9.331697,762.471802,144.071899,0.150082,755.86731,165.163971,-4.531786,750.301575,33.804466,-9.376406,763.063965,56.357338,-32.378345,757.563416,81.072586,-51.804321,752.578369,74.123573,34.801487,773.303955,72.724113,68.146271,764.746338,32.15937,59.067734,774.092712,-31.975504,64.724289,789.097046
00071_color_1715718753.259638.png,691,1715718753.259941,245.457977,-141.890381,750.423035,477.708221,-138.386215,750.154175,490.351624,-358.961761,749.840698,253.180389,-372.096222,746.480591,616.549377,902.452759,1039.915161,612.694275,964.388977,1022.805115,658.185974,950.963623,1049.037354,669.328491,883.179138,1041.016968,671.90448,846.366089,1035.565674,671.893555,846.320801,1035.424072,603.611206,830.955688,1038.991943,595.647766,805.732788,1029.408936,592.879822,777.818787,1015.284912,308.08432,936.970215,1497.199463,253.860977,930.221924,1512.25708,202.873322,947.567932,1491.348877,114.939026,9.348583,762.456543,144.054565,0.184288,755.830566,165.154861,-4.518,750.314819,33.784626,-9.391024,763.045532,56.343258,-32.399563,757.546753,81.094292,-51.806213,752.580811,74.108948,34.694286,773.192749,72.636055,67.939987,764.568237,32.175217,59.025894,774.082275,-31.949953,64.684166,789.136902
00072_color_1715718753.293677.png,694,1715718753.289941,235.640366,-141.226273,750.274475,467.864441,-137.72522,750.164124,480.525513,-358.328217,749.756287,243.405731,-371.381409,746.296509,614.962891,883.891174,1041.921387,613.141235,945.673462,1024.991455,657.784363,930.666443,1051.661987,667.023987,863.065857,1043.743408,668.493225,826.161011,1038.309082,667.769592,827.27478,1038.789429,599.698303,812.744995,1040.969727,590.812866,788.60791,1030.901245,587.741638,760.001099,1016.84259,308.102142,937.155396,1497.283569,253.894119,930.219727,1512.315063,202.882462,947.578369,1491.34436,114.921417,9.341696,762.452393,144.039307,0.123178,755.873901,165.156265,-4.51279,750.325195,33.771225,-9.375703,763.03186,56.351574,-32.385296,757.53772,81.076965,-51.827541,752.559204,74.092537,34.77383,773.306641,72.723671,68.093796,764.762573,32.189667,58.98473,774.090881,-31.918228,64.673386,789.176941
00073_color_1715718753.327736.png,698,1715718753.329941,221.217316,-140.576187,750.074951,453.461609,-136.736969,750.110718,466.433533,-357.309723,749.696777,229.254089,-370.676147,746.156921,613.598267,863.183533,1046.616577,613.47699,924.836182,1030.134277,657.691284,908.193542,1056.466919,665.055298,840.465027,1047.512451,665.048828,803.437561,1042.100464,650.829407,770.656616,1045.894043,596.263672,792.351929,1044.108887,587.025208,767.363647,1034.217407,583.021729,739.891602,1019.611816,308.090454,937.305603,1497.357788,253.900116,930.192627,1512.350098,202.866135,947.569519,1491.339478,114.894737,9.30272,762.427673,144.044586,0.124254,755.869202,165.158569,-4.544571,750.338257,33.788166,-9.425581,763.010254,56.376064,-32.453323,757.489624,81.061554,-51.868446,752.501404,74.070061,34.723099,773.293823,72.713608,68.051506,764.786011,32.170696,58.920132,774.114502,-31.902332,64.578552,789.271973
00074_color_1715718753.361646.png,701,1715718753.359941,209.533829,-140.240311,749.868103,441.773834,-136.01062,750.162292,455.160583,-356.545258,749.585388,218.078934,-370.394836,746.006287,612.614685,849.895508,1050.815186,614.095337,912.970886,1035.265991,657.920593,894.897522,1061.171021,663.211731,827.211304,1052.127075,663.042236,791.655212,1046.505127,647.712585,758.768005,1049.127686,593.601746,778.998169,1048.889893,583.949402,755.755493,1038.078979,578.994446,728.748779,1023.433228,308.101379,937.345337,1497.373413,253.897461,930.190308,1512.350342,202.861664,947.568848,1491.32605,114.889595,9.260711,762.426575,144.03656,0.15178,755.843262,165.137924,-4.52923,750.330139,33.74725,-9.519358,762.962646,56.348503,-32.506721,757.443604,81.034538,-51.918224,752.476135,74.046608,34.662933,773.337097,72.700401,67.993889,764.848389,32.149887,58.799999,774.168945,-31.923737,64.398727,789.365662
00075_color_1715718753.395632.png,705,1715718753.3999412,192.851227,-139.809357,749.599182,425.052002,-135.274399,750.001892,438.744843,-355.818878,749.51062,201.663589,-370.023285,745.697449,611.038879,839.09259,1058.327026,616.349426,901.815674,1042.337402,658.670105,881.568481,1069.143677,661.125488,812.918823,1060.348633,656.749939,781.243164,1052.973511,642.93335,746.038879,1058.064819,588.360168,770.483887,1055.884644,577.477173,746.38678,1045.467896,571.704407,719.236755,1030.745483,308.108429,937.359497,1497.383179,253.895782,930.191833,1512.356567,202.865799,947.567017,1491.352539,114.83226,9.238923,762.408752,143.955551,-0.273102,756.097168,165.061539,-4.437884,750.229431,33.680622,-9.553926,762.896912,56.290771,-32.565094,757.441406,80.999237,-51.958557,752.473083,73.974892,34.491283,773.227051,72.624306,67.591164,764.650452,32.181839,58.386768,774.201965,-31.909294,64.275009,789.34906
00076_color_1715718753.429837.png,708,1715718753.4299412,179.79393,-139.182114,749.406738,412.05011,-134.803375,749.925903,425.59552,-355.277802,749.374512,188.511276,-369.35202,745.473389,610.301086,833.493958,1063.73291,618.871277,896.11499,1047.693604,660.462524,873.444458,1075.128906,659.37677,804.909912,1066.694458,654.653992,767.70459,1061.154663,637.921753,738.856873,1064.836548,584.495544,766.31488,1061.89978,572.639221,742.392822,1051.27771,565.556824,715.782654,1036.914551,308.102051,937.358826,1497.381714,253.899185,930.186768,1512.352539,202.864853,947.571228,1491.334961,114.790016,9.234374,762.375488,143.916565,-0.271083,756.066162,165.067535,-4.404886,750.252319,33.664188,-9.617385,762.899841,56.262875,-32.578804,757.423767,80.977081,-51.9888,752.456299,74.024818,34.385704,773.259644,72.727295,67.643127,764.764648,32.15276,58.414055,774.191284,-31.904842,64.255264,789.400269
00077_color_1715718753.465936.png,712,1715718753.4699411,162.307037,-137.770737,749.08136,394.51358,-134.166595,749.858887,407.411102,-354.804321,749.176758,170.244095,-368.00116,745.179443,610.464233,828.355591,1070.615601,623.6474,890.21051,1054.062744,663.300537,865.368042,1082.134155,657.866943,796.958191,1074.333252,651.728577,761.111572,1069.058228,633.29541,732.19397,1072.514893,581.360718,761.890198,1068.216187,567.998535,739.205505,1057.624268,559.673828,712.710815,1043.12793,308.106842,937.350037,1497.376099,253.906036,930.187195,1512.349976,202.859634,947.561584,1491.34375,114.747902,9.26853,762.419312,143.961685,0.048653,755.835876,165.059036,-4.518842,750.334778,33.671547,-9.540741,762.784668,56.278633,-32.473129,757.32428,81.007843,-52.053799,752.493958,74.008835,34.381966,773.266907,72.718803,67.62545,764.753174,32.195572,58.404209,774.201965,-31.829313,64.298706,789.505371
00078_color_1715718753.500029.png,715,1715718753.499941,148.978455,-136.670807,748.785217,381.215393,-133.913116,749.675293,393.247833,-354.522552,749.100403,156.117844,-366.776245,744.916199,611.297241,825.492065,1074.878296,627.512878,887.700439,1059.264648,666.068298,860.526733,1087.253418,657.323792,792.433167,1079.14856,650.67926,756.690613,1073.675537,631.580017,728.163757,1077.10083,579.096313,760.190979,1071.419678,565.682739,737.586121,1060.057129,556.78717,711.521118,1045.185059,308.103333,937.356812,1497.367188,253.908936,930.176453,1512.351929,202.835846,947.612976,1491.256714,114.56675,9.314217,762.434021,143.808792,0.228459,755.82312,164.85051,-4.497297,750.249329,33.556278,-9.519825,762.812683,56.188416,-32.418301,757.346313,80.930016,-52.006081,752.542969,73.817406,34.430099,773.300171,72.581924,67.671196,764.810791,32.083298,58.41983,774.20636,-31.890259,64.346497,789.553589
00079_color_1715718753.534526.png,718,1715718753.529941,135.395142,-135.352173,748.59021,367.574127,-133.563797,749.608765,378.79541,-354.156799,748.956726,141.631744,-365.661774,744.618408,612.151367,823.949036,1078.739014,632.816284,885.989685,1064.248779,669.391052,856.743408,1092.734741,657.188049,789.15094,1083.81958,649.663818,753.740967,1078.186646,629.883057,725.634277,1081.312622,577.683594,759.30896,1072.833374,563.550598,737.328247,1061.019897,554.1698,711.852051,1045.437256,308.098877,937.353333,1497.367188,253.900528,930.190857,1512.350342,202.858994,947.568359,1491.349731,114.447853,9.355418,762.427429,143.629379,-0.45914,756.175171,164.711105,-4.649148,750.334229,33.46241,-9.420384,762.865845,56.089626,-32.326271,757.44928,80.946892,-51.936737,752.695374,73.746567,34.202297,773.068176,72.572433,67.339409,764.542786,32.003006,58.453804,774.232849,-31.973007,64.441895,789.644958
00080_color_1715718753.569156.png,722,1715718753.569941,116.697945,-134.179321,748.226624,348.858582,-133.082291,749.454102,359.347443,-353.793945,748.748047,122.113945,-364.38736,744.283752,614.946106,821.977478,1081.7323,641.515869,884.41095,1070.274658,675.157288,852.140503,1099.362915,657.416748,783.546082,1089.297852,648.682983,750.654846,1083.938599,627.886902,723.490417,1086.595703,576.991394,759.798401,1074.325073,561.418823,739.515808,1061.409912,550.803772,714.973755,1045.311646,308.101959,937.359253,1497.367554,253.899155,930.1922,1512.343506,202.862869,947.565186,1491.330078,114.345627,9.427329,762.443359,143.508087,-0.412916,756.195312,164.618988,-5.230445,750.680298,33.411934,-9.392454,762.957458,56.084473,-32.133816,757.644653,81.14576,-51.682144,752.983032,73.659874,34.268299,773.091492,72.370964,67.539185,764.610657,31.980476,58.536396,774.254517,-31.959955,64.521645,789.726685
00081_color_1715718753.603381.png,725,1715718753.599941,102.251762,-133.412521,747.916077,334.502563,-132.736404,749.197327,344.58551,-353.4841,748.543518,107.347824,-363.683105,743.988586,618.495728,820.551575,1083.674316,649.420288,881.750671,1073.133179,680.601501,847.669678,1102.79126,658.825684,780.034607,1092.667725,649.01001,747.938232,1087.785645,626.862732,721.449829,1090.050781,577.574097,760.314636,1074.900146,561.057373,741.129395,1061.492188,549.7547,717.211182,1044.848877,308.109802,937.358521,1497.369629,253.904663,930.189392,1512.34436,202.863617,947.564575,1491.339233,114.318031,9.421017,762.429504,143.460052,-0.424369,756.168457,164.574905,-5.263955,750.675598,33.416065,-9.339812,762.993225,56.148453,-31.996719,757.764893,81.37468,-51.454128,753.137634,73.557594,34.53194,773.3302,72.406548,67.790939,764.848022,31.972929,58.560436,774.290161,-31.945501,64.609703,789.778381
00082_color_1715718753.637860.png,729,1715718753.6399412,83.791855,-132.33255,747.531189,316.051422,-132.35611,748.846313,325.412598,-353.036865,748.406189,88.176964,-362.578308,743.560852,624.959045,815.255493,1084.835327,660.049194,874.724487,1075.296143,688.758423,838.659302,1105.191528,662.979858,772.586853,1094.680542,651.38092,739.077515,1088.761963,628.348083,715.361633,1091.875,580.914978,757.148376,1074.746826,563.575745,739.167603,1060.831787,551.22052,716.108765,1043.593018,308.09668,937.352844,1497.362671,253.903275,930.190186,1512.352417,202.871796,947.550476,1491.319214,114.202698,9.495257,762.476074,143.377594,-0.357142,756.178223,164.470367,-4.711834,750.363953,33.353451,-9.241176,763.118835,56.132923,-31.841955,758.095947,81.602928,-51.185345,753.689453,73.475441,34.614117,773.338562,72.352264,67.886566,764.87146,31.958599,58.615017,774.307312,-31.971737,64.81501,789.85083
00083_color_1715718753.671711.png,732,1715718753.6699412,69.870598,-132.020813,747.340515,302.140869,-131.839783,748.647156,311.627258,-352.690338,748.194458,74.269379,-362.287384,743.385376,630.336792,808.324707,1084.783447,667.523193,866.547913,1075.733154,694.684021,829.452393,1105.615356,666.878174,763.954041,1094.086548,654.509216,731.298096,1088.384521,630.655396,708.04718,1091.201538,584.658813,750.842651,1073.249023,567.003296,733.490967,1058.882568,554.522644,710.857971,1041.085693,308.090332,937.364136,1497.36377,253.901779,930.197327,1512.348267,202.860229,947.562256,1491.316895,114.079941,9.584506,762.542725,143.200775,0.122398,755.948669,164.326187,-5.213751,750.669189,33.244072,-9.132134,763.284058,56.121239,-31.713646,758.363098,81.601257,-50.970879,754.176697,73.400635,34.477135,773.124878,72.372917,67.549217,764.535706,31.87751,58.736664,774.311157,-32.031639,64.988693,789.891479
00084_color_1715718753.705638.png,736,1715718753.7099411,50.181973,-133.000839,746.807434,282.477783,-131.067612,748.393372,293.77771,-351.610382,748.087158,56.582802,-363.280701,742.927185,636.836609,793.20575,1081.915283,676.609436,851.79541,1074.437378,701.874878,813.331116,1104.397949,671.37439,749.420959,1092.135742,657.697266,717.620117,1086.688843,632.816589,694.719727,1088.698486,588.823608,739.398804,1070.249878,570.745972,722.70752,1055.466309,557.612488,700.724487,1037.414062,308.041473,937.376038,1497.318237,253.904877,930.198547,1512.349609,202.847473,947.594849,1491.292114,113.939262,9.634314,762.558655,143.063324,0.13421,755.957947,164.193542,-5.182057,750.661621,33.126789,-9.045503,763.384338,56.06601,-31.691109,758.736023,81.472832,-50.703217,754.606567,73.261108,34.534164,773.144226,72.294586,67.588066,764.547607,31.77096,58.859924,774.360291,-32.114555,65.079544,789.912781
00085_color_1715718753.739799.png,739,1715718753.7399411,35.324608,-133.338104,746.43457,267.789459,-130.310364,748.162109,280.450409,-350.911163,747.840576,43.250378,-363.935181,742.687744,640.77594,781.556641,1080.059326,682.531372,838.002686,1072.051025,706.375061,798.845032,1102.234009,674.031982,736.009155,1089.85376,659.232971,704.404663,1084.239502,633.340759,682.722656,1086.473022,591.329224,728.397339,1067.711182,572.772827,712.247131,1052.714233,558.987915,690.671326,1034.808228,307.292603,937.638245,1496.812622,253.901688,930.189087,1512.34729,202.850937,947.57605,1491.334839,113.919739,9.644175,762.569336,142.979156,0.459391,755.756165,164.157684,-5.186282,750.66449,33.065514,-9.038168,763.447021,56.001366,-31.709179,758.838745,81.39502,-50.636795,754.754761,73.2267,34.54108,773.15271,72.047203,67.842064,764.674561,31.735647,58.878597,774.396912,-32.156479,65.124725,789.952209
00086_color_1715718753.773712.png,742,1715718753.769941,21.531258,-133.501099,746.158142,253.957565,-129.854431,747.946594,267.13089,-350.52301,747.70343,29.973448,-363.988068,742.425171,643.817749,766.909485,1076.620117,686.962646,822.30072,1068.884766,710.123047,782.049011,1098.73877,676.089417,721.284241,1087.151001,660.078613,689.516724,1080.935181,633.754089,668.309753,1083.283203,593.05011,715.030396,1064.593384,574.729248,699.092346,1049.226562,559.810547,677.948608,1031.664062,307.299774,937.647156,1496.825806,253.887955,930.178833,1512.35791,202.84967,947.555542,1491.326294,113.914566,9.601767,762.573608,142.924561,0.771342,755.472656,164.158203,-5.213311,750.65741,33.060905,-9.056453,763.493286,55.996471,-31.737782,758.933716,81.36499,-50.63887,754.887024,73.247795,34.496353,773.16217,72.291359,67.535255,764.564209,31.747889,58.859421,774.398132,-32.129681,65.079948,789.989685
00087_color_1715718753.807701.png,746,1715718753.809941,5.041769,-132.938751,745.70343,237.273346,-129.416199,747.814697,249.882141,-349.896393,747.459778,12.928758,-363.226837,742.052368,645.878784,745.209656,1070.650269,690.923889,799.208252,1062.365112,713.000366,758.501404,1092.105957,676.661011,698.021057,1080.474976,659.704407,667.440491,1075.243652,632.60199,647.399414,1078.081299,593.313293,695.248291,1059.73645,573.987183,679.910645,1044.881958,558.785522,659.07196,1027.098022,307.88446,937.79364,1496.929199,253.892654,930.177246,1512.352905,202.849014,947.568726,1491.299194,113.938423,9.609531,762.581299,142.904968,0.894808,755.343384,164.176865,-5.23348,750.656372,33.067375,-8.950112,763.603882,55.98547,-31.684359,759.15979,81.349419,-50.637123,755.140869,73.292038,34.537323,773.166565,72.333824,67.55188,764.512451,31.784985,58.963245,774.409058,-32.102718,65.248871,789.944946
00088_color_1715718753.841994.png,749,1715718753.839941,-6.262431,-132.287674,745.45166,226.153122,-129.524521,747.559998,238.375107,-349.973694,747.19635,1.369268,-362.76416,741.823914,646.276733,728.614075,1065.447144,692.395142,781.122498,1056.403687,713.924194,739.100891,1085.905273,675.479675,680.904419,1074.773071,657.980774,650.168762,1069.798706,630.335388,630.895691,1073.215332,592.079041,679.824219,1055.448242,572.194946,664.483398,1041.200439,556.086121,644.107422,1023.651123,307.871429,937.477478,1497.180664,253.90062,930.172546,1512.348511,202.856094,947.55426,1491.318481,113.985504,9.66913,762.605774,143.098358,0.364906,755.819946,164.228455,-5.21089,750.638,33.111652,-8.876517,763.719604,56.026535,-31.646463,759.401978,81.419365,-50.653053,755.37323,73.360489,34.614952,773.158936,72.112305,67.933632,764.619019,31.840206,59.07222,774.403198,-32.087227,65.398964,789.915771
00089_color_1715718753.876393.png,753,1715718753.8799412,-18.743828,-131.717163,745.194275,213.6931,-129.748978,747.374329,225.214798,-350.203857,747.017395,-11.853402,-362.41156,741.480225,645.307678,705.734253,1057.038574,693.370239,757.623779,1048.797363,713.527283,713.311279,1075.483154,673.031616,656.19928,1065.560059,653.701416,626.924011,1061.265137,625.419373,608.838684,1065.532471,588.784729,659.174072,1048.515503,567.897766,644.688171,1035.020264,550.365479,625.023499,1018.11792,307.970551,937.413757,1497.257446,253.892929,930.174988,1512.349365,202.843094,947.572693,1491.311279,114.026917,9.658216,762.619934,143.109161,0.353898,755.840759,164.241882,-5.235303,750.653931,33.105579,-8.88107,763.793274,56.0205,-31.610437,759.517944,81.448967,-50.684822,755.651794,73.373291,34.618416,773.171997,72.348305,67.675117,764.512878,31.825293,59.044994,774.40979,-32.136749,65.368645,789.907104
00090_color_1715718753.910490.png,756,1715718753.9099412,-25.362984,-131.119217,744.973511,207.049011,-130.129578,747.145935,217.697632,-350.58844,746.932617,-19.386707,-361.759247,741.403137,643.917419,688.44751,1049.477905,693.158936,738.038818,1039.974731,712.320496,692.701233,1066.500977,669.82605,637.675964,1057.479736,649.293579,609.396667,1053.937012,620.311035,592.403259,1058.757568,585.464417,644.243347,1042.246216,563.880188,630.345764,1028.983276,545.2229,611.4599,1012.557007,308.02536,937.36792,1497.307129,253.877045,930.17865,1512.359253,202.842697,947.5578,1491.308838,114.019249,9.640441,762.618591,143.119568,0.362595,755.829529,164.246307,-5.218831,750.644043,33.119282,-8.892449,763.766785,56.029636,-31.650816,759.481934,81.472206,-50.731075,755.622559,73.369576,34.581985,773.177368,72.351501,67.626236,764.506165,31.819117,58.974487,774.414795,-32.143845,65.228546,789.914429
00091_color_1715718753.944762.png,759,1715718753.9399412,-29.620016,-130.662689,744.946045,202.822556,-130.481354,747.122131,212.577164,-350.906647,746.915588,-24.497101,-361.23761,741.252441,641.978149,670.799011,1041.23877,693.469604,716.963135,1029.956543,710.81427,672.864685,1057.845825,665.734253,619.347107,1049.390747,644.110779,591.672241,1045.735596,614.588806,576.009888,1050.861694,581.666321,629.055664,1034.516602,559.382935,616.093384,1021.708496,539.825256,597.923767,1005.294678,308.084229,937.362732,1497.356445,253.882263,930.17981,1512.350586,202.8423,947.554382,1491.312134,113.973351,9.632565,762.583679,143.087936,0.39028,755.813965,164.215912,-5.216506,750.623352,33.091225,-8.9508,763.685364,56.009457,-31.661362,759.442566,81.437485,-50.72924,755.576294,73.318665,34.566631,773.163574,72.315491,67.616478,764.539368,31.7672,58.937492,774.461975,-32.192188,65.164803,789.982361
00092_color_1715718753.978881.png,763,1715718753.9799411,-32.400845,-130.68692,744.810913,200.06459,-130.878555,747.046387,209.571289,-351.253265,746.832886,-27.576002,-361.31897,741.206726,639.447937,647.381226,1030.199707,693.696594,692.959412,1020.71405,708.74176,645.065186,1045.69519,660.583679,594.396362,1037.62793,637.49115,567.997559,1033.933105,607.123962,554.157532,1039.69104,577.105164,608.783325,1023.937317,553.973389,597.264282,1011.358521,533.240662,580.301331,995.223206,308.082733,937.348206,1497.351074,253.890839,930.179138,1512.359253,202.844437,947.533813,1491.317017,113.959671,9.690333,762.590271,142.90242,0.919212,755.367188,164.190536,-5.164558,750.65564,33.063549,-8.91622,763.741028,55.973007,-31.564079,759.588318,81.467903,-50.65641,755.885071,73.289276,34.575241,773.154541,72.091072,67.871353,764.646057,31.734411,58.923107,774.467407,-32.204483,65.132957,790.008667
00093_color_1715718754.012849.png,766,1715718754.009941,-33.271591,-131.010147,744.833679,199.201187,-130.756714,747.090088,209.077469,-351.273132,746.827271,-27.992241,-361.713104,741.133179,638.700867,629.654724,1022.085815,694.557617,670.513916,1010.38385,707.70813,624.289734,1037.283203,657.232239,576.014587,1028.990845,632.904785,550.681641,1025.306274,601.953552,538.244873,1031.194092,574.561646,594.207703,1015.875671,550.607056,583.999695,1003.584839,529.163757,567.991516,987.348633,308.087799,937.354553,1497.358154,253.885574,930.171387,1512.356323,202.853821,947.553284,1491.301392,113.87326,9.702573,762.58429,142.813873,0.9964,755.373047,164.10939,-5.131646,750.664307,32.958393,-8.867625,763.840027,55.940292,-31.455227,759.769531,81.505585,-50.549896,756.274231,73.202049,34.569134,773.168579,72.26886,67.586258,764.540344,31.651129,58.901329,774.488525,-32.281017,65.035301,790.051758
00094_color_1715718754.047000.png,770,1715718754.049941,-33.311199,-131.041977,744.832703,199.176422,-130.752838,747.08667,209.068237,-351.274078,746.82843,-27.986656,-361.728546,741.138062,638.404236,607.633545,1012.551758,696.913391,644.208313,1000.324951,706.842285,597.280945,1027.434937,653.270081,552.696167,1018.988342,627.266418,529.23761,1015.253296,595.454773,519.161743,1021.005981,571.878967,576.827393,1006.430359,547.596497,567.944946,993.698975,524.884338,553.841858,977.465576,308.075012,937.341797,1497.359253,253.880356,930.168518,1512.361572,202.843765,947.549438,1491.314941,113.698288,9.778877,762.614319,142.657471,1.168419,755.33313,163.921265,-5.106336,750.653687,32.814957,-8.832701,763.872498,55.846375,-31.447227,759.837585,81.425896,-50.467564,756.50708,72.989838,34.556087,773.179565,71.858246,67.8153,764.653564,31.512014,58.946758,774.521729,-32.433861,65.003487,790.16333
00095_color_1715718754.080923.png,773,1715718754.079941,-33.300598,-131.055359,744.824097,199.176437,-130.733246,747.079834,209.072098,-351.279572,746.828674,-27.979973,-361.744995,741.124695,638.858704,592.078186,1006.485107,698.94519,626.067078,994.864502,706.393372,578.618347,1021.765259,650.964478,536.534485,1012.659912,623.738037,514.340332,1008.725525,591.669617,505.573883,1014.078125,571.038696,564.432556,999.735535,546.225952,557.147461,987.274048,522.93158,544.040161,970.783875,308.060333,937.326782,1497.338257,253.875198,930.175598,1512.357056,202.836533,947.52655,1491.297852,113.547821,9.822214,762.60199,142.538986,1.236869,755.333496,163.781281,-5.058121,750.640503,32.674572,-8.769261,763.926392,55.769287,-31.384069,759.896301,81.341621,-50.373383,756.702209,72.788475,34.597561,773.180786,71.472252,68.508476,765.082458,31.330711,59.151924,774.510681,-32.561028,64.986588,790.177246
00096_color_1715718754.114731.png,776,1715718754.109941,-33.299557,-131.057373,744.826721,199.185684,-130.759811,747.081238,209.088745,-351.278076,746.827942,-27.97576,-361.752716,741.127441,639.541199,577.139893,1001.244812,701.098511,608.664917,990.409607,706.456848,560.535156,1016.899719,649.137573,521.043091,1007.084961,621.108826,500.267456,1002.699036,588.690979,492.595886,1007.531067,570.581604,552.772522,993.821533,545.678955,546.450195,980.990662,521.974243,534.552124,964.189087,308.065216,937.335938,1497.348022,253.867126,930.161133,1512.340332,202.833466,947.554993,1491.302246,113.383606,9.872504,762.622375,142.383713,1.326681,755.291077,163.583893,-4.967578,750.656433,32.507553,-8.722767,764.007507,55.620125,-31.309858,760.003235,81.192223,-50.280567,757.012695,72.448883,34.990604,773.343811,71.523827,68.080124,764.869507,31.176125,59.117813,774.503723,-32.708611,64.949745,790.206909
00097_color_1715718754.149797.png,780,1715718754.1499412,-33.305511,-131.03006,744.827942,199.177536,-130.754044,747.074402,209.07785,-351.277679,746.822205,-27.988344,-361.752228,741.126648,641.324036,558.255005,996.256226,704.442444,587.264587,986.439209,707.359253,538.787048,1012.646179,648.411438,501.948822,1002.057068,619.65564,482.193512,996.974426,586.847046,476.002625,1001.445557,571.503479,537.096924,987.604187,546.511047,532.182068,974.36615,522.480835,521.53009,957.276306,308.188293,937.588623,1497.623169,253.829391,930.16272,1512.360352,202.834961,947.558105,1491.294189,113.263496,9.966895,762.626831,142.282425,1.30804,755.429749,163.421371,-4.884539,750.674133,32.355236,-8.583586,764.233887,55.410217,-30.706545,760.130737,81.125763,-50.038826,757.342651,72.347595,35.130703,773.492065,71.363373,68.551163,765.192139,31.045727,59.284111,774.528137,-32.821335,65.04982,790.244202
00098_color_1715718754.183501.png,783,1715718754.1799412,-33.302704,-131.018646,744.845642,199.172195,-130.72229,747.078186,209.080704,-351.265686,746.822021,-27.98497,-361.727692,741.133423,643.5,544.990173,994.351379,706.971924,572.927551,984.695984,709.041687,524.136475,1010.432739,649.572998,488.428528,999.400818,620.336426,469.393951,994.317383,587.506287,463.630585,998.795532,573.030457,525.005371,985.93811,547.993225,520.7854,972.462097,523.885864,510.446777,955.442688,308.194946,937.598145,1497.635254,253.875046,930.207092,1512.480225,202.836197,947.563538,1491.306519,113.243538,9.944403,762.570557,142.262115,1.335148,755.434509,163.370148,-4.889749,750.693726,32.297817,-8.526251,764.286011,55.480686,-31.076113,760.332764,81.089851,-49.978378,757.495544,72.292763,35.178604,773.509033,71.327446,68.571075,765.203979,31.037189,59.325542,774.527405,-32.840366,65.084709,790.263611
00099_color_1715718754.217622.png,787,1715718754.2199411,-33.205025,-131.139755,744.815613,199.207413,-130.728607,747.089233,209.090256,-351.284698,746.825195,-27.962198,-361.725983,741.129089,646.93811,529.085327,992.579895,710.655945,556.88678,982.869324,712.526855,507.422974,1007.091187,652.617798,472.473877,995.961304,623.334656,453.646973,990.719116,590.530457,447.973328,995.5896,576.321045,509.881256,984.877625,550.969849,506.025024,971.605042,526.244385,496.87973,954.78418,308.197357,937.611511,1497.649292,253.870758,930.212341,1512.47876,202.748932,947.556641,1491.379272,113.29567,9.972366,762.581177,142.350861,1.004877,755.633789,163.3582,-4.568982,750.646545,32.346714,-8.478157,764.347046,55.55254,-31.012541,760.407654,81.209167,-49.859528,757.556519,72.330185,35.249882,773.514099,71.344048,68.649048,765.187195,31.101206,59.366425,774.484802,-32.778614,65.1894,790.232422
00100_color_1715718754.252194.png,790,1715718754.249941,-33.058575,-131.157455,744.820923,199.313263,-130.74942,747.069763,209.204178,-351.257965,746.825195,-27.878025,-361.707886,741.141357,650.275757,519.647217,990.21637,714.169556,547.25531,980.104675,715.999329,497.233124,1003.179077,655.72229,462.879333,992.236023,626.152954,444.423462,987.04126,593.380188,438.770782,992.292908,579.390503,500.951111,983.047546,553.820251,497.384491,970.317688,529.030396,488.250488,953.880859,308.204468,937.600708,1497.642822,253.875458,930.213867,1512.480591,202.863373,947.629333,1491.608032,113.327545,9.944805,762.565063,142.372498,0.920562,755.636719,163.416702,-4.704726,750.615906,32.410404,-8.524226,764.348145,55.594868,-31.043423,760.385376,81.292175,-49.84568,757.495789,72.366241,35.240349,773.519043,71.369987,68.635559,765.183105,31.152088,59.363586,774.487976,-32.724522,65.228043,790.242126
00101_color_1715718754.286076.png,794,1715718754.289941,-31.773098,-131.19838,744.847473,200.634415,-131.053635,747.046326,210.339874,-351.473755,746.794312,-26.898127,-361.668732,741.214233,655.808044,510.71936,983.939514,720.019287,537.548035,973.09198,721.391724,487.021912,995.12262,660.403625,453.829742,984.775513,630.376038,436.077637,979.852783,597.591614,430.759888,985.612244,584.614624,493.388641,978.071106,558.78595,490.316162,965.660034,533.340576,482.364777,949.693115,308.199493,937.612061,1497.637451,253.87999,930.207031,1512.473145,202.860123,947.624817,1491.61853,113.363808,9.905375,762.536194,142.397842,0.791319,755.671692,163.44812,-4.713709,750.582336,32.449802,-8.545113,764.354309,55.627613,-31.055477,760.414368,81.363632,-49.810463,757.535889,72.399094,35.23819,773.518677,71.393867,68.627937,765.138245,31.187113,59.388889,774.480774,-32.675213,65.327934,790.221741
00102_color_1715718754.319983.png,797,1715718754.319941,-30.449514,-131.337723,744.912476,201.972122,-131.062393,747.125427,211.611435,-351.649963,746.849487,-25.486725,-361.741211,741.172546,660.336182,506.284241,976.958679,724.9599,532.239014,965.744202,725.80304,481.30368,986.803406,663.948059,449.215759,976.439209,633.708801,431.930847,971.76593,600.818237,427.226379,977.788574,588.823669,490.06723,971.622314,562.873962,487.771759,959.441406,537.077759,480.217194,943.703247,308.204926,937.614014,1497.648438,253.87648,930.210938,1512.489136,202.855911,947.60321,1491.451904,113.382462,9.920933,762.539734,142.407288,0.777516,755.655945,163.458862,-4.681972,750.576355,32.469021,-8.491548,764.401855,55.68713,-30.997728,760.466492,81.469376,-49.667847,757.592712,72.423668,35.295261,773.536133,71.419388,68.691345,765.14624,31.22303,59.448254,774.488464,-32.656593,65.4608,790.195923
00103_color_1715718754.353480.png,800,1715718754.349941,-28.643951,-131.554916,744.918335,203.717697,-131.240601,747.086548,213.48143,-351.696106,746.845215,-23.742863,-361.955597,741.260864,665.334534,503.48233,968.366699,730.236877,528.278015,956.647217,730.404053,477.020905,976.949036,667.784912,446.420044,967.000061,636.998047,429.872528,962.279724,604.137085,425.682892,968.780396,593.373108,488.82019,963.707275,567.124329,487.271057,952.061279,540.904968,480.813416,936.56427,308.204254,937.606689,1497.631836,253.884918,930.18866,1512.394409,202.866074,947.587952,1491.41626,113.361862,9.934443,762.540283,142.391571,0.784864,755.663757,163.43306,-4.649807,750.562073,32.454082,-8.458355,764.455688,55.695911,-30.930479,760.510376,81.514572,-49.562157,757.691711,72.434738,35.305233,773.52594,71.42131,68.697433,765.11554,31.222101,59.481083,774.483398,-32.646015,65.542206,790.200073
00104_color_1715718754.386781.png,804,1715718754.3899412,-25.839396,-132.013962,744.987915,206.470261,-131.357986,747.158081,216.427597,-351.962036,746.8927,-20.714329,-362.414246,741.349426,672.782166,501.129272,955.328857,737.99939,523.787842,941.848938,736.9823,472.550262,962.003967,673.322205,444.076263,953.385071,641.837219,428.592346,949.340271,609.050964,425.498474,956.642517,600.244385,488.927155,952.372498,573.558838,488.537933,941.455444,546.942627,482.854706,926.346619,308.130951,937.49469,1497.528442,253.878769,930.181702,1512.388428,202.856598,947.566284,1491.367432,113.331261,9.934485,762.533997,142.380554,0.797358,755.684448,163.415924,-4.649143,750.582275,32.416737,-8.38838,764.554138,55.696514,-30.840652,760.637756,81.566193,-49.407341,757.906189,72.426758,35.3326,773.542419,71.415466,68.724503,765.114746,31.206333,59.554749,774.476868,-32.661339,65.667442,790.200317
00105_color_1715718754.421697.png,807,1715718754.4199412,-23.477545,-132.276337,745.026123,208.945953,-131.788574,747.191101,218.90094,-352.24762,746.970459,-18.196886,-362.778656,741.411926,678.535034,499.399872,945.001526,743.761047,521.148376,930.824097,742.332764,469.458862,950.055359,677.894592,442.381622,942.448181,646.026917,427.602783,938.858154,613.344421,425.043091,946.76178,605.786621,488.695557,943.407471,578.966492,488.91571,932.940125,551.809204,484.089386,918.411987,308.127075,937.460938,1497.479736,253.889526,930.173767,1512.376099,202.832855,947.570007,1491.324219,113.319405,9.929791,762.530151,142.377487,0.765178,755.667786,163.401688,-4.640232,750.584473,32.410858,-8.367695,764.57019,55.717251,-30.790979,760.668579,81.586952,-49.342552,757.9599,72.400192,35.314629,773.512024,71.411339,68.7258,765.100525,31.211771,59.576012,774.461304,-32.658241,65.708252,790.184937
00106_color_1715718754.454963.png,811,1715718754.4599411,-18.741339,-132.700333,745.090088,213.582565,-132.368439,747.294189,223.460648,-352.866882,747.019836,-13.750129,-363.302704,741.42981,686.31781,496.363098,930.906921,751.658142,517.119446,915.450256,749.4953,465.115906,933.677612,684.327332,439.577362,927.175537,652.083557,425.464233,924.038879,619.486572,423.618591,932.834473,613.265076,487.509155,931.144409,586.341553,488.507538,921.43811,558.643799,484.570984,907.457336,308.104584,937.427063,1497.441895,253.87883,930.151917,1512.355835,202.835007,947.55249,1491.300537,113.305855,9.89598,762.492371,142.363495,0.784478,755.679077,163.393311,-4.663115,750.592163,32.406021,-8.36411,764.551514,55.743095,-30.780518,760.656494,81.655029,-49.282368,757.96637,72.391182,35.309864,773.521729,71.395226,68.716766,765.099976,31.190527,59.549393,774.48999,-32.668823,65.730888,790.205811
00107_color_1715718754.488208.png,814,1715718754.4899411,-13.185533,-133.269669,745.272522,219.064758,-133.046997,747.495483,228.787613,-353.583984,747.012146,-8.361526,-363.768829,741.516052,692.259705,493.575653,920.437927,757.39978,513.661133,904.065857,754.826355,461.304657,921.447876,689.218811,436.832336,915.86499,656.673279,423.288666,913.126831,624.233276,421.827118,922.588318,619.040222,485.653992,921.843384,591.835449,487.35611,912.77887,563.927979,484.098541,899.205505,308.088196,937.378906,1497.394897,253.862473,930.13385,1512.344604,202.83815,947.538452,1491.297363,113.319916,9.902363,762.503174,142.362701,0.767897,755.657959,163.408386,-4.653742,750.589722,32.404217,-8.353918,764.591309,55.786156,-30.741051,760.703613,81.736542,-49.216694,758.046143,72.403557,35.32597,773.514954,71.424858,68.726898,765.089233,31.187128,59.586395,774.462036,-32.665188,65.760391,790.17157
00108_color_1715718754.521503.png,817,1715718754.519941,-6.827211,-133.762558,745.388794,225.476105,-133.809296,747.567871,234.975311,-354.450867,747.133545,-2.200826,-364.390076,741.592346,697.821716,489.911194,910.364746,762.983215,509.407867,893.118774,760.134338,456.819427,909.777893,693.939392,433.389618,905.058777,661.145813,420.501282,902.854248,628.910889,419.203552,912.822083,624.590881,483.135681,913.087769,597.285095,485.279907,904.437439,569.095276,482.65448,891.349487,308.07486,937.347046,1497.351562,253.860855,930.132935,1512.342773,202.842255,947.529419,1491.293945,113.331177,9.908313,762.526184,142.389389,0.797913,755.660583,163.423141,-4.650083,750.58136,32.434067,-8.333386,764.622986,55.822491,-30.714533,760.751465,81.837585,-49.139984,758.105225,72.42466,35.330906,773.522888,71.432205,68.726448,765.071411,31.211636,59.587383,774.453308,-32.648758,65.81916,790.171509
00109_color_1715718754.554757.png,820,1715718754.549941,0.378864,-134.776337,745.682983,232.549057,-134.646194,747.672119,241.936218,-355.323395,747.243958,4.822251,-365.089386,741.741516,703.353516,485.442566,901.081665,768.40155,504.392975,882.882446,765.132141,451.627472,898.749023,698.638,429.010559,894.897217,665.608887,416.520355,893.214478,633.670776,415.554657,903.633972,630.026611,479.483826,905.037415,602.627441,482.126221,896.938843,574.196716,479.919403,884.257996,308.027649,937.35199,1497.322144,253.878143,930.169678,1512.341919,202.848007,947.532898,1491.299072,113.340919,9.903202,762.508728,142.383759,0.760956,755.668091,163.428558,-4.659057,750.579285,32.438225,-8.323907,764.633484,55.854336,-30.650997,760.821289,81.909935,-49.064911,758.211426,72.436989,35.336533,773.523071,71.430084,68.72683,765.049805,31.185005,59.596458,774.456787,-32.662636,65.845001,790.148315
00110_color_1715718754.588105.png,824,1715718754.589941,11.192303,-135.46907,745.805115,243.407837,-136.168732,747.899109,252.308701,-356.822357,747.384827,15.104446,-366.015106,741.862671,710.614685,477.911835,890.001709,775.424438,496.415894,870.21759,772.029419,443.295258,884.930176,704.899597,421.666656,882.765137,671.725708,409.722565,881.747742,639.985229,408.947968,893.145813,637.438171,472.918793,896.04657,609.767944,476.104279,888.935547,580.969727,474.622192,877.063477,307.309845,937.631409,1496.823608,253.887558,930.178528,1512.35022,202.846237,947.515747,1491.311646,113.345886,9.929582,762.507263,142.386459,0.778138,755.663269,163.432877,-4.665106,750.584473,32.45068,-8.268203,764.734314,55.896278,-30.558613,760.955811,82.022141,-48.949257,758.390259,72.46608,35.387562,773.517029,71.451393,68.76239,765.022644,31.232687,59.699306,774.437744,-32.624619,65.971832,790.118225
00111_color_1715718754.621678.png,827,1715718754.619941,20.395222,-136.261719,745.969666,252.701019,-137.247086,748.119019,261.17276,-357.832031,747.498413,24.038532,-366.839722,742.10968,716.298523,471.340149,882.333069,780.669006,489.375519,860.748108,777.269348,436.240356,874.997925,709.937805,415.215942,874.675171,676.564026,403.544708,874.578186,645.196655,403.028473,887.04071,643.252563,466.826599,890.477478,615.460876,470.430817,884.20813,586.287415,469.327454,873.258545,307.333679,937.661377,1496.836426,253.891861,930.181702,1512.352417,202.84108,947.513977,1491.303223,113.368332,9.885156,762.52655,142.40329,0.74184,755.684082,163.455032,-4.686028,750.580811,32.460281,-8.271734,764.811401,55.94212,-30.507942,761.041382,82.111198,-48.834358,758.550293,72.477448,35.262333,773.404907,71.429413,68.511536,764.774963,31.25865,59.730045,774.467346,-32.607037,66.032249,790.145264
00112_color_1715718754.655130.png,831,1715718754.6599412,34.613674,-137.657394,746.323914,266.88501,-139.008331,748.344116,275.135406,-359.5737,747.681335,37.986526,-368.207275,742.424316,724.101318,460.668335,871.845703,787.721863,478.601166,847.941162,784.444458,425.28006,861.31543,716.862793,404.815125,863.59259,683.422485,393.521454,864.883789,652.562317,393.080688,878.625977,651.439392,456.683167,883.073853,623.405029,460.576843,878.153381,593.699097,460.039215,868.334534,307.291595,937.645935,1496.827759,253.88765,930.182983,1512.360229,202.843628,947.57605,1491.326172,113.375504,9.867481,762.529907,142.424026,0.731504,755.652527,163.462936,-4.704507,750.557678,32.482964,-8.272793,764.816956,55.962334,-30.47151,761.102722,82.162064,-48.791946,758.61084,72.501572,35.39856,773.541626,71.486427,68.763382,765.017578,31.291618,59.707432,774.478882,-32.591366,66.089684,790.140259
00113_color_1715718754.688662.png,834,1715718754.6899412,46.514297,-138.976379,746.582581,278.751556,-140.20578,748.521851,287.014282,-360.850677,747.817139,49.808598,-369.475494,742.757263,729.754272,450.919312,863.459534,792.705017,468.988892,837.94043,789.730042,415.356262,850.451904,721.996887,395.245636,854.503662,688.487976,384.034637,856.513245,658.074341,383.578827,871.22876,657.296936,447.117096,876.683777,629.186157,451.27475,872.582153,599.354004,451.002441,863.663208,307.863312,937.476074,1497.182617,253.896896,930.182495,1512.342651,202.850983,947.569397,1491.317261,113.402176,9.887583,762.527405,142.438232,0.726413,755.643921,163.491852,-4.71418,750.558838,32.505451,-8.252033,764.847412,56.036514,-30.430777,761.154114,82.243622,-48.726532,758.696167,72.548134,35.274006,773.392395,71.473648,68.515633,764.756409,31.322206,59.765598,774.463379,-32.555817,66.157585,790.113586
00114_color_1715718754.722324.png,837,1715718754.7199411,59.168701,-140.502731,746.855713,291.485474,-141.736984,748.5979,299.582428,-362.250061,747.996582,62.393383,-370.963684,742.924194,735.090881,439.525543,854.486084,797.514221,458.082275,827.718567,794.836731,404.082397,839.023193,726.938782,384.096741,844.641907,693.483459,372.894501,847.371094,663.525024,371.98584,862.665222,662.971497,435.614594,869.564087,634.781311,439.946167,866.2724,604.680786,439.920502,858.191101,307.88147,937.476135,1497.195923,253.892654,930.186829,1512.353027,202.852356,947.577576,1491.333008,113.412994,9.860833,762.532532,142.44165,0.733915,755.641663,163.490067,-4.721112,750.578796,32.505577,-8.249221,764.882019,56.075039,-30.397661,761.233459,82.293655,-48.651237,758.828613,72.54599,35.409977,773.55542,71.511116,68.803917,765.006958,31.303226,59.778728,774.47821,-32.581745,66.207588,790.082947
00115_color_1715718754.755939.png,841,1715718754.759941,77.38295,-142.61702,747.309692,309.634491,-143.769852,748.871216,317.912231,-364.227051,748.218323,80.743271,-373.071808,743.268005,742.092102,422.098236,842.281738,803.723022,441.373352,813.649353,801.406128,387.136688,823.325378,733.667725,366.902435,830.904907,700.388916,355.549622,834.572021,670.941162,354.17337,850.954163,670.529663,417.51062,859.809143,642.180664,421.929047,857.73291,611.843872,422.183807,850.634094,307.989807,937.428894,1497.266113,253.899155,930.188721,1512.345703,202.832703,947.606262,1491.290039,113.399055,9.902047,762.53894,142.424454,0.765206,755.652039,163.46991,-4.707683,750.573669,32.480736,-8.171736,764.963074,56.075115,-30.323919,761.329834,82.312851,-48.562145,758.994141,72.549164,35.45742,773.549744,71.50412,68.843399,764.988037,31.277254,59.852558,774.471191,-32.633362,66.337654,789.998352
00116_color_1715718754.790073.png,844,1715718754.789941,91.659439,-144.032181,747.638794,323.904694,-145.301483,749.094666,332.071533,-365.85257,748.292603,94.945511,-374.405975,743.577393,747.826721,407.22879,833.792603,808.35022,427.415314,803.460205,806.548096,373.086609,812.017029,738.665833,352.388092,820.600159,705.67981,341.034332,825.069153,676.598877,339.043701,842.195862,676.500305,402.149811,852.718506,648.168152,406.551575,851.723022,617.564026,407.054535,845.690247,308.042725,937.376648,1497.310303,253.893143,930.18866,1512.3573,202.83551,947.606628,1491.287231,113.432968,9.936112,762.541138,142.424118,0.744742,755.67981,163.464478,-4.687295,750.570557,32.493893,-8.097095,765.059509,56.121616,-30.224464,761.429565,82.389854,-48.422256,759.165771,72.581619,35.562153,773.548767,71.525162,68.925926,764.944885,31.282738,59.978664,774.450806,-32.657692,66.497932,789.911682
00117_color_1715718754.823846.png,847,1715718754.819941,106.22226,-145.399597,747.904053,338.443512,-146.765762,749.235413,346.352753,-367.382263,748.521057,109.144012,-375.678589,743.809326,753.155273,391.444946,825.233032,812.778564,412.482117,793.560608,811.226807,357.961151,800.886841,743.760803,336.858521,811.100342,710.881958,325.356995,816.145508,682.253906,322.90274,833.956116,682.617249,385.658173,846.547119,654.104675,390.016693,846.028564,623.361206,390.610992,840.960754,308.094269,937.35199,1497.357666,253.892151,930.177856,1512.351074,202.83992,947.579102,1491.300903,113.437233,9.927059,762.567078,142.459503,0.734336,755.675232,163.494354,-4.705235,750.555725,32.524052,-8.089761,765.020142,56.164112,-30.203529,761.423096,82.427254,-48.402878,759.129272,72.612289,35.42458,773.40564,71.506813,68.667564,764.690125,31.318367,59.981499,774.440552,-32.641178,66.524307,789.885559
00118_color_1715718754.857875.png,851,1715718754.859941,126.564323,-146.568405,748.292114,358.784088,-149.006378,749.463623,365.642273,-369.61264,748.742065,128.320877,-376.824768,744.174988,759.427002,369.65683,814.631287,817.927063,391.334045,781.751587,816.361145,336.639435,787.723877,749.331421,315.568787,799.385254,716.561401,304.103027,805.320068,688.298157,300.969116,823.698914,689.469849,363.05069,838.205261,661.055176,367.670898,838.717957,630.197998,368.314056,834.575073,308.094269,937.3573,1497.364136,253.889771,930.185486,1512.35498,202.837631,947.572144,1491.304932,113.492195,9.892587,762.572693,142.505478,0.675214,755.656921,163.556839,-4.787978,750.544617,32.562176,-8.098736,765.009827,56.204273,-30.223503,761.403076,82.461304,-48.42062,759.116028,72.69706,35.545643,773.568176,71.620346,68.914062,764.922302,31.346746,59.999599,774.442505,-32.613041,66.590126,789.823669
00119_color_1715718754.892101.png,854,1715718754.8899412,141.682999,-147.418854,748.600525,373.881958,-150.787476,749.453979,380.002319,-371.429321,748.816223,142.63858,-377.704224,744.457031,762.708557,353.450684,807.987366,821.010864,374.680756,774.576721,819.072815,319.916992,780.766174,752.089844,299.393219,792.894226,719.315308,288.253571,799.204468,691.051758,285.39325,817.772644,692.80072,347.238953,831.987671,664.460144,352.146667,832.752014,633.636169,352.859802,828.683228,308.087158,937.351562,1497.358765,253.89325,930.169006,1512.34668,202.83548,947.576599,1491.299438,113.59552,9.819366,762.55481,142.568359,0.609031,755.652771,163.645386,-4.835148,750.528442,32.630127,-8.093015,765.016663,56.25135,-30.233084,761.409546,82.514954,-48.439938,759.11731,72.821091,35.521599,773.542969,71.703781,68.932915,764.90564,31.429861,60.01049,774.413513,-32.583721,66.644615,789.736328
00120_color_1715718754.926194.png,858,1715718754.9299412,161.39653,-148.742599,748.959412,393.598236,-152.902023,749.684326,398.970673,-373.726166,748.967834,161.626221,-379.111267,744.821228,766.309265,331.406036,803.506531,824.838196,351.125763,769.608582,822.556824,296.633606,777.625732,755.24469,277.047028,790.143799,722.263062,266.24292,796.419189,693.966858,264.290131,814.970459,696.279785,327.034637,827.3526,667.80835,331.817932,827.427673,637.054565,332.781708,823.075134,308.085754,937.344177,1497.360596,253.894028,930.176147,1512.353149,202.836456,947.572083,1491.300903,113.653778,9.743329,762.532837,142.631165,0.531086,755.663086,163.732925,-4.885886,750.545715,32.677521,-8.110433,764.995544,56.283371,-30.249899,761.369507,82.532593,-48.463028,759.075195,72.927391,35.493439,773.526184,71.793236,68.868301,764.861084,31.482841,60.036755,774.40686,-32.540379,66.778664,789.656433
00121_color_1715718754.960282.png,861,1715718754.9599411,176.410431,-149.258102,749.226196,408.618439,-154.705658,749.790527,412.824951,-375.549805,748.984436,175.449432,-379.545105,745.111633,768.82312,313.852509,804.091248,827.556152,333.190369,770.193726,825.182312,278.71344,778.859436,757.903503,259.223846,791.282166,724.8573,248.476471,797.572388,696.529724,246.733154,815.949036,698.698547,309.54837,827.591003,670.247559,314.368622,827.595825,639.421326,315.170044,823.124756,308.09494,937.35437,1497.36377,253.896866,930.189026,1512.348633,202.843018,947.565186,1491.325562,113.677841,9.707434,762.492371,142.655685,0.479426,755.674988,163.763168,-4.901681,750.545654,32.67894,-8.124421,764.931885,56.262657,-30.262417,761.358093,82.489449,-48.542095,759.061768,72.97438,35.33102,773.349854,71.751663,68.609703,764.599365,31.489674,60.058327,774.411377,-32.540932,66.912148,789.548157
00122_color_1715718754.994203.png,864,1715718754.9899411,191.215195,-149.7444,749.484863,423.353119,-156.253159,749.883911,426.562408,-377.129944,749.142151,189.057312,-380.090027,745.299561,771.254517,296.522461,807.451599,829.848755,316.024841,773.430237,827.750122,261.463837,782.462952,760.606873,241.725677,795.145569,727.594971,230.817505,801.274658,699.174133,228.954239,819.683105,701.134827,291.590851,831.073242,672.606201,296.521362,830.938293,641.813293,297.122803,826.456299,308.092041,937.35968,1497.36499,253.887711,930.188965,1512.357178,202.836853,947.585938,1491.295288,113.800583,9.695495,762.468933,142.732483,0.441252,755.662292,163.852188,-4.96914,750.525818,32.760628,-7.988948,765.068115,56.29369,-30.168842,761.472473,82.530693,-48.459106,759.232971,73.140244,35.419342,773.334106,71.908707,68.630882,764.486938,31.573811,60.208668,774.379944,-32.495903,67.194847,789.43457
00123_color_1715718755.028396.png,868,1715718755.029941,209.316818,-151.252213,749.817139,441.431732,-158.170792,750.098755,444.233337,-379.045502,749.24762,206.757248,-381.54892,745.59137,774.129211,274.66922,814.138916,832.287109,294.784302,779.524719,831.294067,240.467911,789.078491,764.162415,219.563004,802.346558,731.376526,208.082977,808.816345,702.897095,205.939667,827.12384,704.299377,268.977783,838.259033,675.677307,273.35257,838.348206,644.785828,273.326202,834.092957,308.087891,937.348206,1497.359009,253.895493,930.177246,1512.347534,202.826233,947.607117,1491.279297,113.981895,9.692454,762.466125,142.876328,0.343718,755.660461,164.044342,-4.668883,750.318665,32.922096,-7.889181,765.15564,56.444492,-30.080799,761.533569,82.651184,-48.41465,759.312134,73.374626,35.532669,773.304138,72.087418,68.685722,764.345459,31.740005,60.409245,774.300903,-32.329346,67.536644,789.279297
00124_color_1715718755.062460.png,871,1715718755.059941,221.661026,-152.482849,749.994385,453.794647,-159.341766,750.075989,456.54953,-380.23407,749.377441,219.089645,-382.753082,745.782532,775.544006,259.185944,818.933167,833.208374,280.527252,783.892456,833.331482,226.238586,793.328979,766.516174,203.981445,807.096924,733.844116,191.870895,813.671082,705.431824,189.081192,832.039673,706.143677,252.539429,843.721802,677.304993,256.170105,843.995667,646.429688,255.56398,840.086609,308.089233,937.35614,1497.363159,253.886169,930.184143,1512.357056,202.832489,947.604553,1491.304443,114.149963,9.800557,762.489685,143.076767,0.235031,755.840454,164.140671,-5.070251,750.516357,33.072681,-7.636221,765.401428,56.609707,-29.836758,761.839417,82.764206,-48.188892,759.733948,73.574745,35.714684,773.224304,72.255928,68.877892,764.194458,31.876764,60.720257,774.19458,-32.174137,67.975166,789.17688
00125_color_1715718755.096812.png,875,1715718755.099941,237.190109,-153.342316,750.242432,469.356567,-160.823959,750.085938,471.54422,-381.684326,749.487427,234.030228,-383.569489,745.959534,775.869995,240.510681,823.571899,832.812866,263.80304,788.209595,834.491333,209.743408,797.187744,768.159119,185.32724,810.847534,735.845825,171.954803,817.186401,707.430725,167.943985,835.503357,706.858521,231.949707,848.566101,677.862488,234.408005,849.183777,646.961975,232.878021,845.508972,308.099792,937.358948,1497.376343,253.88768,930.18689,1512.357788,202.823318,947.603882,1491.279541,114.380455,9.776766,762.44635,143.253189,0.178553,755.8125,164.339417,-5.141012,750.507263,33.314579,-7.39626,765.653809,56.822655,-29.591515,762.234802,82.980476,-47.944855,760.21936,73.833382,35.833206,773.105225,72.59623,68.932915,763.958679,32.080685,60.990833,774.104675,-31.997803,68.349182,789.111145
00126_color_1715718755.130513.png,878,1715718755.1299412,248.104248,-153.764633,750.460815,480.162445,-161.861069,750.139282,481.804749,-382.787628,749.598083,244.292068,-384.091034,746.189148,774.925903,228.245026,825.714417,831.494568,253.558075,790.690308,834.070374,198.837921,798.198975,768.398071,173.062119,812.076294,736.451294,158.853271,818.334473,708.155579,153.871292,836.544434,706.272949,218.12265,850.915588,677.085205,219.31662,851.463318,646.294373,217.185318,847.692261,308.093903,937.343323,1497.365112,253.888702,930.185425,1512.351929,202.846725,947.558105,1491.343384,114.453934,9.631851,762.311584,143.319519,0.034365,755.728577,164.420288,-5.250128,750.500244,33.367065,-7.456627,765.560486,56.812199,-29.69861,762.038513,82.91494,-48.140774,760.020996,73.932014,35.709923,773.006897,72.549644,68.918289,763.907776,32.189217,60.91991,774.065552,-31.926115,68.402138,789.047913
00127_color_1715718755.164416.png,881,1715718755.1599412,258.163116,-154.268417,750.569702,490.259277,-162.91275,750.05426,491.242249,-383.863495,749.611389,253.715103,-384.478058,746.269348,773.229614,217.461121,827.235291,829.234375,244.392532,792.611267,832.967163,189.665298,798.888977,767.634888,162.466217,812.615234,736.213623,147.604385,818.487854,707.745544,141.110855,836.417419,704.876221,205.403458,852.357422,675.649597,206.021362,853.02124,644.845093,203.149292,849.174561,308.092102,937.346436,1497.356934,253.897186,930.180908,1512.349731,202.851334,947.564026,1491.334595,114.427582,9.6751,762.267578,143.287262,0.054945,755.699341,164.408188,-4.911682,750.272644,33.363091,-7.370417,765.6203,56.790066,-29.610802,762.084229,82.879471,-48.090538,760.044617,73.936096,35.75602,772.921082,72.573242,68.985489,763.852783,32.228588,61.098202,773.986816,-31.912725,68.750015,788.952942
00128_color_1715718755.198250.png,885,1715718755.1999412,270.332336,-154.541946,750.762878,502.33609,-164.533401,750.143738,502.115234,-385.424194,749.691772,264.63092,-384.749573,746.378418,770.261963,204.749741,829.349915,825.929321,233.853287,795.216919,830.793701,178.958084,800.302429,765.640442,150.034317,813.441956,734.072632,133.509308,817.926208,706.042175,125.983414,835.424011,701.570984,189.61142,853.521729,672.718689,189.445557,854.572815,642.040283,185.972763,850.236267,308.093719,937.34845,1497.366455,253.896835,930.17804,1512.358032,202.838867,947.578369,1491.293945,114.45816,9.761705,762.265381,143.311752,0.105711,755.712708,164.416962,-4.890512,750.260559,33.462868,-7.13799,765.82135,56.844475,-29.377466,762.354431,82.931976,-47.834949,760.360962,73.986214,35.95612,772.860596,72.778725,69.059723,763.725525,32.30909,61.397789,773.903198,-31.836771,69.321678,788.868408
00129_color_1715718755.232197.png,888,1715718755.2299411,278.292328,-154.589996,750.882507,510.280365,-165.605087,750.168213,509.01944,-386.593353,749.665527,271.570404,-384.831482,746.543884,767.887939,196.15567,831.505005,823.403137,226.646957,797.811279,829.121033,171.726135,801.98175,763.959595,141.449707,814.782593,732.53595,124.64315,818.263306,704.541138,116.096802,835.258972,699.250549,179.523453,855.226562,670.501953,179.116379,856.342651,639.809082,175.507446,851.601746,308.090179,937.351562,1497.369751,253.886642,930.180725,1512.357544,202.84259,947.577332,1491.319458,114.514259,9.828318,762.289185,143.359177,0.122161,755.721436,164.460022,-5.21139,750.484558,33.585453,-6.985456,765.955322,56.91061,-29.27837,762.457336,82.980217,-47.711636,760.494751,74.064651,36.040173,772.833069,72.716896,69.264923,763.70166,32.40295,61.627956,773.847961,-31.74815,69.656204,788.804382
00130_color_1715718755.265751.png,892,1715718755.269941,286.746216,-154.955078,751.015503,518.702942,-166.760971,750.067017,516.689148,-387.643127,749.741089,279.191803,-385.148376,746.667236,765.629089,186.017776,835.446594,820.710449,218.017899,801.989807,827.414673,163.204071,805.400452,762.389038,131.775085,817.534668,731.249084,114.189003,820.660278,703.352173,104.579697,837.214478,697.298157,168.058746,858.861206,668.564636,167.430115,860.041443,637.963623,162.982239,855.290344,308.096436,937.360779,1497.374268,253.888214,930.183594,1512.349365,202.832489,947.586548,1491.311279,114.555908,9.81275,762.284485,143.384262,0.092931,755.70929,164.494034,-4.943924,750.278503,33.656532,-6.903732,766.021423,56.979156,-29.219141,762.508057,83.036987,-47.644115,760.50708,74.140991,36.11779,772.80957,72.948936,69.22113,763.616455,32.51384,61.741837,773.832397,-31.662199,69.881569,788.746277
00131_color_1715718755.299736.png,895,1715718755.299941,291.347778,-155.154007,751.088318,523.323853,-167.402237,750.071655,520.97998,-388.203857,749.74353,283.568024,-385.400391,746.693115,764.812134,179.360596,838.919434,819.370667,212.203476,805.457275,826.790283,157.471451,808.272278,762.068237,125.289886,820.512573,731.117554,107.046478,823.524048,703.425354,97.066483,840.084473,696.776001,160.358124,862.522644,668.129089,159.555511,863.714905,637.573547,154.735947,859.082703,308.091858,937.352295,1497.375732,253.890778,930.179993,1512.357544,202.834671,947.57312,1491.307983,114.585777,9.799098,762.27002,143.453415,-0.199538,755.975403,164.517609,-4.972734,750.234741,33.69479,-6.91046,766.026184,57.010929,-29.221336,762.462097,83.090538,-47.653625,760.416077,74.178955,36.113079,772.762695,72.97197,69.219231,763.570068,32.5467,61.807861,773.787476,-31.661562,69.980545,788.701599
00132_color_1715718755.333677.png,898,1715718755.329941,294.628967,-155.319138,751.151245,526.614075,-167.752518,750.085449,523.984558,-388.617218,749.72644,286.592926,-385.540802,746.690735,764.708069,173.183182,842.569275,818.698425,206.902161,808.897949,826.56427,152.287766,811.258667,762.285828,119.262665,823.58667,731.357544,100.762848,826.440674,703.704773,90.134361,842.895752,696.893311,153.61087,866.304626,668.187073,152.175674,867.565613,637.702393,147.38295,863.232849,308.093231,937.345398,1497.372192,253.88324,930.179504,1512.350098,202.854477,947.557312,1491.335571,114.647408,9.806464,762.264099,143.51088,-0.270147,755.97406,164.566727,-5.041101,750.250916,33.76273,-6.886538,766.031067,57.097946,-29.191181,762.464905,83.161354,-47.63673,760.381165,74.257339,36.154861,772.761414,73.051918,69.275566,763.550781,32.601177,61.893501,773.772766,-31.598349,70.1036,788.65979
00133_color_1715718755.367807.png,902,1715718755.369941,297.21347,-155.425003,751.162109,529.077209,-167.923996,750.105591,526.396301,-388.785187,749.726135,288.903412,-385.574921,746.738098,764.838623,166.517502,846.301941,818.173584,200.885117,812.515137,826.559814,146.323029,814.509094,762.658508,112.589859,827.202087,731.931458,93.787453,830.179321,704.517029,82.920311,846.782593,697.417908,146.126511,870.639709,668.698792,144.443512,871.998474,638.259521,139.399643,867.912231,308.097534,937.341858,1497.366089,253.88092,930.17218,1512.34375,202.83844,947.565063,1491.298096,114.750641,9.734818,762.223267,143.606735,-0.350618,755.968262,164.669861,-5.127949,750.253235,33.83643,-6.872445,766.042297,57.176403,-29.196012,762.450073,83.237267,-47.631775,760.351013,74.394913,36.146526,772.750793,72.985855,69.426315,763.573975,32.719227,61.930241,773.75647,-31.495974,70.201347,788.610535
00134_color_1715718755.401769.png,905,1715718755.3999412,297.851929,-155.447433,751.154968,529.812561,-167.924622,750.071655,527.056335,-388.882263,749.707886,289.651947,-385.673157,746.712891,764.749146,162.148605,848.39209,817.911804,196.945511,814.474304,826.657898,142.488937,816.295532,762.868103,108.219986,829.034119,732.473022,89.419189,832.140015,704.924683,78.203117,848.644348,697.615479,141.352768,872.681946,668.866333,139.558167,874.019287,638.450134,134.395599,870.075806,308.090973,937.345947,1497.360962,253.881775,930.170898,1512.348145,202.835617,947.571472,1491.314087,114.796104,9.703691,762.223511,143.623245,-0.202006,755.756409,164.707596,-5.201761,750.27478,33.892933,-6.835623,766.071655,57.205891,-29.194311,762.493347,83.251198,-47.6408,760.400269,74.451553,36.161392,772.733948,73.048134,69.435936,763.544067,32.792946,61.957287,773.757812,-31.442787,70.32415,788.600342
00135_color_1715718755.435719.png,909,1715718755.4399412,297.894989,-155.448883,751.163452,529.888611,-167.928772,750.055481,527.123108,-388.864227,749.71814,289.716583,-385.683533,746.711121,764.899902,156.915344,849.916321,817.87616,192.146591,816.12854,826.890442,137.653168,817.574585,763.273743,103.206726,830.299866,732.893188,83.91198,833.009155,705.570374,72.42086,849.527039,697.764832,135.54248,874.142151,669.09082,133.717621,875.307861,638.711975,128.229279,871.299561,308.091553,937.348022,1497.362305,253.887985,930.175476,1512.349365,202.84404,947.573669,1491.311768,114.874161,9.644323,762.192139,143.69429,-0.315987,755.716431,164.780762,-5.236056,750.193909,33.948315,-6.843112,766.076355,57.256531,-29.213985,762.48877,83.281189,-47.678242,760.386841,74.585602,36.132404,772.682251,73.185112,69.378433,763.519287,32.9058,61.969376,773.775574,-31.361576,70.42598,788.591248
00136_color_1715718755.469685.png,912,1715718755.4699411,297.87796,-155.422455,751.186462,529.852539,-167.92775,750.089783,527.088257,-388.867218,749.749573,289.688843,-385.67215,746.728699,765.31488,153.187576,850.31842,818.274109,188.696884,816.692932,827.430969,134.240326,818.002441,763.820374,99.526512,830.5896,733.528687,80.22644,833.389221,706.193848,68.432594,849.63501,698.128052,131.468597,874.39093,669.559082,129.78212,875.555725,639.118286,124.135445,871.572449,308.090637,937.348267,1497.363647,253.890991,930.180176,1512.357056,202.844452,947.57666,1491.342651,114.878967,9.620623,762.190613,143.712753,-0.336769,755.736206,164.786133,-5.21721,750.18457,33.941391,-6.842308,766.077332,57.240414,-29.2145,762.507996,83.269333,-47.693295,760.417603,74.592079,36.116032,772.697021,73.255379,69.325356,763.491699,32.901169,61.952675,773.794617,-31.366102,70.458176,788.607666
00137_color_1715718755.503712.png,915,1715718755.499941,297.817871,-155.460663,751.184204,529.78125,-167.919647,750.098328,527.016602,-388.858459,749.764648,289.616699,-385.687195,746.730957,766.113892,149.775986,850.230103,819.103394,185.321548,816.567139,828.412964,130.858261,818.020142,764.842651,96.225578,830.490662,734.508057,76.580765,833.528198,707.258972,64.909897,849.784607,699.121399,127.915398,874.257263,670.465393,126.109718,875.571777,640.076843,120.613297,871.512085,308.09906,937.353027,1497.373047,253.882614,930.184204,1512.357056,202.855515,947.5578,1491.346924,114.864502,9.629181,762.18396,143.67981,-0.3067,755.730591,164.774673,-5.163927,750.157959,33.915699,-6.83998,766.089905,57.234684,-29.20882,762.537964,83.246849,-47.656139,760.478882,74.562126,36.220364,772.825867,73.240822,69.548019,763.664856,32.88216,61.961807,773.792847,-31.404057,70.429901,788.596558
00138_color_1715718755.537776.png,919,1715718755.539941,297.317505,-155.423569,751.18988,529.210876,-167.866699,750.125549,526.554504,-388.763855,749.769836,289.078003,-385.600494,746.761536,767.578979,145.44841,849.710632,820.587463,181.047302,815.863525,830.039124,126.577866,817.581482,766.460388,91.749222,830.167419,736.234009,72.155861,833.17157,708.922058,60.437862,849.326843,700.626587,123.763542,873.57666,671.891968,121.966957,874.754028,641.512024,116.108917,870.607727,308.092804,937.346619,1497.378174,253.890366,930.184448,1512.35498,202.848999,947.563416,1491.345703,114.786331,9.725062,762.210815,143.614563,-0.214937,755.78418,164.694778,-5.229537,750.328735,33.823589,-6.751427,766.147705,57.181259,-29.05715,762.676636,83.203445,-47.447544,760.716003,74.488914,36.232151,772.708984,73.213768,69.420586,763.484558,32.791893,62.097805,773.749512,-31.457439,70.522766,788.580017
00139_color_1715718755.571747.png,922,1715718755.569941,296.680115,-155.419769,751.160095,528.573486,-167.874863,750.155945,525.973633,-388.724976,749.778931,288.459045,-385.467896,746.82782,768.725403,142.496857,848.701721,821.763672,178.017685,814.927979,831.368896,123.615463,816.80835,767.758972,88.778511,829.374939,737.402649,69.076996,832.157043,710.079224,57.323975,848.317627,701.68988,120.635429,872.456238,672.959717,118.831757,873.58728,642.586975,112.880997,869.25,308.098206,937.338257,1497.363647,253.887115,930.185791,1512.361572,202.84642,947.571594,1491.312622,114.695755,9.879685,762.291504,143.486618,-0.04853,755.819397,164.567444,-5.117821,750.316345,33.732468,-6.595651,766.298462,57.160999,-28.843277,762.915039,83.211494,-47.145584,761.018188,74.397942,36.459827,772.733887,73.076477,69.676064,763.473816,32.715481,62.347019,773.706238,-31.500984,70.7565,788.550049
00140_color_1715718755.605723.png,926,1715718755.609941,295.658875,-155.230927,751.132751,527.600647,-167.830612,750.170654,524.954712,-388.653412,749.741882,287.484863,-385.341187,746.827637,770.05365,139.006851,847.167175,823.251099,174.645096,813.36377,832.862366,120.353012,815.483704,769.352783,85.152122,827.880676,739.078491,65.526772,830.56842,711.573425,53.791992,846.510986,702.875427,117.130501,870.461365,674.225891,115.244041,871.546631,643.812683,109.285324,866.979248,308.091492,937.345215,1497.368408,253.888733,930.188965,1512.360596,202.8517,947.565063,1491.357422,114.559731,10.137998,762.419373,143.361282,-0.034507,756.094482,164.37796,-4.962906,750.312073,33.594688,-6.310199,766.54718,57.116478,-28.482637,763.267029,83.248489,-46.70594,761.429993,74.253532,36.802723,772.807373,73.17305,69.893402,763.43457,32.553951,62.82679,773.585205,-31.576801,71.170494,788.532776
00141_color_1715718755.639699.png,929,1715718755.6399412,294.468781,-154.979645,751.178711,526.411804,-167.657181,750.110229,523.596497,-388.540802,749.781494,286.158142,-385.214752,746.721924,770.800049,137.073196,845.673035,824.038391,172.68721,811.995972,833.753662,118.336525,814.233826,770.191589,83.26152,826.672974,739.730591,63.483902,829.130859,712.182617,51.643768,844.839294,703.552185,115.171654,868.873413,674.789612,113.305542,869.783081,644.427979,107.215294,865.085693,308.094208,937.362122,1497.375854,253.88443,930.197754,1512.360107,202.847214,947.56958,1491.319092,114.562042,10.283957,762.504028,143.36525,0.069803,756.144592,164.331238,-5.264972,750.522888,33.619793,-6.112242,766.727966,57.190979,-28.216627,763.569336,83.347725,-46.407188,761.779602,74.274765,37.038116,772.849976,73.253166,70.153931,763.416565,32.551128,63.079945,773.562744,-31.5376,71.41288,788.514648
00142_color_1715718755.673750.png,932,1715718755.6699412,292.690033,-154.815933,751.088135,524.604126,-167.453766,750.122375,521.813904,-388.301178,749.72522,284.326447,-384.895721,746.76593,771.136658,135.649673,844.219238,824.614624,171.080627,810.488831,834.316467,116.75106,812.988831,770.495667,81.765137,825.27832,740.073792,62.074318,827.615417,712.402893,50.261887,843.365479,703.775269,113.85125,867.256348,675.097229,112.00441,868.109375,644.733765,105.957695,863.263489,308.089874,937.343506,1497.362183,253.891296,930.191101,1512.355591,202.845688,947.57251,1491.347778,114.666679,10.384497,762.569092,143.447861,0.11824,756.199036,164.405746,-5.219337,750.509888,33.742523,-6.003702,766.82135,57.356174,-28.146717,763.660095,83.574844,-46.221775,761.901428,74.365089,37.189995,772.887756,73.148933,70.417603,763.454895,32.603275,63.182674,773.522095,-31.461153,71.407074,788.529114
00143_color_1715718755.712062.png,936,1715718755.7099411,289.129211,-154.549133,751.021179,521.048401,-167.017548,750.098633,518.357788,-387.880341,749.774597,280.91629,-384.598999,746.703796,771.212341,134.351715,842.431763,824.895386,169.559662,808.477112,834.479492,115.235809,811.377197,770.556152,80.366051,823.784058,740.070984,60.752182,826.24176,712.320312,49.06982,841.816467,703.723938,112.919258,865.265381,675.161499,111.148956,866.0849,644.65686,105.007362,861.084595,308.096344,937.360596,1497.37561,253.887558,930.189087,1512.368408,202.841156,947.571411,1491.354004,114.752396,10.386085,762.594666,143.565384,0.345983,756.078552,164.471619,-4.934507,750.266052,33.84066,-6.074409,766.73877,57.4618,-28.218184,763.579895,83.695198,-46.273884,761.842163,74.418648,37.172939,772.902161,73.158836,70.364609,763.456238,32.624012,63.062138,773.53833,-31.456985,71.094093,788.556946
00144_color_1715718755.746486.png,940,1715718755.749941,283.239075,-154.004883,750.952393,515.201538,-166.377029,750.122009,512.597656,-387.279114,749.687988,275.084717,-384.153717,746.644531,770.981079,133.67746,840.684448,824.725708,168.256317,806.382446,834.298218,114.015335,810.018555,770.095703,79.371727,822.776611,739.672913,59.8536,825.387268,711.778442,48.435104,841.074341,703.254333,112.675507,863.715759,674.717041,110.926399,864.462158,644.283997,104.921661,859.383423,308.096313,937.359375,1497.380737,253.885269,930.195801,1512.360474,202.834824,947.578674,1491.34436,114.868324,10.454935,762.629211,143.616119,0.132995,756.246216,164.557877,-5.221332,750.48645,33.913288,-6.040951,766.760925,57.623631,-28.142857,763.659363,83.869934,-46.142094,761.976746,74.498428,37.259129,772.954285,73.212166,70.485794,763.478149,32.643867,63.078171,773.517456,-31.462479,70.937187,788.59137
00145_color_1715718755.780477.png,943,1715718755.779941,277.192902,-153.431091,750.874695,509.088928,-165.679382,750.112366,506.633392,-386.604797,749.652954,269.163818,-383.557007,746.562988,770.502197,133.082306,839.568298,824.450989,167.38266,805.126465,833.828247,113.021553,809.015198,769.625122,78.724442,822.078369,738.7724,58.869347,824.467834,711.106995,48.16275,840.492737,702.681824,112.398872,862.571167,674.119751,110.625565,863.354309,643.706116,104.733696,858.209412,308.090973,937.348938,1497.376587,253.892654,930.190674,1512.360229,202.845734,947.560181,1491.328247,114.906471,10.452744,762.633301,143.61586,0.12154,756.213379,164.565872,-5.255352,750.47052,33.906338,-6.019481,766.757874,57.670734,-28.114325,763.71814,83.936188,-46.088345,762.081665,74.558884,37.112907,772.83252,73.444092,70.486122,763.535828,32.660919,63.067272,773.504578,-31.444136,70.850517,788.620361
00146_color_1715718755.814664.png,946,1715718755.809941,269.571655,-152.635437,750.77301,501.566589,-164.832977,750.112549,499.227142,-385.741089,749.653015,261.727234,-382.846558,746.396667,769.844727,132.474777,838.637817,823.976501,166.518433,803.943542,833.270081,112.160789,808.314392,768.801819,78.038177,821.461182,738.160706,58.505894,823.999268,710.253357,47.733284,839.913208,701.936768,112.193069,861.678711,673.41156,110.518433,862.374329,642.957825,104.619522,857.18988,308.095093,937.345703,1497.364746,253.896393,930.185059,1512.353516,202.848969,947.565247,1491.329834,114.827972,10.44214,762.589355,143.58934,0.127622,756.197144,164.526077,-5.237463,750.484497,33.849884,-5.97638,766.758789,57.596603,-28.038874,763.771667,83.84465,-46.039936,762.228455,74.457649,37.234646,772.927917,73.366692,70.340515,763.417786,32.631893,63.051136,773.474731,-31.44705,70.880814,788.619751
00147_color_1715718755.848972.png,950,1715718755.849941,257.303223,-151.38739,750.541565,489.265411,-163.373413,750.07959,487.065552,-384.243317,749.609619,249.616592,-381.558563,746.244934,768.752747,132.194153,837.67572,823.274597,165.717651,802.662781,832.492615,111.382622,807.694458,767.656372,77.129471,821.30304,737.026428,58.134689,823.782654,709.048645,47.51894,839.71405,700.810791,112.210556,860.644775,672.29657,110.473083,861.223022,641.835876,104.695755,855.924011,308.093292,937.345947,1497.367432,253.892395,930.187683,1512.353882,202.843597,947.579529,1491.326782,114.819557,10.475214,762.597412,143.606812,0.415759,756.083008,164.500595,-5.226473,750.48999,33.798958,-5.848228,766.878235,57.576427,-27.848215,764.035461,83.854897,-45.803734,762.639465,74.451675,37.330971,772.928162,73.223267,70.544044,763.444336,32.624306,63.177429,773.436646,-31.411953,71.096985,788.598755
00148_color_1715718755.882699.png,953,1715718755.8799412,245.932343,-150.257004,750.390015,477.93631,-161.92868,750.149292,476.030365,-382.847107,749.550659,238.542572,-380.476562,746.212097,767.840027,131.926132,837.08667,822.497314,165.0896,801.764404,831.658142,110.81234,807.240234,766.714294,76.827072,821.09198,736.092285,57.753471,823.441101,707.955688,47.347626,839.4104,699.753784,112.162621,859.828918,670.825989,110.039925,860.135559,640.704956,104.733131,855.10675,308.095978,937.357056,1497.369263,253.895523,930.196472,1512.353149,202.845367,947.572815,1491.333862,114.797829,10.486305,762.599854,143.583847,0.464865,756.047668,164.495605,-4.897748,750.310974,33.757378,-5.819069,766.886719,57.535988,-27.828485,764.029907,83.814827,-45.77673,762.699463,74.437424,37.298691,772.901306,73.377357,70.431816,763.39624,32.621971,63.188156,773.436279,-31.373297,71.170967,788.606018
00149_color_1715718755.916689.png,957,1715718755.9199412,228.345459,-149.199982,750.097534,460.41803,-159.841003,750.047974,459.520111,-380.801788,749.361816,222.039993,-379.34201,745.872192,766.102051,131.749283,836.199829,821.027527,164.799759,800.930359,830.128723,110.558014,806.667969,765.079651,76.635246,820.772034,734.482056,57.387173,822.956482,706.293335,47.160198,838.999756,697.950684,112.187355,858.910034,669.045776,110.07972,859.175049,638.987427,104.674225,854.092346,308.10321,937.364807,1497.369751,253.897614,930.195618,1512.351318,202.844315,947.585083,1491.321045,114.782616,10.454967,762.613464,143.589996,0.410407,756.094971,164.478165,-4.893638,750.288513,33.737709,-5.822939,766.881226,57.492714,-27.825428,764.075012,83.786606,-45.774292,762.825439,74.438919,37.287746,772.905884,73.370567,70.403679,763.394897,32.629433,63.199818,773.428162,-31.348467,71.217728,788.620789
00150_color_1715718755.950321.png,960,1715718755.9499412,213.454849,-148.371689,749.894714,445.519745,-157.965805,750.049133,445.669647,-378.948883,749.280212,208.16925,-378.645386,745.643005,764.426025,131.902542,835.605957,819.434998,164.819748,800.287903,828.538818,110.432625,806.202576,763.559326,76.774498,820.388245,732.758789,57.721748,822.652588,704.605774,47.468292,838.708618,696.231995,112.480148,858.220093,667.325195,110.399551,858.505493,637.186768,104.991158,853.285339,308.093994,937.36084,1497.377808,253.889175,930.196167,1512.358643,202.861389,947.565369,1491.351074,114.777046,10.381164,762.599915,143.568466,0.367317,756.078979,164.488663,-5.240166,750.531006,33.71981,-5.889333,766.838989,57.471352,-27.898664,764.092529,83.775185,-45.801086,762.917236,74.405739,37.203167,772.908447,73.353134,70.321365,763.425049,32.649002,63.092953,773.447571,-31.340651,71.138466,788.663513
00151_color_1715718755.984353.png,963,1715718755.9799411,197.031693,-147.802567,749.622864,429.153992,-156.253738,749.896667,430.544983,-377.10376,749.167847,193.033463,-377.975525,745.44165,762.411316,132.366104,835.085449,817.748718,165.087143,799.762817,826.748962,110.7994,806.058777,761.549438,77.032745,820.126282,730.808838,58.014503,822.531921,702.608765,47.9175,838.511108,694.114746,113.133995,857.630249,665.212219,111.033989,857.712219,635.178711,105.622696,852.483337,308.088684,937.351624,1497.375977,253.893204,930.190735,1512.357422,202.841919,947.567261,1491.347656,114.733856,10.358557,762.582092,143.487793,0.078119,756.208008,164.445953,-5.25208,750.547241,33.63319,-5.841261,766.845886,57.381176,-27.880527,764.110229,83.683266,-45.751881,763.066162,74.363434,37.178383,772.894958,73.311089,70.325653,763.450256,32.616581,63.098198,773.435852,-31.337465,71.176857,788.678467
00152_color_1715718756.018352.png,967,1715718756.019941,173.820175,-146.995178,749.184143,405.98761,-153.575226,749.777893,409.172668,-374.498932,748.945312,171.685577,-377.31955,745.021301,759.332703,133.503006,834.654968,814.965942,165.792175,799.13446,823.872559,111.490067,805.863464,758.428711,78.08757,820.11676,727.63678,59.10363,822.613403,699.353821,49.234043,838.498535,690.889343,114.555443,856.950745,661.933777,112.529045,856.814575,631.891235,107.001915,851.478027,308.09433,937.347778,1497.36792,253.892746,930.18811,1512.355347,202.859268,947.566833,1491.34021,114.708794,10.38268,762.609802,143.452103,0.120183,756.218506,164.413513,-5.249693,750.550293,33.595837,-5.783802,766.946167,57.446941,-27.743668,764.2948,83.781975,-45.494736,763.398987,74.345428,37.202282,772.917725,73.327805,70.316162,763.413757,32.599537,63.133389,773.454468,-31.327631,71.271667,788.700439
00153_color_1715718756.052764.png,970,1715718756.049941,156.079803,-146.324585,748.856018,388.243896,-151.743332,749.669067,392.527344,-372.59137,748.891235,155.054703,-376.761383,744.758057,756.716797,134.393188,834.291321,812.640747,166.231613,798.600037,821.43042,112.068016,805.815369,755.689636,78.857903,820.092041,724.875244,59.99575,822.575623,696.369202,50.290714,838.340637,688.078125,115.780556,856.381592,659.267151,114.193275,856.100891,629.180115,108.420074,850.651794,308.102448,937.358459,1497.379272,253.894501,930.189392,1512.354614,202.856384,947.553955,1491.353638,114.666779,10.301297,762.592712,143.426636,0.069197,756.18811,164.391327,-4.924608,750.313354,33.527336,-5.825848,766.923218,57.383099,-27.77503,764.298523,83.725677,-45.514008,763.459656,74.304695,37.122089,772.903381,73.298431,70.243286,763.436218,32.588428,63.063011,773.471802,-31.333693,71.23539,788.745422
00154_color_1715718756.086481.png,974,1715718756.089941,131.872925,-146.007523,748.408752,364.046753,-149.580704,749.518433,370.145477,-370.332428,748.735168,132.704346,-376.308655,744.230347,752.816345,135.280518,833.745605,809.204651,166.711655,797.939941,817.835449,112.52224,805.707642,751.42627,79.6353,819.753723,720.603638,60.826569,821.810242,691.848999,50.988331,836.953308,683.919922,117.053329,855.418884,655.040955,115.445457,854.776001,625.036438,109.735672,849.11908,308.10199,937.369507,1497.373901,253.898499,930.179016,1512.352051,202.841553,947.570251,1491.319214,114.560204,10.359458,762.612488,143.304749,0.074081,756.194458,164.283691,-5.224636,750.545532,33.430691,-5.749473,767.017517,57.389137,-27.649261,764.426208,83.741577,-45.259079,763.706299,74.199516,37.175156,772.943604,73.214462,70.312431,763.46582,32.547421,63.122646,773.497864,-31.355659,71.405258,788.780518
00155_color_1715718756.120266.png,977,1715718756.119941,113.807182,-146.093704,748.031311,346.04364,-148.154343,749.244873,353.443176,-368.970947,748.510742,116.094475,-376.35376,743.986816,749.699829,135.649551,833.469788,806.454163,166.824249,797.456665,814.870483,112.688225,805.586365,747.487671,79.93718,818.824097,716.220032,61.215267,819.188538,686.991943,50.753159,833.237427,680.753479,117.907982,854.765442,651.739746,116.125008,854.081238,621.761902,110.972572,848.257568,308.10318,937.35675,1497.363037,253.898621,930.17041,1512.364502,202.854858,947.568542,1491.334229,114.391083,10.429393,762.652527,143.104752,0.315442,756.013245,164.135254,-4.868612,750.345886,33.267113,-5.582805,767.151794,57.346352,-27.392193,764.744873,83.742355,-44.822777,764.268677,74.039536,37.219536,772.943054,73.156059,70.321205,763.447632,32.439903,63.269848,773.531616,-31.425976,71.508179,788.819641
00156_color_1715718756.154434.png,980,1715718756.1499412,96.619377,-145.726852,747.752808,328.859558,-146.982712,749.105713,337.013153,-367.837097,748.319336,99.657761,-376.018494,743.673279,746.509949,135.672958,833.113281,803.532776,166.817444,797.187683,811.751038,112.65065,805.422668,743.679077,79.797142,817.841248,712.224304,61.551331,817.500122,682.710449,51.028557,830.707031,677.366089,118.479691,853.946228,648.601562,116.995377,853.44989,618.41272,111.721489,847.135315,308.098755,937.36377,1497.374634,253.888733,930.177917,1512.351318,202.851791,947.557373,1491.339355,114.176949,10.478543,762.672668,142.899841,0.264283,756.091736,163.873123,-5.216852,750.554749,33.032604,-5.405183,767.333191,57.230537,-27.069258,765.201477,83.678246,-44.359009,765.01532,73.853027,37.284981,772.981079,73.005157,70.396629,763.482483,32.29097,63.408756,773.540222,-31.543993,71.643791,788.851624
00157_color_1715718756.188670.png,984,1715718756.1899412,74.768425,-144.710785,747.352295,306.934143,-145.864685,748.825562,315.288605,-366.717072,748.109009,77.909218,-375.029022,743.136841,742.278503,136.266678,832.6073,799.570129,166.981857,796.57959,807.66864,112.861534,805.384583,739.362915,80.458572,817.651306,707.661133,62.031071,817.053528,677.917053,51.744011,829.990417,673.033936,119.431755,853.261292,644.023682,117.79763,852.300171,614.071106,112.642082,846.118958,308.09671,937.366638,1497.371826,253.883118,930.187195,1512.347778,202.836258,947.562378,1491.31543,113.885727,10.660802,762.745544,142.625916,0.484641,756.066833,163.520294,-5.197461,750.581787,32.776543,-4.969984,767.735107,57.103031,-26.358185,766.099731,83.741432,-43.512562,766.335022,73.601814,37.45948,773.063477,72.637718,70.72908,763.576416,32.120708,63.724228,773.537048,-31.682186,71.891449,788.904724
00158_color_1715718756.222611.png,987,1715718756.2199411,58.252117,-144.122971,747.002869,290.461639,-145.200836,748.640686,298.843475,-365.940369,747.890198,61.530014,-374.476746,742.815552,739.015442,136.6689,832.136169,796.611511,167.195358,796.342896,804.579895,113.104012,805.209656,736.067932,80.769798,817.192566,704.332764,62.433125,816.583313,674.471252,52.285553,829.332153,669.630737,119.779312,852.461487,640.695984,118.276611,851.322815,610.753357,113.072998,844.93927,308.093048,937.355896,1497.369385,253.890457,930.180908,1512.342285,202.833099,947.572998,1491.306396,113.639709,10.769392,762.805481,142.37825,0.637955,755.960266,163.205887,-5.191403,750.602234,32.519901,-4.591694,768.074463,57.036446,-25.798992,766.767456,83.760994,-42.757965,767.443909,73.380913,37.60944,773.153809,72.542328,70.805946,763.575928,31.939381,64.00695,773.527161,-31.793251,72.066345,788.928894
00159_color_1715718756.256903.png,991,1715718756.259941,37.186493,-142.316315,746.393799,269.441803,-144.528931,748.258667,277.055847,-365.318054,747.59021,39.714851,-373.007538,742.339844,734.76062,137.485535,831.297913,792.705627,167.847672,795.721436,800.469238,113.72538,804.680847,731.942505,81.551071,816.307434,700.028015,63.393368,815.570312,670.093506,53.235859,828.189697,665.144836,120.751625,851.122375,636.341431,119.459656,849.615112,606.348206,114.067047,843.225525,307.315948,937.660034,1496.820068,253.886902,930.18158,1512.347168,202.844223,947.567566,1491.319092,113.50769,10.943872,762.906494,142.225464,0.448356,756.245667,163.000122,-5.175879,750.587463,32.361343,-4.144788,768.576294,57.060188,-25.126703,767.845398,83.950645,-41.339516,769.653748,73.042664,37.832191,773.1297,72.458717,71.250725,763.769104,31.782667,64.307434,773.539001,-31.907034,72.236145,788.963684
00160_color_1715718756.290630.png,994,1715718756.289941,23.071648,-140.691544,746.099976,255.279129,-144.254959,748.041748,261.488922,-365.02002,747.426941,24.113184,-371.217194,742.041077,731.591187,138.421783,830.296204,789.839966,168.729233,795.043579,797.426453,114.531967,804.191895,728.736267,82.52005,815.533386,696.979126,64.592293,814.892334,666.736938,54.439816,827.30249,661.771484,121.963806,849.684387,632.902344,120.687866,848.113708,603.049866,115.277756,841.461182,307.315338,937.648254,1496.819336,253.895844,930.186462,1512.349487,202.844238,947.568359,1491.321289,113.505127,10.92932,762.910767,142.159195,0.523105,756.189026,162.927277,-5.144819,750.574951,32.304585,-3.919829,768.828674,57.184326,-24.269806,768.946655,84.201218,-39.912716,771.679504,72.964409,37.760777,773.018982,72.447235,71.313194,763.797119,31.722397,64.342804,773.606934,-31.946983,72.174652,789.000793
00161_color_1715718756.324755.png,997,1715718756.319941,9.990856,-138.879593,745.842224,242.198059,-143.936722,747.929138,247.101379,-364.808472,747.177979,9.790995,-369.667236,741.779724,728.439331,139.751068,829.123291,787.054932,169.651749,794.209839,794.546387,115.481636,803.68634,725.557312,83.8116,814.643005,693.777344,65.788078,813.937805,663.426392,55.907581,826.207275,658.463135,123.489487,848.080688,629.677063,122.346466,846.171021,599.784119,117.016426,839.34552,307.2995,937.651917,1496.819214,253.888428,930.191162,1512.356201,202.855682,947.555115,1491.341431,113.472122,10.774035,762.797546,142.083969,0.203419,756.395264,162.882812,-5.156131,750.594299,32.031296,-3.588582,769.194214,56.927837,-23.200468,770.520508,84.181557,-38.123257,774.885254,72.859009,37.68203,772.969788,72.577522,71.026016,763.669922,31.616192,64.270309,773.744202,-32.055401,71.995911,789.013062
00162_color_1715718756.361735.png,1001,1715718756.359941,-4.97276,-137.558304,745.545654,227.028595,-143.466034,747.624634,230.934616,-364.378784,746.871216,-6.396143,-367.994904,741.475159,724.629333,141.630707,827.532471,783.833191,171.168427,792.918335,790.937988,116.971298,802.735657,721.649902,85.718613,813.269287,689.84021,67.955711,812.519165,659.364502,58.247116,824.541565,654.376343,125.742348,845.82312,625.571228,124.766243,843.709717,595.795593,119.520332,836.729004,307.878815,937.482056,1497.193237,253.888397,930.192017,1512.35498,202.841385,947.571106,1491.327026,113.42514,10.915416,762.921997,142.005493,0.480554,756.314331,162.748505,-5.158848,750.603149,31.72677,-3.111883,769.7052,56.673756,-21.742432,772.462524,83.997345,-36.128555,778.151306,72.80555,37.776966,773.007751,72.319267,71.172935,763.631226,31.527187,64.500755,773.768494,-32.162903,72.088623,788.911438
00163_color_1715718756.397457.png,1005,1715718756.3999412,-17.542137,-136.418518,745.151001,214.700455,-143.019043,747.398743,217.991852,-363.895721,746.642273,-19.408869,-366.939972,741.247498,721.174194,143.288239,825.95105,780.803894,172.544632,791.750854,787.532654,118.327255,801.59436,718.101562,87.410858,811.577148,686.230957,69.739807,810.439453,655.602966,60.212231,822.343201,650.787109,127.626732,843.723633,621.963501,126.857605,841.365051,592.154175,121.708008,834.098755,307.969055,937.4245,1497.266724,253.883301,930.194763,1512.353516,202.854614,947.557556,1491.328857,113.297348,10.968091,763.040649,141.805252,0.250668,756.521973,162.565079,-5.179466,750.582336,31.463049,-2.775512,769.99231,56.167084,-20.961166,773.380005,83.666191,-34.646576,780.508606,72.683891,37.891937,773.077637,72.219971,71.280731,763.641907,31.408337,64.709526,773.746155,-32.262798,72.304199,788.823792
00164_color_1715718756.433917.png,1008,1715718756.4299412,-24.94187,-135.820038,744.880615,207.21138,-142.773773,747.334534,210.159668,-363.759674,746.603333,-27.179522,-366.45047,741.065063,718.919678,144.556686,824.973572,779.005798,173.740219,791.179749,785.32782,119.59697,800.915283,715.835693,88.693848,810.385254,683.818726,71.038086,808.951904,653.08252,61.628471,820.652222,648.346741,129.085236,842.157898,619.564331,128.345459,839.639099,589.802063,123.368706,832.16449,308.020752,937.377441,1497.310059,253.884857,930.186951,1512.346191,202.828384,947.571899,1491.3125,113.205322,10.947667,763.035461,141.678391,0.202609,756.503723,162.441467,-5.217454,750.587341,31.311872,-2.585216,770.094604,55.855251,-20.675283,773.711487,82.98008,-34.094833,781.511292,72.646881,38.032555,773.198792,72.198257,71.535477,763.842712,31.377327,64.814743,773.735962,-32.263462,72.513092,788.81427
00165_color_1715718756.467996.png,1012,1715718756.4699411,-32.365368,-135.200333,744.805664,199.811554,-142.474091,747.219727,202.544693,-363.35968,746.511536,-34.854927,-365.787872,740.932373,716.425903,146.490952,823.871155,776.839172,175.496796,790.488342,783.082886,121.215111,800.081177,713.285461,90.627632,809.121521,681.18103,73.106773,807.597595,650.432983,63.712059,818.983459,645.649597,131.170914,840.590149,616.890137,130.513596,837.813843,587.164673,125.59256,830.255066,308.057098,937.349731,1497.355835,253.875763,930.190796,1512.347778,202.85965,947.554688,1491.341431,113.193657,10.989507,763.052856,141.637161,0.233983,756.512634,162.412521,-5.225905,750.588135,31.25646,-2.411147,770.213074,55.620899,-20.285746,774.061768,82.776863,-33.788822,782.386719,72.609024,37.979271,773.082764,72.202049,71.348076,763.62677,31.380278,64.90464,773.723938,-32.20211,72.642807,788.804565
00166_color_1715718756.504358.png,1015,1715718756.499941,-35.63765,-134.782364,744.723267,196.516983,-142.449768,747.112183,198.949921,-363.261536,746.477783,-38.470402,-365.381989,740.853699,714.924255,147.84671,823.41333,775.614929,176.815399,790.230774,781.545776,122.524017,799.778687,711.605469,92.023903,808.468567,679.565002,74.727936,806.760803,648.742493,65.330803,818.137939,644.089172,132.707382,839.835266,615.332886,132.216949,837.017761,585.608154,127.420425,829.377136,308.064911,937.354919,1497.356079,253.882019,930.189392,1512.352417,202.851578,947.56073,1491.300415,113.157784,10.953979,763.034058,141.603134,0.214723,756.493652,162.380905,-5.226125,750.594055,31.191576,-2.444566,770.150085,55.522694,-20.258999,774.042175,82.429886,-33.771343,782.374817,72.590874,37.968338,773.120056,72.148598,71.32415,763.635559,31.352016,64.871597,773.741943,-32.223259,72.562454,788.816833
00167_color_1715718756.538208.png,1019,1715718756.539941,-37.428822,-134.627563,744.680542,194.76503,-142.364456,747.049866,196.855484,-363.358276,746.386719,-40.49942,-365.043274,740.834778,713.257324,149.862061,823.252563,774.051514,178.662094,790.375366,779.850952,124.301994,799.858826,709.817322,94.128883,808.261841,677.667908,76.890381,806.420288,646.819275,67.661339,817.731323,642.260925,134.995987,839.414185,613.52887,134.554581,836.479736,583.766052,129.896515,828.686584,308.073853,937.355957,1497.35437,253.886246,930.191589,1512.34375,202.851883,947.564514,1491.302002,113.159225,10.917382,763.020752,141.57988,0.16604,756.468628,162.372299,-5.255944,750.570984,31.209072,-2.573033,770.008057,55.507114,-20.353752,773.900757,82.363373,-33.872334,782.310242,72.547676,37.862877,773.077026,72.125854,71.198891,763.674133,31.319912,64.690887,773.784607,-32.288647,72.313469,788.890747
00168_color_1715718756.573434.png,1022,1715718756.569941,-37.65942,-134.601059,744.677917,194.523804,-142.353073,747.063904,196.650543,-363.306854,746.40387,-40.719299,-365.029755,740.815186,712.338989,151.252579,823.507202,773.269287,179.773438,790.629822,778.880798,125.398842,800.091675,708.749756,95.521088,808.574463,676.597656,78.360931,806.731689,645.640747,69.346909,818.085571,641.380676,136.649796,839.66449,612.601074,136.388153,836.755188,582.798157,131.913528,828.957458,308.075684,937.360291,1497.356812,253.878738,930.192505,1512.34668,202.849701,947.570557,1491.331421,113.088135,10.907339,763.01239,141.519638,0.208606,756.480164,162.323761,-5.235304,750.593567,31.137506,-2.586299,769.964111,55.39373,-20.284786,773.890076,82.209206,-33.996517,782.221252,72.495705,37.897728,773.178406,72.026817,71.388374,763.933838,31.216791,64.570801,773.804016,-32.380909,72.113861,788.927307
00169_color_1715718756.607588.png,1026,1715718756.609941,-37.614113,-134.599747,744.674133,194.558884,-142.353439,747.059631,196.682816,-363.315186,746.387268,-40.676418,-365.035614,740.826965,711.603577,152.620407,824.453674,772.66748,180.906281,791.435913,778.138306,126.754044,800.924316,707.772766,96.949814,809.197388,675.592468,79.961006,807.346558,644.53363,71.019913,818.775146,640.55896,138.323608,840.631226,611.789185,138.064545,837.678162,582.005798,133.695206,829.906616,308.076935,937.363403,1497.354126,253.885773,930.206421,1512.350098,202.863678,947.568665,1491.327026,113.027588,10.956903,763.089722,141.416443,0.27284,756.522766,162.206909,-5.194156,750.594482,31.048475,-2.430444,770.091614,55.186588,-19.916807,774.280823,81.971703,-33.256794,783.222656,72.401276,37.928082,773.154236,71.919266,71.243362,763.742004,31.120325,64.678635,773.823669,-32.512878,72.039314,788.911621
00170_color_1715718756.641511.png,1029,1715718756.6399412,-37.314487,-134.552948,744.718262,194.875076,-142.340897,747.057434,196.934464,-363.350464,746.407104,-40.400253,-364.967712,740.879272,711.345337,153.313751,825.356445,772.371216,181.600418,792.390625,777.653625,127.176819,801.470642,707.321716,97.722649,809.95166,675.052673,80.690727,808.055603,644.032349,71.849464,819.451721,640.27063,139.047089,841.475098,611.467285,138.99791,838.641602,581.680603,134.72673,830.889404,308.077087,937.374939,1497.355347,253.878113,930.196594,1512.35083,202.859726,947.556641,1491.345215,112.980049,11.0175,763.144165,141.350266,0.309878,756.558228,162.127274,-5.176846,750.627319,30.997023,-2.298732,770.195618,55.067196,-19.573683,774.620911,81.809212,-32.813351,783.841492,72.363754,37.982719,773.18219,71.898903,71.292969,763.771484,31.096203,64.743973,773.841553,-32.569347,72.039886,788.931702
00171_color_1715718756.674918.png,1032,1715718756.6699412,-36.322983,-134.395279,744.718933,195.874786,-142.437164,747.090637,197.745697,-363.446533,746.431702,-39.615654,-364.817017,740.916504,711.39563,153.66185,826.231873,772.397461,181.878403,793.329773,777.599548,127.324211,802.178955,707.133118,98.242004,810.848511,674.805481,81.287224,809.039307,643.804199,72.495605,820.453186,640.354431,139.649414,842.58429,611.469299,139.652695,839.792542,581.605957,135.461548,832.034424,308.062805,937.352844,1497.35791,253.886246,930.193054,1512.348877,202.862732,947.552124,1491.331787,112.915283,10.989523,763.159546,141.270844,0.287302,756.549194,162.036316,-5.196136,750.619202,30.907816,-2.26811,770.231018,54.858494,-19.412979,774.748108,81.502411,-32.697002,784.199219,72.370804,38.171265,773.450684,71.806229,71.578033,764.028931,31.024109,64.733452,773.871399,-32.647041,72.016876,788.925476
00172_color_1715718756.708701.png,1036,1715718756.7099411,-34.018238,-134.163376,744.759888,198.220703,-142.622391,747.149414,199.792572,-363.463348,746.448853,-37.530762,-364.813446,740.923279,711.910217,153.838242,827.520142,772.930054,181.525314,794.075012,777.968872,127.068878,803.129761,707.424744,98.332748,812.178284,674.958984,81.759407,810.604614,644.016418,72.988327,822.158875,640.800415,140.133804,844.175171,611.995789,140.193405,841.435303,582.202026,136.143814,833.774292,308.07312,937.352234,1497.358154,253.88623,930.18042,1512.355103,202.857239,947.568115,1491.34729,112.883377,11.284114,763.447754,141.236267,0.318468,756.564636,161.997864,-5.201097,750.589111,30.876293,-2.172053,770.347778,54.680866,-19.074057,775.064087,81.241776,-32.365997,784.71698,72.312706,38.203796,773.397644,71.805077,71.640739,764.004028,31.022491,64.852608,773.837952,-32.639847,72.120415,788.916687
